; generated by SuperSlicer 2.4 on 2023-11-24 at 17:07:21 UTC


;
;

;
;
; 

; external perimeters extrusion width = 0.40mm
; perimeters extrusion width = 0.46mm
; infill extrusion width = 0.64mm
; solid infill extrusion width = 0.56mm
; top infill extrusion width = 0.40mm
; first layer extrusion width = 0.50mm

; external perimeters extrusion width = 0.40mm
; perimeters extrusion width = 0.46mm
; infill extrusion width = 0.64mm
; solid infill extrusion width = 0.56mm
; top infill extrusion width = 0.40mm
; first layer extrusion width = 0.50mm

; external perimeters extrusion width = 0.40mm
; perimeters extrusion width = 0.46mm
; infill extrusion width = 0.64mm
; solid infill extrusion width = 0.56mm
; top infill extrusion width = 0.40mm
; first layer extrusion width = 0.50mm

; object:{"name":"BodyGroove","id":"BodyGroove.stl id:0 copy 0","object_center":[164.885339,134.653904,0.000000],"boundingbox_center":[164.885339,134.653904,6.750000],"boundingbox_size":[27.631969,27.631970,13.499999]}
; object:{"name":"BodyClip_2","id":"BodyClip_2.stl id:1 copy 0","object_center":[134.590128,162.875403,0.000000],"boundingbox_center":[134.590128,162.875403,4.000000],"boundingbox_size":[36.293872,25.981370,8.000000]}
; object:{"name":"BodyClip","id":"BodyClip.stl id:2 copy 0","object_center":[147.843397,148.347644,0.000000],"boundingbox_center":[147.843397,148.347644,4.000000],"boundingbox_size":[36.293915,25.981408,8.000000]}
; plater:{"center":[147.572258,148.352004,0.000000],"boundingbox_center":[147.572258,148.352004,6.750000],"boundingbox_size":[62.258132,55.028169,13.499999]}

M73 P0 R21


; Pre-Processed for Cancel-Object support by preprocess_cancellation v0.2.0
; 3 known objects
EXCLUDE_OBJECT_DEFINE NAME=BodyGroove_stl_id_0_copy_0 CENTER=164.958,134.549 POLYGON=[[151.27,121.05],[151.27,148.269],[178.501,148.269],[178.501,121.05]]
EXCLUDE_OBJECT_DEFINE NAME=BodyClip_stl_id_2_copy_0 CENTER=149.623,146.804 POLYGON=[[129.897,135.562],[129.897,161.137],[165.789,161.137],[165.789,135.562]]
EXCLUDE_OBJECT_DEFINE NAME=BodyClip_2_stl_id_1_copy_0 CENTER=136.789,161.642 POLYGON=[[116.644,150.089],[116.644,175.665],[152.536,175.665],[152.536,150.089]]
;TYPE:Custom
; custom gcode: start_gcode
M190 S0
M104 S0
PRINT_START EXTRUDER_TEMP=225 BED_TEMP=60 FILAMENT=PLA SIZE=112.122_116.52_183.02_180.178 ENCLOSURE_TEMP=0
; custom gcode end: start_gcode
M107
G21 ; set units to millimeters
G90 ; use absolute coordinates
M83 ; use relative distances for extrusion
;_TOOLCHANGE 0
;LAYER_CHANGE
;Z:0.25
;HEIGHT:0.25
G1 Z0.25 F48000
; custom gcode: layer_gcode
;DISPLAY_PROGRESS TOTAL_LAYERS=67 CURRENT_LAYER=0
; custom gcode end: layer_gcode

G92 E0
M73 P1 R20
G1 E-1.6 F1800
G1 Z0.65 F48000
M204 S2000
G1 X127.537 Y133.128
G1 Z0.25
G1 E1.6 F1800
; custom gcode: feature_gcode
; External perimeter
;Skirt
SET_VELOCITY_LIMIT ACCEL=7000 ACCEL_TO_DECEL=7000 SQUARE_CORNER_VELOCITY=8

; Support material
; custom gcode end: feature_gcode

;TYPE:Skirt
;WIDTH:0.46
G1 F3600
G1 X114.283 Y147.655 E0.71427
G1 X113.704 Y148.477 E0.0365
G1 X113.293 Y149.415 E0.03722
G1 X112.66 Y152.239 E0.10513
G1 X112.529 Y158.943 E0.24353
G1 X112.583 Y159.664 E0.02629
G1 X112.828 Y160.659 E0.0372
G1 X113.217 Y161.468 E0.03262
G1 X114.184 Y162.641 E0.05522
G1 X115.179 Y163.333 E0.04402
G1 X146.128 Y179.267 E1.26437
G1 X146.927 Y179.576 E0.03111
G1 X147.933 Y179.766 E0.0372
G1 X149.074 Y179.715 E0.04146
G1 X151.641 Y179.054 E0.09629
G1 X152.797 Y178.54 E0.04597
G1 X153.795 Y177.735 E0.04654
G1 X167.277 Y162.959 E0.72655
G1 X181.317 Y146.33 E0.7905
G1 X181.86 Y145.525 E0.03524
G1 X182.151 Y144.929 E0.02409
G1 X182.519 Y143.692 E0.04688
G1 X182.603 Y143.047 E0.02362
G1 X182.601 Y142.234 E0.02954
G1 X182.454 Y141.269 E0.03546
G1 X182.265 Y140.633 E0.02409
G1 X181.697 Y139.466 E0.04714
G1 X180.883 Y138.449 E0.04732
G1 X160.846 Y118.431 E1.02877
G1 X160.064 Y117.84 E0.03561
G1 X159.198 Y117.388 E0.03546
G1 X158.27 Y117.085 E0.03546
G1 X157.316 Y116.936 E0.03507
G1 X156.503 Y116.939 E0.02953
G1 X155.536 Y117.086 E0.03554
G1 X154.911 Y117.267 E0.02362
G1 X153.939 Y117.718 E0.03894
G1 X128.32 Y132.401 E1.07254
G1 X127.581 Y133.087 E0.03662
G1 X127.857 Y133.383 F48000
G1 F3600
G1 X127.837 Y133.402 E0.00098
G1 X114.584 Y147.929 E0.71427
G1 X114.063 Y148.667 E0.0328
G1 X113.682 Y149.532 E0.03432
G1 X113.064 Y152.278 E0.10223
G1 X112.935 Y158.949 E0.24233
G1 X112.984 Y159.597 E0.02363
G1 X113.208 Y160.515 E0.03431
G1 X113.562 Y161.253 E0.02972
G1 X114.461 Y162.344 E0.05137
G1 X115.365 Y162.972 E0.03998
G1 X146.314 Y178.906 E1.26437
G1 X147.032 Y179.183 E0.02796
G1 X147.96 Y179.36 E0.03431
G1 X149.021 Y179.312 E0.03857
G1 X151.534 Y178.662 E0.09431
G1 X152.594 Y178.188 E0.04218
G1 X153.508 Y177.448 E0.04269
G1 X166.967 Y162.697 E0.72531
G1 X181.007 Y146.068 E0.7905
M73 P2 R20
G1 X181.51 Y145.317 E0.03282
G1 X181.772 Y144.782 E0.02165
G1 X182.121 Y143.609 E0.04444
G1 X182.195 Y142.251 E0.04939
G1 X182.056 Y141.352 E0.03302
G1 X181.886 Y140.781 E0.02165
G1 X181.357 Y139.689 E0.0441
G1 X180.596 Y138.736 E0.04427
G1 X160.583 Y118.741 E1.02755
G1 X159.856 Y118.189 E0.03317
G1 X159.05 Y117.767 E0.03302
G1 X158.187 Y117.483 E0.03302
G1 X157.283 Y117.341 E0.03324
G1 X156.52 Y117.345 E0.02771
G1 X155.619 Y117.483 E0.0331
G1 X155.043 Y117.652 E0.02179
G1 X154.14 Y118.071 E0.03616
G1 X128.557 Y132.731 E1.071
G1 X127.901 Y133.342 E0.03259
G1 X128.177 Y133.638 F48000
G1 F3600
G1 X128.137 Y133.675 E0.00199
G1 X114.884 Y148.203 E0.71427
G1 X114.422 Y148.858 E0.02911
G1 X114.071 Y149.649 E0.03143
G1 X113.468 Y152.317 E0.09934
G1 X113.341 Y158.954 E0.24113
G1 X113.385 Y159.53 E0.02097
G1 X113.588 Y160.371 E0.03141
G1 X113.906 Y161.037 E0.02683
G1 X114.738 Y162.047 E0.04752
G1 X115.551 Y162.611 E0.03593
G1 X146.5 Y178.545 E1.26437
G1 X147.137 Y178.791 E0.02481
G1 X147.986 Y178.955 E0.03142
G1 X148.968 Y178.909 E0.03568
G1 X151.427 Y178.27 E0.09232
G1 X152.391 Y177.836 E0.03839
G1 X153.322 Y177.055 E0.04414
G1 X166.656 Y162.435 E0.71873
G1 X180.697 Y145.806 E0.7905
G1 X181.394 Y144.634 E0.04952
G1 X181.724 Y143.525 E0.04201
G1 X181.789 Y142.268 E0.04574
G1 X181.508 Y140.929 E0.0497
G1 X181.017 Y139.911 E0.04105
G1 X180.309 Y139.024 E0.04122
G1 X160.515 Y119.231 E1.01672
G1 X159.648 Y118.538 E0.04032
G1 X158.903 Y118.146 E0.03059
G1 X158.103 Y117.881 E0.03059
G1 X157.249 Y117.746 E0.03141
G1 X156.537 Y117.751 E0.02588
G1 X155.703 Y117.881 E0.03066
G1 X155.175 Y118.036 E0.01996
G1 X154.342 Y118.423 E0.03338
G1 X128.794 Y133.06 E1.06946
G1 X128.221 Y133.597 E0.02852
M104 S225 ; set temperature
G1 E-1.6 F1800
M204 S10000
G1 Z0.65 F48000
; printing object BodyGroove.stl id:0 copy 0
EXCLUDE_OBJECT_START NAME=BodyGroove_stl_id_0_copy_0
; acceleration to travel
G1 X165.62 Y138.567
; decel to extrusion
M204 S2000
G1 X173.099 Y139.561
; end travel
G1 Z0.25
G1 E1.6 F1800
; custom gcode: feature_gcode
; External perimeter
;Perimeter
SET_VELOCITY_LIMIT ACCEL=2000 ACCEL_TO_DECEL=2000 SQUARE_CORNER_VELOCITY=8

; Overhang perimeter
; custom gcode end: feature_gcode

;TYPE:Internal perimeter
;WIDTH:0.5
G1 F3600
G1 X172.661 Y139.631 E0.01771
G1 X172.244 Y139.783 E0.01771
G1 X171.864 Y140.013 E0.01771
G1 X171.535 Y140.311 E0.01771
G1 X171.27 Y140.667 E0.01771
G1 X171.078 Y141.068 E0.01771
G1 X170.966 Y141.498 E0.01771
G1 X170.94 Y141.941 E0.01771
G1 X170.998 Y142.381 E0.01771
G1 X171.141 Y142.801 E0.01771
G1 X171.361 Y143.187 E0.01771
G1 X171.652 Y143.523 E0.01771
G1 X172.001 Y143.796 E0.01771
G1 X172.397 Y143.998 E0.01771
G1 X172.824 Y144.12 E0.01771
G1 X173.266 Y144.157 E0.01771
G1 X173.688 Y144.111 E0.01694
G1 X173.94 Y144.046 E0.0104
G1 X174.332 Y143.881 E0.01694
G1 X174.7 Y143.633 E0.01771
G1 X175.014 Y143.319 E0.01771
G1 X175.262 Y142.951 E0.01771
G1 X175.434 Y142.542 E0.01771
G1 X175.525 Y142.107 E0.01771
G1 X175.53 Y141.663 E0.01771
G1 X175.45 Y141.226 E0.01771
G1 X175.288 Y140.813 E0.01771
G1 X175.049 Y140.439 E0.01771
G1 X174.743 Y140.117 E0.01771
G1 X174.38 Y139.861 E0.01771
G1 X173.975 Y139.679 E0.01771
G1 X173.543 Y139.578 E0.01771
G1 X173.159 Y139.564 E0.01532
G1 E-1.6 F1800
M204 S10000
G1 Z0.65 F48000
M204 S2000
G1 X172.904 Y143.679
G1 Z0.25
G1 E1.6 F1800
; custom gcode: feature_gcode
; External perimeter
;ExternalPerimeter
SET_VELOCITY_LIMIT ACCEL=1000 ACCEL_TO_DECEL=1000 SQUARE_CORNER_VELOCITY=8

; Perimeter
; custom gcode end: feature_gcode

;TYPE:External perimeter
G1 F3600
G1 X173.261 Y143.709 E0.01426
G1 X173.607 Y143.671 E0.01392
G1 X173.797 Y143.622 E0.00781
G1 X174.118 Y143.486 E0.01392
G1 X174.415 Y143.287 E0.01426
G1 X174.668 Y143.034 E0.01426
G1 X174.867 Y142.738 E0.01426
G1 X175.006 Y142.408 E0.01426
G1 X175.079 Y142.058 E0.01426
G1 X175.083 Y141.701 E0.01426
G1 X175.019 Y141.349 E0.01426
G1 X174.888 Y141.017 E0.01426
G1 X174.696 Y140.715 E0.01426
G1 X174.449 Y140.457 E0.01426
G1 X174.158 Y140.25 E0.01426
G1 X173.832 Y140.103 E0.01426
G1 X173.484 Y140.022 E0.01426
G1 X173.126 Y140.009 E0.01426
G1 X172.773 Y140.065 E0.01426
G1 X172.438 Y140.188 E0.01426
G1 X172.132 Y140.373 E0.01426
G1 X171.867 Y140.613 E0.01426
G1 X171.654 Y140.899 E0.01426
G1 X171.499 Y141.222 E0.01426
G1 X171.409 Y141.568 E0.01426
G1 X171.388 Y141.924 E0.01426
G1 X171.435 Y142.279 E0.01426
G1 X171.55 Y142.617 E0.01426
G1 X171.727 Y142.928 E0.01426
G1 X171.961 Y143.198 E0.01426
G1 X172.242 Y143.418 E0.01426
G1 X172.561 Y143.581 E0.01426
G1 X172.847 Y143.662 E0.01187
;WIPE_START
M204 S10000
G1 X173.051 Y144.051 F48000
;WIPE_END
G1 E-1.6 F1800
G1 Z0.65 F48000
; acceleration to travel
G1 X160.066 Y127.356
; decel to extrusion
M204 S2000
G1 X157.469 Y124.017
; end travel
G1 Z0.25
G1 E1.6 F1800
; custom gcode: feature_gcode
; External perimeter
;Perimeter
SET_VELOCITY_LIMIT ACCEL=2000 ACCEL_TO_DECEL=2000 SQUARE_CORNER_VELOCITY=8

; Overhang perimeter
; custom gcode end: feature_gcode

;TYPE:Internal perimeter
G1 F3600
G1 X157.104 Y124.075 E0.01474
G1 X156.687 Y124.227 E0.01771
G1 X156.308 Y124.457 E0.01771
G1 X155.979 Y124.755 E0.01771
G1 X155.713 Y125.111 E0.01771
G1 X155.522 Y125.511 E0.01771
G1 X155.41 Y125.941 E0.01771
G1 X155.383 Y126.384 E0.01771
G1 X155.442 Y126.824 E0.01771
G1 X155.584 Y127.245 E0.01771
G1 X155.805 Y127.63 E0.01771
G1 X156.095 Y127.966 E0.01771
G1 X156.445 Y128.24 E0.01771
G1 X156.84 Y128.442 E0.01771
G1 X157.267 Y128.563 E0.01771
G1 X157.71 Y128.601 E0.01771
G1 X158.151 Y128.553 E0.01771
G1 X158.575 Y128.421 E0.01771
G1 X158.965 Y128.21 E0.01771
G1 X159.293 Y127.94 E0.01694
G1 X159.468 Y127.747 E0.0104
G1 X159.705 Y127.394 E0.01694
G1 X159.878 Y126.985 E0.01771
G1 X159.968 Y126.551 E0.01771
G1 X159.974 Y126.107 E0.01771
G1 X159.894 Y125.67 E0.01771
G1 X159.731 Y125.257 E0.01771
G1 X159.492 Y124.883 E0.01771
G1 X159.186 Y124.561 E0.01771
G1 X158.824 Y124.304 E0.01771
G1 X158.419 Y124.122 E0.01771
G1 X157.98 Y124.02 E0.01799
G1 X157.529 Y124.017 E0.01798
G1 E-1.6 F1800
M204 S10000
G1 Z0.65 F48000
M204 S2000
G1 X157.775 Y128.145
G1 Z0.25
G1 E1.6 F1800
; custom gcode: feature_gcode
; External perimeter
;ExternalPerimeter
SET_VELOCITY_LIMIT ACCEL=1000 ACCEL_TO_DECEL=1000 SQUARE_CORNER_VELOCITY=8

; Perimeter
; custom gcode end: feature_gcode

;TYPE:External perimeter
G1 F3600
G1 X158.06 Y128.114 E0.0114
G1 X158.401 Y128.007 E0.01426
G1 X158.715 Y127.838 E0.01426
G1 X158.985 Y127.616 E0.01392
G1 X159.116 Y127.471 E0.00781
G1 X159.311 Y127.181 E0.01392
G1 X159.45 Y126.852 E0.01426
G1 X159.523 Y126.502 E0.01426
G1 X159.527 Y126.145 E0.01426
G1 X159.462 Y125.793 E0.01426
G1 X159.332 Y125.46 E0.01426
G1 X159.139 Y125.159 E0.01426
G1 X158.893 Y124.9 E0.01426
G1 X158.601 Y124.694 E0.01426
G1 X158.275 Y124.547 E0.01426
G1 X157.927 Y124.466 E0.01426
G1 X157.503 Y124.463 E0.01692
G1 X157.217 Y124.509 E0.01156
G1 X156.881 Y124.631 E0.01426
G1 X156.575 Y124.816 E0.01426
G1 X156.311 Y125.057 E0.01426
G1 X156.097 Y125.343 E0.01426
G1 X155.943 Y125.665 E0.01426
G1 X155.853 Y126.011 E0.01426
G1 X155.831 Y126.368 E0.01426
G1 X155.879 Y126.722 E0.01426
G1 X155.993 Y127.061 E0.01426
G1 X156.171 Y127.371 E0.01426
G1 X156.405 Y127.642 E0.01426
G1 X156.686 Y127.862 E0.01426
G1 X157.004 Y128.024 E0.01426
G1 X157.348 Y128.122 E0.01426
G1 X157.716 Y128.151 E0.01472
;WIPE_START
M204 S10000
G1 X158.012 Y128.467 F48000
;WIPE_END
G1 E-1.6 F1800
G1 Z0.65 F48000
M204 S2000
G1 X154.82 Y124.91
G1 Z0.25
G1 E1.6 F1800
; custom gcode: feature_gcode
; External perimeter
;Perimeter
SET_VELOCITY_LIMIT ACCEL=2000 ACCEL_TO_DECEL=2000 SQUARE_CORNER_VELOCITY=8

; Overhang perimeter
; custom gcode end: feature_gcode

;TYPE:Internal perimeter
G1 F3600
G1 X154.679 Y125.204 E0.01297
G1 X154.524 Y125.801 E0.02462
G1 X154.487 Y126.417 E0.02462
G1 X154.569 Y127.029 E0.02462
G1 X154.767 Y127.613 E0.02462
G1 X155.073 Y128.149 E0.02462
G1 X155.477 Y128.616 E0.02462
G1 X155.962 Y128.996 E0.02462
G1 X156.512 Y129.276 E0.02462
G1 X157.106 Y129.446 E0.02462
G1 X157.72 Y129.498 E0.02462
G1 X158.334 Y129.431 E0.02462
G1 X158.923 Y129.247 E0.02462
G1 X159.466 Y128.954 E0.02462
G1 X159.911 Y128.588 E0.02298
G1 X160.173 Y128.299 E0.01557
G1 X160.494 Y127.821 E0.02298
G1 X160.734 Y127.252 E0.02462
G1 X160.911 Y126.403 E0.03459
G1 X173.156 Y138.649 E0.69093
G1 X172.436 Y138.763 E0.02911
G1 X171.856 Y138.975 E0.02462
G1 X171.328 Y139.294 E0.02462
G1 X170.871 Y139.709 E0.02462
G1 X170.502 Y140.203 E0.02462
G1 X170.236 Y140.76 E0.02462
G1 X170.081 Y141.357 E0.02462
G1 X170.043 Y141.973 E0.02462
G1 X170.125 Y142.585 E0.02462
G1 X170.323 Y143.169 E0.02462
G1 X170.629 Y143.705 E0.02462
G1 X171.033 Y144.172 E0.02462
G1 X171.519 Y144.553 E0.02462
G1 X172.069 Y144.833 E0.02462
G1 X172.662 Y145.002 E0.02462
G1 X173.277 Y145.054 E0.02462
G1 X173.849 Y144.992 E0.02298
G1 X174.227 Y144.894 E0.01557
G1 X174.658 Y144.712 E0.01864
G1 X174.822 Y144.956 E0.01173
G1 X173.153 Y146.625 E0.09416
G1 X173.017 Y146.732 E0.00692
G1 X172.928 Y146.766 E0.00378
G1 X172.833 Y146.77 E0.00382
G1 X172.752 Y146.75 E0.00332
G1 X172.657 Y146.692 E0.00444
G1 X152.912 Y126.957 E1.11383
G1 X152.806 Y126.82 E0.00689
G1 X152.773 Y126.735 E0.00365
G1 X152.769 Y126.639 E0.00383
G1 X152.79 Y126.558 E0.00332
G1 X152.847 Y126.463 E0.00444
G1 X154.574 Y124.736 E0.09744
G1 X154.771 Y124.876 E0.00963
G1 X157.6 Y123.092 F48000
G1 F3000
G1 X156.879 Y123.206 E0.02911
G1 X156.281 Y123.425 E0.02541
G1 X156.127 Y123.183 E0.01144
G1 X156.717 Y122.593 E0.03328
G1 X156.84 Y122.539 E0.0054
G1 X156.969 Y122.538 E0.00514
G1 X157.096 Y122.6 E0.00561
G1 X157.173 Y122.666 E0.00406
G1 X157.557 Y123.05 E0.02168
; acceleration to travel
M204 S10000
G1 X173.316 Y138.808 F48000
; decel to extrusion
M204 S2000
G1 X176.467 Y141.96
; end travel
G1 F3000
G1 X176.856 Y142.348 E0.02191
G1 X176.961 Y142.483 E0.00682
G1 X176.993 Y142.556 E0.00322
G1 X177.004 Y142.643 E0.00347
G1 X176.99 Y142.726 E0.00337
G1 X176.94 Y142.826 E0.00444
G1 X176.874 Y142.904 E0.00412
G1 X176.337 Y143.441 E0.03028
G1 X176.093 Y143.277 E0.01173
G1 X176.29 Y142.808 E0.02028
G1 X176.455 Y142.018 E0.0322
G1 X173.998 Y139.226 F48000
G1 F3600
G1 X173.602 Y139.133 E0.0162
G1 X173.072 Y139.114 E0.02117
G1 X172.548 Y139.197 E0.02117
G1 X172.05 Y139.379 E0.02117
G1 X171.596 Y139.653 E0.02117
G1 X171.203 Y140.01 E0.02117
G1 X170.886 Y140.435 E0.02117
G1 X170.657 Y140.914 E0.02117
G1 X170.524 Y141.427 E0.02117
G1 X170.491 Y141.957 E0.02117
G1 X170.562 Y142.483 E0.02117
G1 X170.732 Y142.985 E0.02117
G1 X170.995 Y143.446 E0.02117
G1 X171.342 Y143.847 E0.02117
G1 X171.76 Y144.174 E0.02117
G1 X172.233 Y144.415 E0.02117
G1 X172.743 Y144.561 E0.02117
G1 X173.271 Y144.606 E0.02117
G1 X173.769 Y144.551 E0.01996
G1 X174.084 Y144.47 E0.01298
G1 X174.545 Y144.275 E0.01996
G1 X174.985 Y143.979 E0.02117
G1 X175.36 Y143.604 E0.02117
G1 X175.656 Y143.164 E0.02117
G1 X175.862 Y142.675 E0.02117
G1 X175.97 Y142.156 E0.02117
G1 X175.977 Y141.625 E0.02117
G1 X175.88 Y141.096 E0.02147
G1 X176.113 Y140.974 E0.01048
G1 X177.19 Y142.051 E0.06081
G1 X177.347 Y142.252 E0.01016
G1 X177.428 Y142.438 E0.00808
G1 X177.45 Y142.542 E0.00426
G1 X177.455 Y142.653 E0.00444
G1 X177.419 Y142.866 E0.0086
G1 X177.38 Y142.966 E0.00429
G1 X177.316 Y143.073 E0.00496
G1 X177.202 Y143.207 E0.00702
