; generated by SuperSlicer 2.4 on 2023-10-29 at 20:02:38 UTC


;
;

;
;
; 

; external perimeters extrusion width = 0.40mm
; perimeters extrusion width = 0.46mm
; infill extrusion width = 0.64mm
; solid infill extrusion width = 0.56mm
; top infill extrusion width = 0.40mm
; first layer extrusion width = 0.50mm

; external perimeters extrusion width = 0.40mm
; perimeters extrusion width = 0.46mm
; infill extrusion width = 0.64mm
; solid infill extrusion width = 0.56mm
; top infill extrusion width = 0.40mm
; first layer extrusion width = 0.50mm

; external perimeters extrusion width = 0.40mm
; perimeters extrusion width = 0.46mm
; infill extrusion width = 0.64mm
; solid infill extrusion width = 0.56mm
; top infill extrusion width = 0.40mm
; first layer extrusion width = 0.50mm

; external perimeters extrusion width = 0.40mm
; perimeters extrusion width = 0.46mm
; infill extrusion width = 0.64mm
; solid infill extrusion width = 0.56mm
; top infill extrusion width = 0.40mm
; first layer extrusion width = 0.50mm

; object:{"name":"Battery_Mount_2_x1","id":"Battery_Mount_2_x1.stl id:0 copy 0","object_center":[142.959678,147.601827,0.000000],"boundingbox_center":[142.959678,147.601827,4.000001],"boundingbox_size":[32.867796,41.218249,8.000003]}
; object:{"name":"Battery_Mount_x1","id":"Battery_Mount_x1.stl id:1 copy 0","object_center":[146.711886,143.063507,0.000000],"boundingbox_center":[146.711886,143.063507,4.000363],"boundingbox_size":[19.639020,19.462214,8.000726]}
; object:{"name":"Battery_Mount_x2","id":"Battery_Mount_x2.stl id:2 copy 0","object_center":[161.653006,131.748368,0.000000],"boundingbox_center":[161.653006,131.748368,4.000001],"boundingbox_size":[29.824145,29.754379,8.000003]}
; object:{"name":"Battery_Mount_x2","id":"Battery_Mount_x2.stl id:3 copy 0","object_center":[154.700640,137.936646,0.000000],"boundingbox_center":[154.700640,137.936646,4.000001],"boundingbox_size":[29.824145,29.754379,8.000003]}
; plater:{"center":[151.545429,142.541065,0.000000],"boundingbox_center":[151.545429,142.541065,4.000363],"boundingbox_size":[50.039299,51.339773,8.000726]}

M73 P0 R16


; Pre-Processed for Cancel-Object support by preprocess_cancellation v0.2.0
; 4 known objects
EXCLUDE_OBJECT_DEFINE NAME=Battery_Mount_2_x1_stl_id_0_copy_0 CENTER=139.527,144.697 POLYGON=[[126.726,127.193],[126.726,168.011],[159.193,168.011],[159.193,127.193]]
EXCLUDE_OBJECT_DEFINE NAME=Battery_Mount_x1_stl_id_1_copy_0 CENTER=146.781,142.968 POLYGON=[[137.092,133.532],[137.092,152.594],[156.331,152.594],[156.331,133.532]]
EXCLUDE_OBJECT_DEFINE NAME=Battery_Mount_x2_stl_id_3_copy_0 CENTER=154.616,137.764 POLYGON=[[139.99,123.261],[139.99,152.613],[169.412,152.613],[169.412,123.261]]
EXCLUDE_OBJECT_DEFINE NAME=Battery_Mount_x2_stl_id_2_copy_0 CENTER=161.569,131.576 POLYGON=[[146.942,117.072],[146.942,146.425],[176.364,146.425],[176.364,117.072]]
;TYPE:Custom
; custom gcode: start_gcode
M190 S0
M104 S0
PRINT_START EXTRUDER_TEMP=225 BED_TEMP=60 FILAMENT=PLA SIZE=121.799_112.166_181.27_172.939 ENCLOSURE_TEMP=0
; custom gcode end: start_gcode
M107
G21 ; set units to millimeters
G90 ; use absolute coordinates
M83 ; use relative distances for extrusion
;_TOOLCHANGE 0
;LAYER_CHANGE
;Z:0.25
;HEIGHT:0.25
G1 Z0.25 F48000
; custom gcode: layer_gcode
;DISPLAY_PROGRESS TOTAL_LAYERS=40 CURRENT_LAYER=0
; custom gcode end: layer_gcode

G92 E0
M73 P1 R16
G1 E-1.6 F1800
G1 Z0.65 F48000
M204 S2000
G1 X128.967 Y125.43
M73 P2 R16
G1 Z0.25
G1 E1.6 F1800
; custom gcode: feature_gcode
; External perimeter
;Skirt
SET_VELOCITY_LIMIT ACCEL=7000 ACCEL_TO_DECEL=7000 SQUARE_CORNER_VELOCITY=8

; Support material
; custom gcode end: feature_gcode

;TYPE:Skirt
;WIDTH:0.46
G1 F3600
G1 X125.393 Y129.105 E0.1862
G1 X124.721 Y129.89 E0.03754
G1 X123.783 Y131.279 E0.06088
G1 X122.914 Y133.147 E0.07482
G1 X122.512 Y134.505 E0.05145
G1 X122.222 Y136.544 E0.07482
G1 X122.251 Y138.22 E0.06087
G1 X122.611 Y140.248 E0.07483
G1 X123.317 Y142.184 E0.07483
G1 X124.349 Y143.967 E0.07483
G1 X125.676 Y145.546 E0.07492
G1 X152.056 Y171.039 E1.33248
G1 X152.595 Y171.489 E0.02552
G1 X153.625 Y172.086 E0.04324
G1 X154.763 Y172.438 E0.04325
G1 X155.95 Y172.529 E0.04326
G1 X157.126 Y172.353 E0.04319
G1 X158.057 Y172.009 E0.03604
G1 X159.065 Y171.378 E0.04318
G1 X159.589 Y170.909 E0.02555
G1 X162.5 Y167.868 E0.15293
G1 X179.773 Y146.188 E1.00683
G1 X180.304 Y145.349 E0.03607
G1 X180.68 Y144.39 E0.03741
G1 X180.866 Y143.36 E0.03802
G1 X180.865 Y142.49 E0.03161
G1 X180.68 Y141.48 E0.03727
G1 X180.296 Y140.505 E0.03806
G1 X179.728 Y139.625 E0.03805
G1 X179.319 Y139.162 E0.02245
G1 X154.185 Y114.105 E1.28908
G1 X153.72 Y113.698 E0.02245
G1 X152.85 Y113.139 E0.03757
G1 X151.884 Y112.758 E0.03769
G1 X150.852 Y112.57 E0.03812
G1 X149.825 Y112.587 E0.03731
G1 X148.969 Y112.756 E0.03166
G1 X147.838 Y113.224 E0.04446
G1 X131.069 Y123.461 E0.71363
G1 X130.4 Y123.957 E0.03026
G1 X129.009 Y125.387 E0.07244
G1 X129.299 Y125.669 F48000
G1 F3600
G1 X125.697 Y129.374 E0.18769
G1 X125.047 Y130.131 E0.03625
G1 X124.13 Y131.491 E0.05959
G1 X123.292 Y133.296 E0.07225
G1 X122.91 Y134.586 E0.04888
G1 X122.628 Y136.555 E0.07225
G1 X122.657 Y138.195 E0.05958
G1 X123.006 Y140.154 E0.07226
G1 X123.69 Y142.022 E0.07226
G1 X124.687 Y143.743 E0.07226
G1 X125.971 Y145.266 E0.07235
G1 X152.338 Y170.747 E1.33184
G1 X152.843 Y171.167 E0.02387
G1 X153.795 Y171.717 E0.03994
G1 X154.846 Y172.041 E0.03995
G1 X155.943 Y172.123 E0.03996
G1 X157.029 Y171.959 E0.03989
G1 X157.875 Y171.646 E0.03273
G1 X158.806 Y171.065 E0.03989
G1 X162.182 Y167.614 E0.17534
G1 X179.455 Y145.935 E1.00683
G1 X179.945 Y145.158 E0.03334
G1 X180.291 Y144.273 E0.03454
G1 X180.461 Y143.32 E0.03514
G1 X180.46 Y142.53 E0.0287
G1 X180.291 Y141.598 E0.03441
G1 X179.938 Y140.697 E0.03515
G1 X179.414 Y139.883 E0.03514
G1 X179.032 Y139.449 E0.021
G1 X153.898 Y114.393 E1.28908
G1 X153.463 Y114.012 E0.021
G1 X152.659 Y113.497 E0.03469
G1 X151.766 Y113.147 E0.03484
G1 X150.813 Y112.975 E0.03519
G1 X149.864 Y112.992 E0.03448
G1 X149.087 Y113.145 E0.02875
G1 X148.03 Y113.582 E0.04155
G1 X131.281 Y123.808 E0.71278
G1 X130.658 Y124.27 E0.02817
G1 X129.341 Y125.626 E0.06865
G1 X129.631 Y125.907 F48000
G1 F3600
G1 X126.002 Y129.643 E0.18918
G1 X125.374 Y130.373 E0.03497
G1 X124.476 Y131.704 E0.0583
G1 X123.67 Y133.445 E0.06968
G1 X123.308 Y134.667 E0.04631
G1 X123.035 Y136.566 E0.06968
G1 X123.062 Y138.17 E0.05829
G1 X123.401 Y140.059 E0.06969
G1 X124.062 Y141.86 E0.06969
G1 X125.026 Y143.519 E0.06969
G1 X126.266 Y144.987 E0.06978
G1 X152.62 Y170.455 E1.3312
G1 X153.091 Y170.845 E0.02221
G1 X153.965 Y171.348 E0.03663
G1 X154.93 Y171.643 E0.03664
G1 X155.936 Y171.716 E0.03665
G1 X156.932 Y171.564 E0.03659
G1 X157.692 Y171.283 E0.02942
G1 X158.548 Y170.752 E0.03659
G1 X161.865 Y167.361 E0.17228
G1 X179.137 Y145.682 E1.00683
G1 X179.586 Y144.968 E0.03062
G1 X179.902 Y144.155 E0.03167
G1 X180.057 Y143.281 E0.03226
G1 X180.056 Y142.57 E0.0258
G1 X179.903 Y141.715 E0.03155
G1 X179.579 Y140.889 E0.03225
G1 X179.1 Y140.141 E0.03224
G1 X178.745 Y139.737 E0.01954
G1 X153.611 Y114.681 E1.28908
G1 X153.206 Y114.327 E0.01954
G1 X152.468 Y113.856 E0.0318
G1 X151.647 Y113.536 E0.03199
G1 X150.774 Y113.379 E0.03225
G1 X149.903 Y113.396 E0.03164
G1 X149.205 Y113.534 E0.02584
G1 X148.222 Y113.94 E0.03864
G1 X131.493 Y124.155 E0.71194
G1 X130.917 Y124.584 E0.02608
G1 X129.673 Y125.864 E0.06485
G1 X129.963 Y126.146 F48000
G1 F3600
G1 X126.306 Y129.913 E0.19068
G1 X125.701 Y130.615 E0.03368
G1 X124.823 Y131.916 E0.05702
G1 X124.049 Y133.594 E0.06711
G1 X123.706 Y134.748 E0.04373
G1 X123.441 Y136.576 E0.06711
G1 X123.468 Y138.146 E0.057
G1 X123.796 Y139.964 E0.06712
G1 X124.435 Y141.698 E0.06711
G1 X125.365 Y143.294 E0.06712
G1 X126.56 Y144.707 E0.0672
G1 X152.903 Y170.162 E1.33055
G1 X153.339 Y170.523 E0.02056
G1 X154.135 Y170.979 E0.03333
G1 X155.013 Y171.245 E0.03334
G1 X155.929 Y171.31 E0.03335
G1 X156.835 Y171.169 E0.03329
G1 X157.509 Y170.92 E0.02611
G1 X158.289 Y170.438 E0.03329
G1 X161.547 Y167.108 E0.16922
G1 X178.819 Y145.428 E1.00683
G1 X179.227 Y144.777 E0.0279
G1 X179.513 Y144.038 E0.0288
G1 X179.652 Y143.241 E0.02937
G1 X179.652 Y142.611 E0.02289
G1 X179.514 Y141.833 E0.0287
G1 X179.221 Y141.08 E0.02934
G1 X178.787 Y140.399 E0.02933
G1 X178.458 Y140.025 E0.01808
G1 X153.324 Y114.969 E1.28908
M73 P3 R16
G1 X152.277 Y114.215 E0.04688
G1 X151.529 Y113.924 E0.02914
G1 X150.734 Y113.784 E0.02931
G1 X149.942 Y113.8 E0.0288
G1 X149.322 Y113.923 E0.02293
G1 X148.413 Y114.299 E0.03573
G1 X131.705 Y124.502 E0.71109
G1 X131.176 Y124.897 E0.02399
G1 X130.005 Y126.103 E0.06106
M104 S225 ; set temperature
G1 E-1.6 F1800
M204 S10000
G1 Z0.65 F48000
; printing object Battery_Mount_2_x1.stl id:0 copy 0
EXCLUDE_OBJECT_START NAME=Battery_Mount_2_x1_stl_id_0_copy_0
M204 S2000
G1 X135.624 Y130.647
G1 Z0.25
G1 E1.6 F1800
; custom gcode: feature_gcode
; External perimeter
;Perimeter
SET_VELOCITY_LIMIT ACCEL=2000 ACCEL_TO_DECEL=2000 SQUARE_CORNER_VELOCITY=8

; Overhang perimeter
; custom gcode end: feature_gcode

;TYPE:Internal perimeter
;WIDTH:0.5
G1 F3600
G1 X131.536 Y134.877 E0.23472
G1 X131.21 Y135.28 E0.02066
G1 X130.923 Y135.798 E0.02362
G1 X130.73 Y136.357 E0.02361
G1 X130.637 Y136.941 E0.02361
G1 X130.648 Y137.533 E0.02362
G1 X130.76 Y138.114 E0.02361
G1 X130.972 Y138.667 E0.02362
G1 X131.277 Y139.174 E0.02361
G1 X131.617 Y139.565 E0.02066
G1 X157.423 Y164.498 E1.43165
G1 X155.735 Y166.236 E0.09663
G1 X130.013 Y141.384 E1.42698
G1 X129.639 Y140.989 E0.02169
G1 X129.324 Y140.593 E0.02022
G1 X129.044 Y140.17 E0.02022
G1 X128.803 Y139.725 E0.02022
G1 X128.601 Y139.26 E0.02022
G1 X128.44 Y138.779 E0.02022
G1 X128.322 Y138.286 E0.02022
G1 X128.247 Y137.785 E0.02022
G1 X128.216 Y137.279 E0.02022
G1 X128.23 Y136.773 E0.02022
G1 X128.287 Y136.269 E0.02022
G1 X128.388 Y135.772 E0.02022
G1 X128.532 Y135.286 E0.02022
G1 X128.718 Y134.815 E0.02022
G1 X128.944 Y134.362 E0.02022
G1 X129.209 Y133.929 E0.02022
G1 X129.511 Y133.522 E0.02021
G1 X129.871 Y133.115 E0.02169
G1 X133.878 Y128.968 E0.23007
G1 X135.581 Y130.605 E0.09424
G1 X136.256 Y130.635 F48000
G1 F3600
G1 X131.871 Y135.174 E0.25179
G1 X131.582 Y135.53 E0.01833
G1 X131.332 Y135.98 E0.02051
G1 X131.165 Y136.465 E0.02049
G1 X131.084 Y136.973 E0.02049
G1 X131.093 Y137.487 E0.0205
G1 X131.191 Y137.991 E0.02049
G1 X131.375 Y138.471 E0.0205
G1 X131.64 Y138.911 E0.0205
G1 X131.941 Y139.258 E0.01832
G1 X158.055 Y164.488 E1.44873
G1 X155.745 Y166.866 E0.13225
G1 X129.696 Y141.698 E1.44513
G1 X129.302 Y141.282 E0.02286
G1 X128.962 Y140.855 E0.02177
G1 X128.661 Y140.4 E0.02177
G1 X128.401 Y139.92 E0.02178
G1 X128.184 Y139.42 E0.02177
G1 X128.01 Y138.902 E0.02178
G1 X127.883 Y138.371 E0.02177
G1 X127.803 Y137.832 E0.02178
G1 X127.769 Y137.287 E0.02177
G1 X127.784 Y136.741 E0.02177
G1 X127.846 Y136.199 E0.02178
G1 X127.955 Y135.664 E0.02178
G1 X128.11 Y135.141 E0.02177
G1 X128.31 Y134.633 E0.02177
G1 X128.554 Y134.145 E0.02178
G1 X128.839 Y133.679 E0.02178
G1 X129.164 Y133.241 E0.02177
G1 X129.543 Y132.812 E0.02286
G1 X133.866 Y128.338 E0.24822
G1 X136.213 Y130.593 E0.12985
G1 E-1.6 F1800
M204 S10000
G1 Z0.65 F48000
; acceleration to travel
G1 X154.865 Y158.813
; decel to extrusion
M204 S2000
G1 X158.595 Y164.457
; end travel
G1 Z0.25
G1 E1.6 F1800
G1 F3600
G1 X158.596 Y164.501 E0.00178
G1 X158.587 Y164.545 E0.00177
G1 X158.568 Y164.585 E0.00177
G1 X158.513 Y164.656 E0.00357
G1 X155.935 Y167.325 E0.14804
G1 X155.866 Y167.382 E0.00357
G1 X155.827 Y167.402 E0.00177
G1 X155.783 Y167.412 E0.00177
G1 X155.739 Y167.413 E0.00178
G1 X155.695 Y167.404 E0.00177
G1 X155.655 Y167.385 E0.00178
G1 X155.584 Y167.331 E0.00357
G1 X129.379 Y142.012 E1.45379
G1 X128.965 Y141.575 E0.02403
G1 X128.601 Y141.118 E0.02333
G1 X128.278 Y140.63 E0.02333
G1 X127.999 Y140.116 E0.02333
G1 X127.766 Y139.58 E0.02333
G1 X127.581 Y139.025 E0.02333
G1 X127.445 Y138.457 E0.02333
G1 X127.358 Y137.878 E0.02333
G1 X127.323 Y137.295 E0.02333
G1 X127.338 Y136.71 E0.02333
G1 X127.405 Y136.129 E0.02333
G1 X127.521 Y135.556 E0.02333
G1 X127.688 Y134.995 E0.02333
G1 X127.902 Y134.451 E0.02333
G1 X128.163 Y133.928 E0.02333
G1 X128.469 Y133.43 E0.02333
G1 X128.817 Y132.96 E0.02333
G1 X129.216 Y132.509 E0.02403
G1 X133.689 Y127.879 E0.25685
G1 X133.758 Y127.822 E0.00357
G1 X133.798 Y127.802 E0.00177
G1 X133.841 Y127.791 E0.00178
G1 X133.903 Y127.79 E0.00246
G1 X133.973 Y127.821 E0.00305
G1 X134.04 Y127.873 E0.0034
G1 X136.709 Y130.451 E0.14804
G1 X136.766 Y130.52 E0.00357
G1 X136.786 Y130.56 E0.00177
G1 X136.796 Y130.603 E0.00177
G1 X136.797 Y130.647 E0.00178
G1 X136.788 Y130.691 E0.00177
G1 X136.769 Y130.731 E0.00177
G1 X136.715 Y130.802 E0.00358
G1 X132.205 Y135.47 E0.25893
G1 X131.953 Y135.781 E0.01599
G1 X131.742 Y136.162 E0.01739
G1 X131.6 Y136.574 E0.01738
G1 X131.531 Y137.004 E0.01738
G1 X131.539 Y137.44 E0.01739
G1 X131.622 Y137.868 E0.01738
G1 X131.778 Y138.274 E0.01738
G1 X132.002 Y138.648 E0.01738
G1 X132.265 Y138.95 E0.01599
G1 X158.507 Y164.305 E1.45587
G1 X158.564 Y164.374 E0.00357
G1 X158.577 Y164.4 E0.00115
G1 X155.554 Y167.83 F48000
; custom gcode: feature_gcode
; External perimeter
;ExternalPerimeter
SET_VELOCITY_LIMIT ACCEL=1000 ACCEL_TO_DECEL=1000 SQUARE_CORNER_VELOCITY=8

; Perimeter
; custom gcode end: feature_gcode

;TYPE:External perimeter
G1 F3600
G1 X155.423 Y167.77 E0.00579
G1 X155.292 Y167.669 E0.00658
G1 X129.062 Y142.327 E1.45518
G1 X128.628 Y141.868 E0.02519
G1 X128.239 Y141.38 E0.02488
G1 X127.895 Y140.86 E0.02488
G1 X127.598 Y140.312 E0.02489
G1 X127.349 Y139.74 E0.02488
G1 X127.151 Y139.148 E0.02489
G1 X127.006 Y138.542 E0.02488
G1 X126.914 Y137.925 E0.02489
G1 X126.876 Y137.302 E0.02488
G1 X126.893 Y136.679 E0.02488
G1 X126.963 Y136.059 E0.02489
G1 X127.088 Y135.448 E0.02489
G1 X127.265 Y134.85 E0.02489
G1 X127.494 Y134.27 E0.02488
G1 X127.772 Y133.711 E0.02489
G1 X128.098 Y133.18 E0.02489
G1 X128.469 Y132.678 E0.02488
G1 X128.888 Y132.206 E0.02519
G1 X133.385 Y127.551 E0.25824
G1 X133.513 Y127.446 E0.00658
G1 X133.642 Y127.381 E0.00579
G1 X133.783 Y127.346 E0.00579
G1 X133.928 Y127.343 E0.00579
G1 X134.057 Y127.37 E0.00525
G1 X134.202 Y127.434 E0.00631
G1 X134.332 Y127.534 E0.00658
G1 X137.037 Y130.147 E0.15004
G1 X137.142 Y130.275 E0.00658
G1 X137.207 Y130.404 E0.00579
G1 X137.242 Y130.545 E0.00579
G1 X137.244 Y130.69 E0.00579
G1 X137.214 Y130.832 E0.00579
G1 X137.154 Y130.964 E0.00579
G1 X137.053 Y131.094 E0.00658
G1 X132.54 Y135.766 E0.25916
G1 X132.324 Y136.032 E0.01365
G1 X132.151 Y136.344 E0.01427
G1 X132.034 Y136.682 E0.01427
G1 X131.978 Y137.036 E0.01426
G1 X131.985 Y137.393 E0.01427
G1 X132.053 Y137.744 E0.01426
G1 X132.181 Y138.078 E0.01427
G1 X132.365 Y138.385 E0.01427
G1 X132.589 Y138.643 E0.01365
G1 X158.836 Y164.002 E1.45609
G1 X158.941 Y164.129 E0.00658
G1 X159.006 Y164.258 E0.00579
G1 X159.04 Y164.399 E0.00579
G1 X159.043 Y164.544 E0.00579
G1 X159.013 Y164.686 E0.00579
G1 X158.952 Y164.818 E0.00579
G1 X158.852 Y164.948 E0.00658
G1 X156.239 Y167.653 E0.15004
G1 X156.112 Y167.758 E0.00658
G1 X155.982 Y167.823 E0.00579
G1 X155.841 Y167.858 E0.00579
G1 X155.696 Y167.86 E0.00579
G1 X155.613 Y167.843 E0.00339
;WIPE_START
M204 S10000
G1 X155.488 Y167.436 F48000
;WIPE_END
G1 E-1.6 F1800
G1 Z0.65 F48000
; acceleration to travel
G1 X138.031 Y136.06
; decel to extrusion
M204 S2000
G1 X134.545 Y129.795
; end travel
G1 Z0.25
G1 E1.6 F1800
; custom gcode: feature_gcode
; External perimeter
;SolidInfill
SET_VELOCITY_LIMIT ACCEL=4000 ACCEL_TO_DECEL=4000 SQUARE_CORNER_VELOCITY=8

; Bridge infill
; custom gcode end: feature_gcode

;TYPE:Solid infill
;WIDTH:0.509664
G1 F3000
G1 X133.265 Y129.795 E0.05206
G1 X132.834 Y130.242 F48000
G1 F3000
G1 X135.009 Y130.242 E0.08849
G1 X135.398 Y130.688 F48000
G1 F3000
G1 X132.402 Y130.688 E0.12182
G1 X131.971 Y131.134 F48000
G1 F3000
G1 X134.967 Y131.134 E0.12182
G1 X134.535 Y131.581 F48000
G1 F3000
G1 X131.54 Y131.581 E0.12182
G1 X131.109 Y132.027 F48000
G1 F3000
G1 X134.104 Y132.027 E0.12182
G1 X133.673 Y132.473 F48000
G1 F3000
G1 X130.677 Y132.473 E0.12182
G1 X130.246 Y132.92 F48000
G1 F3000
