; generated by SuperSlicer 2.4 on 2023-11-24 at 20:41:37 UTC


;
;

;
;
; 

; external perimeters extrusion width = 0.40mm
; perimeters extrusion width = 0.46mm
; infill extrusion width = 0.64mm
; solid infill extrusion width = 0.56mm
; top infill extrusion width = 0.40mm
; first layer extrusion width = 0.50mm

; external perimeters extrusion width = 0.40mm
; perimeters extrusion width = 0.46mm
; infill extrusion width = 0.64mm
; solid infill extrusion width = 0.56mm
; top infill extrusion width = 0.40mm
; first layer extrusion width = 0.50mm

; external perimeters extrusion width = 0.40mm
; perimeters extrusion width = 0.46mm
; infill extrusion width = 0.64mm
; solid infill extrusion width = 0.56mm
; top infill extrusion width = 0.40mm
; first layer extrusion width = 0.50mm

; object:{"name":"BodyClip_2","id":"BodyClip_2.stl id:0 copy 0","object_center":[133.094434,140.953441,0.000000],"boundingbox_center":[133.094434,140.953441,4.000000],"boundingbox_size":[25.981370,36.293872,8.000000]}
; object:{"name":"BodyClip","id":"BodyClip.stl id:1 copy 0","object_center":[148.140936,150.971764,0.000000],"boundingbox_center":[148.140936,150.971764,4.000000],"boundingbox_size":[25.981408,36.293915,8.000000]}
; object:{"name":"BodyGroove","id":"BodyGroove.stl id:2 copy 0","object_center":[161.661132,169.877950,0.000000],"boundingbox_center":[161.661132,169.877950,6.750000],"boundingbox_size":[27.631970,27.631969,13.499999]}
; plater:{"center":[147.790433,153.250220,0.000000],"boundingbox_center":[147.790433,153.250220,6.750000],"boundingbox_size":[55.373367,60.887429,13.499999]}

M73 P0 R20


; Pre-Processed for Cancel-Object support by preprocess_cancellation v0.2.0
; 3 known objects
EXCLUDE_OBJECT_DEFINE NAME=BodyClip_2_stl_id_0_copy_0 CENTER=134.305,143.206 POLYGON=[[120.305,123.007],[120.305,158.896],[145.884,158.896],[145.884,123.007]]
EXCLUDE_OBJECT_DEFINE NAME=BodyClip_stl_id_1_copy_0 CENTER=149.651,152.841 POLYGON=[[135.351,133.025],[135.351,168.914],[160.93,168.914],[160.93,133.025]]
EXCLUDE_OBJECT_DEFINE NAME=BodyGroove_stl_id_2_copy_0 CENTER=161.705,170.004 POLYGON=[[148.046,156.275],[148.046,183.493],[175.277,183.493],[175.277,156.275]]
;TYPE:Custom
; custom gcode: start_gcode
M190 S0
M104 S0
PRINT_START EXTRUDER_TEMP=215 BED_TEMP=60 FILAMENT=PLA SIZE=115.791_118.489_179.795_188.012 ENCLOSURE_TEMP=0
; custom gcode end: start_gcode
M107
G21 ; set units to millimeters
G90 ; use absolute coordinates
M83 ; use relative distances for extrusion
;_TOOLCHANGE 0
;LAYER_CHANGE
;Z:0.25
;HEIGHT:0.25
G1 Z0.25 F48000
; custom gcode: layer_gcode
;DISPLAY_PROGRESS TOTAL_LAYERS=67 CURRENT_LAYER=0
; custom gcode end: layer_gcode

G92 E0
M73 P1 R20
G1 E-1.6 F1800
G1 Z0.65 F48000
M204 S2000
G1 X133.329 Y120.547
G1 Z0.25
G1 E1.6 F1800
; custom gcode: feature_gcode
; External perimeter
;Skirt
SET_VELOCITY_LIMIT ACCEL=7000 ACCEL_TO_DECEL=7000 SQUARE_CORNER_VELOCITY=8

; Support material
; custom gcode end: feature_gcode

;TYPE:Skirt
;WIDTH:0.46
G1 F3600
G1 X132.851 Y121.173 E0.03059
G1 X116.703 Y152.491 E1.36915
G1 X116.394 Y153.29 E0.03328
G1 X116.204 Y154.296 E0.03979
G1 X116.255 Y155.437 E0.04436
G1 X116.917 Y158.007 E0.10314
G1 X117.19 Y158.728 E0.02996
G1 X117.8 Y159.686 E0.04412
G1 X118.434 Y160.342 E0.03544
G1 X150.026 Y186.344 E1.58986
G1 X150.942 Y186.934 E0.04236
G1 X152.144 Y187.404 E0.05015
G1 X153.105 Y187.579 E0.03793
G1 X153.767 Y187.606 E0.02577
G1 X154.739 Y187.511 E0.03793
G1 X155.682 Y187.257 E0.03793
G1 X156.57 Y186.852 E0.03793
G1 X157.252 Y186.41 E0.0316
G1 X157.745 Y185.987 E0.02523
G1 X177.884 Y165.839 E1.10692
G1 X178.388 Y165.195 E0.03176
G1 X178.718 Y164.635 E0.02527
G1 X179.187 Y163.432 E0.05015
G1 X179.362 Y162.472 E0.03793
G1 X179.389 Y161.809 E0.02577
G1 X179.294 Y160.838 E0.03793
G1 X179.048 Y159.904 E0.03752
G1 X178.665 Y159.055 E0.03617
G1 X164.449 Y132.018 E1.18692
G1 X163.842 Y131.149 E0.04119
G1 X162.883 Y130.291 E0.05002
G1 X147.496 Y120.069 E0.71777
G1 X146.32 Y119.594 E0.04931
G1 X144.265 Y119.111 E0.08202
G1 X143.16 Y118.981 E0.04324
G1 X136.946 Y118.897 E0.24146
G1 X135.677 Y119.079 E0.0498
G1 X134.723 Y119.451 E0.0398
G1 X134.084 Y119.851 E0.02929
G1 X133.373 Y120.507 E0.0376
G1 X133.648 Y120.804 F48000
G1 F3600
G1 X133.626 Y120.824 E0.00118
G1 X133.196 Y121.387 E0.02749
G1 X117.064 Y152.677 E1.36791
G1 X116.787 Y153.395 E0.02991
G1 X116.61 Y154.323 E0.0367
G1 X116.657 Y155.384 E0.04126
G1 X117.309 Y157.901 E0.10101
G1 X117.554 Y158.549 E0.02693
G1 X118.122 Y159.439 E0.04102
G1 X118.692 Y160.028 E0.03185
G1 X150.284 Y186.03 E1.58986
G1 X151.12 Y186.569 E0.03868
G1 X152.26 Y187.014 E0.04754
G1 X153.155 Y187.175 E0.03533
G1 X153.751 Y187.2 E0.02316
G1 X154.656 Y187.113 E0.03533
G1 X155.534 Y186.879 E0.03533
G1 X156.362 Y186.503 E0.03533
G1 X157.458 Y185.7 E0.0528
G1 X177.371 Y165.796 E1.09399
M73 P2 R20
G1 X178.132 Y164.845 E0.04731
G1 X178.708 Y163.617 E0.05271
G1 X178.959 Y162.422 E0.04746
G1 X178.97 Y161.513 E0.03533
G1 X178.897 Y160.921 E0.02316
G1 X178.663 Y160.036 E0.03556
G1 X178.306 Y159.244 E0.03375
G1 X164.09 Y132.208 E1.18692
G1 X163.529 Y131.408 E0.03796
G1 X162.658 Y130.629 E0.0454
G1 X147.305 Y120.428 E0.71621
G1 X146.227 Y119.99 E0.04525
G1 X144.172 Y119.506 E0.08202
G1 X143.154 Y119.388 E0.03982
G1 X136.96 Y119.304 E0.24068
G1 X135.796 Y119.467 E0.04568
G1 X134.915 Y119.809 E0.03671
G1 X134.321 Y120.18 E0.02722
G1 X133.692 Y120.763 E0.03333
G1 X133.968 Y121.06 F48000
G1 F3600
G1 X133.923 Y121.102 E0.00239
G1 X133.542 Y121.601 E0.0244
G1 X117.425 Y152.863 E1.36667
G1 X117.179 Y153.5 E0.02654
G1 X117.015 Y154.35 E0.03361
G1 X117.06 Y155.331 E0.03816
G1 X117.701 Y157.794 E0.09889
G1 X117.919 Y158.369 E0.0239
G1 X118.3 Y159.002 E0.02872
G1 X118.95 Y159.714 E0.03747
G1 X150.542 Y185.716 E1.58986
G1 X151.299 Y186.204 E0.03499
G1 X152.376 Y186.625 E0.04494
G1 X153.205 Y186.772 E0.03272
G1 X154.572 Y186.716 E0.05316
G1 X155.386 Y186.5 E0.03272
G1 X156.154 Y186.154 E0.03272
G1 X157.171 Y185.412 E0.0489
G1 X177.084 Y165.509 E1.09399
G1 X177.791 Y164.623 E0.04405
G1 X178.319 Y163.501 E0.04816
G1 X178.555 Y162.371 E0.04485
G1 X178.499 Y161.004 E0.05316
G1 X178.279 Y160.168 E0.0336
G1 X177.946 Y159.434 E0.03133
G1 X163.73 Y132.397 E1.18692
G1 X163.215 Y131.666 E0.03472
G1 X162.433 Y130.967 E0.04077
G1 X147.115 Y120.787 E0.71466
G1 X146.134 Y120.385 E0.04119
G1 X144.079 Y119.902 E0.08202
G1 X143.148 Y119.794 E0.03641
G1 X137.132 Y119.708 E0.23379
G1 X135.915 Y119.856 E0.04764
G1 X135.108 Y120.167 E0.03361
G1 X134.559 Y120.51 E0.02516
G1 X134.012 Y121.019 E0.02902
M104 S215 ; set temperature
G1 E-1.6 F1800
M204 S10000
G1 Z0.65 F48000
; printing object BodyClip_2.stl id:0 copy 0
EXCLUDE_OBJECT_START NAME=BodyClip_2_stl_id_0_copy_0
; acceleration to travel
G1 X123.961 Y149.47
; decel to extrusion
M204 S2000
G1 X121.95 Y155.16
; end travel
G1 Z0.25
G1 E1.6 F1800
; custom gcode: feature_gcode
; External perimeter
;Perimeter
SET_VELOCITY_LIMIT ACCEL=2000 ACCEL_TO_DECEL=2000 SQUARE_CORNER_VELOCITY=8

; Overhang perimeter
; custom gcode end: feature_gcode

;TYPE:Internal perimeter
;WIDTH:0.5
G1 F3600
G1 X125.418 Y154.231 E0.15322
G1 X125.911 Y154.001 E0.02321
G1 X126.318 Y153.659 E0.0227
G1 X126.832 Y152.925 E0.03826
G1 X126.974 Y153.06 E0.00836
G1 X127.388 Y153.317 E0.02081
G1 X127.975 Y153.53 E0.02665
G1 X128.458 Y153.599 E0.02081
G1 X129.182 Y153.553 E0.03099
G1 X129.772 Y154.03 E0.03236
G1 X129.64 Y154.287 E0.01234
G1 X129.049 Y154.129 E0.02615
G1 X128.586 Y154.099 E0.01978
G1 X128.053 Y154.169 E0.02297
G1 X122.114 Y155.76 E0.26242
G1 X121.966 Y155.218 E0.02398
G1 E-1.6 F1800
M204 S10000
G1 Z0.65 F48000
M204 S2000
G1 X132.776 Y157.126
G1 Z0.25
G1 E1.6 F1800
G1 F3420.3584
G1 X131.445 Y155.796 E0.08029
G1 X132.515 Y154.475 E0.07256
G1 X133.91 Y155.604 E0.07662
G1 X134.074 Y155.784 E0.01038
G1 X133.922 Y155.98 E0.01058
G1 X132.818 Y157.084 E0.06661
G1 X131.58 Y154.92 F48000
G1 F3600
G1 X132.449 Y153.847 E0.05894
G1 X134.218 Y155.279 E0.09713
G1 X134.38 Y155.457 E0.01028
G1 X134.47 Y155.673 E0.00997
G1 X134.482 Y155.79 E0.00501
G1 X134.47 Y155.914 E0.00531
G1 X134.404 Y156.087 E0.00794
G1 X134.257 Y156.276 E0.01019
G1 X132.776 Y157.757 E0.08941
G1 X130.17 Y155.151 E0.15728
G1 X129.801 Y154.868 E0.01984
G1 X129.464 Y154.702 E0.01603
G1 X128.976 Y154.571 E0.02159
G1 X128.601 Y154.547 E0.01603
G1 X128.14 Y154.607 E0.01984
G1 X121.8 Y156.306 E0.28015
G1 X121.402 Y154.845 E0.06465
G1 X125.265 Y153.81 E0.17068
G1 X125.669 Y153.621 E0.01904
G1 X125.986 Y153.355 E0.01769
G1 X126.305 Y152.899 E0.02375
G1 X126.449 Y152.362 E0.02375
G1 X126.449 Y152.177 E0.00788
G1 X126.712 Y152.105 E0.01163
G1 X126.832 Y152.308 E0.01006
G1 X127.249 Y152.705 E0.02455
G1 X127.584 Y152.913 E0.01686
G1 X128.084 Y153.095 E0.0227
G1 X128.475 Y153.151 E0.01686
G1 X129.049 Y153.114 E0.02455
G1 X129.259 Y153.04 E0.00947
G1 X131.534 Y154.882 E0.12494
G1 E-1.6 F1800
M204 S10000
G1 Z0.65 F48000
M204 S2000
G1 X135.395 Y141.181
G1 Z0.25
G1 E1.6 F1800
G1 F3600
G1 X134.769 Y141.619 E0.03257
G1 X134.428 Y142.026 E0.0227
G1 X134.134 Y142.655 E0.02961
G1 X134.103 Y143.01 E0.01523
G1 X128.874 Y148.24 E0.31565
G1 X128.488 Y148.202 E0.01655
G1 X128.376 Y148.222 E0.00485
G1 X128.255 Y147.99 E0.01119
G1 X132.811 Y143.423 E0.27534
G1 X133.094 Y143.069 E0.01934
G1 X133.29 Y142.715 E0.01728
G1 X133.441 Y142.286 E0.01943
G1 X134.063 Y139.591 E0.11805
G1 X134.364 Y139.609 E0.01289
G1 X134.381 Y139.766 E0.00675
G1 X134.543 Y140.189 E0.01936
G1 X134.776 Y140.578 E0.01934
G1 X135.352 Y141.139 E0.0343
; acceleration to travel
M204 S10000
G1 X137.66 Y127.502 F48000
; decel to extrusion
M204 S2000
G1 X138.122 Y124.775
; end travel
G1 F3600
G1 X135.187 Y137.487 E0.55683
G1 X134.87 Y137.768 E0.01806
G1 X134.739 Y137.965 E0.01009
G1 X134.465 Y137.847 E0.01272
G1 X137.515 Y124.637 E0.57862
G1 X138.063 Y124.762 E0.02398
G1 E-1.6 F1800
M204 S10000
G1 Z0.65 F48000
; acceleration to travel
G1 X136.772 Y138.7
; decel to extrusion
M204 S2000
G1 X136.514 Y141.488
; end travel
G1 Z0.25
G1 E1.6 F1800
G1 F3600
G1 X136.067 Y141.488 E0.01909
G1 X135.529 Y141.632 E0.02375
G1 X135.074 Y141.951 E0.02375
G1 X134.807 Y142.268 E0.01769
G1 X134.572 Y142.772 E0.02374
G1 X134.534 Y143.211 E0.0188
G1 X129.04 Y148.705 E0.33159
G1 X128.506 Y148.652 E0.02291
G1 X127.897 Y148.762 E0.02641
G1 X127.341 Y149.033 E0.0264
G1 X126.879 Y149.445 E0.02641
G1 X126.547 Y149.967 E0.0264
G1 X126.369 Y150.559 E0.0264
G1 X126.361 Y151.059 E0.02134
G1 X126.113 Y151.135 E0.01108
G1 X126.018 Y150.999 E0.00707
G1 X125.319 Y150.301 E0.04218
G1 X132.477 Y143.125 E0.4326
G1 X132.722 Y142.82 E0.01668
G1 X132.881 Y142.532 E0.01406
G1 X133.011 Y142.161 E0.01677
G1 X137.18 Y124.104 E0.79098
G1 X137.652 Y124.211 E0.02066
G1 X138.657 Y124.439 E0.04399
G1 X135.581 Y137.762 E0.58361
G1 X135.476 Y137.827 E0.00526
G1 X135.21 Y138.063 E0.01521
G1 X134.905 Y138.523 E0.02355
G1 X134.76 Y139.112 E0.0259
G1 X134.819 Y139.661 E0.02356
G1 X134.946 Y139.994 E0.01522
G1 X135.129 Y140.299 E0.0152
G1 X135.524 Y140.684 E0.02355
G1 X136.077 Y140.935 E0.0259
G1 X136.435 Y140.964 E0.01533
G1 X136.505 Y141.428 E0.02005
G1 X138.534 Y143.1 F48000
G1 F3600
G1 X139.244 Y142.829 E0.03245
G1 X139.666 Y142.528 E0.02211
G1 X140.002 Y142.127 E0.02232
G1 X140.245 Y142.229 E0.01126
G1 X140.183 Y142.839 E0.02617
G1 X140.279 Y143.46 E0.0268
G1 X140.429 Y143.882 E0.01912
G1 X140.741 Y144.411 E0.02621
G1 X143.656 Y147.349 E0.17665
G1 X143.218 Y147.784 E0.02632
G1 X138.576 Y143.142 E0.28017
; acceleration to travel
M204 S10000
G1 X143.311 Y127.913 F48000
; decel to extrusion
M204 S2000
G1 X144.258 Y124.867
; end travel
G1 F3600
G1 X140.636 Y140.556 E0.68722
G1 X140.354 Y140.557 E0.01205
G1 X140.249 Y140.128 E0.01884
G1 X140.142 Y139.929 E0.00964
G1 X143.653 Y124.725 E0.66603
G1 X144.2 Y124.853 E0.02398
G1 X144.793 Y124.534 F48000
G1 F3600
G1 X140.682 Y142.341 E0.77998
G1 X140.633 Y142.827 E0.02088
G1 X140.714 Y143.35 E0.02257
G1 X140.835 Y143.692 E0.01549
G1 X141.097 Y144.136 E0.02201
G1 X144.287 Y147.352 E0.19331
G1 X143.217 Y148.414 E0.06434
G1 X138.014 Y143.211 E0.31402
G1 X137.964 Y142.639 E0.02453
G1 X138.525 Y142.625 E0.02396
G1 X139.032 Y142.432 E0.02313
G1 X139.36 Y142.198 E0.01723
G1 X139.708 Y141.782 E0.02313
G1 X139.916 Y141.224 E0.02543
G1 X139.925 Y140.682 E0.02313
G1 X139.829 Y140.289 E0.01723
G1 X139.67 Y139.993 E0.01437
G1 X143.319 Y124.188 E0.69233
G1 X144.735 Y124.521 E0.06208
G1 E-1.6 F1800
M204 S10000
G1 Z0.65 F48000
; acceleration to travel
G1 X133.718 Y149.33
; decel to extrusion
M204 S2000
G1 X131.514 Y154.292
; end travel
G1 Z0.25
G1 E1.6 F1800
G1 F3600
G1 X132.383 Y153.219 E0.05894
G1 X134.526 Y154.954 E0.11765
G1 X134.603 Y155.023 E0.00446
G1 X134.762 Y155.214 E0.01059
G1 X134.796 Y155.27 E0.00278
G1 X134.891 Y155.499 E0.01059
G1 X134.907 Y155.562 E0.00278
G1 X134.93 Y155.789 E0.00974
G1 X134.908 Y156.016 E0.00974
G1 X134.892 Y156.079 E0.00278
G1 X134.797 Y156.309 E0.01059
G1 X134.763 Y156.364 E0.00278
G1 X134.592 Y156.572 E0.01149
G1 X132.957 Y158.207 E0.09872
G1 X132.874 Y158.271 E0.00444
G1 X132.802 Y158.301 E0.00333
G1 X132.725 Y158.29 E0.00333
G1 X132.677 Y158.271 E0.00219
G1 X132.595 Y158.207 E0.00444
G1 X129.875 Y155.488 E0.16416
G1 X129.564 Y155.249 E0.01672
G1 X129.306 Y155.122 E0.01228
G1 X128.903 Y155.014 E0.01784
G1 X128.616 Y154.995 E0.01228
G1 X128.227 Y155.046 E0.01672
G1 X121.725 Y156.789 E0.28733
G1 X121.629 Y156.801 E0.00412
G1 X121.544 Y156.783 E0.00371
G1 X121.485 Y156.742 E0.00305
G1 X121.437 Y156.673 E0.00359
G1 X120.923 Y154.785 E0.08351
G1 X120.904 Y154.562 E0.00954
G1 X121.105 Y154.462 E0.00959
G1 X125.111 Y153.389 E0.17702
G1 X125.427 Y153.242 E0.01486
G1 X125.654 Y153.051 E0.01267
G1 X125.895 Y152.708 E0.01788
G1 X126.003 Y152.303 E0.01788
G1 X126.003 Y152.006 E0.01267
G1 X125.895 Y151.602 E0.01788
G1 X125.675 Y151.287 E0.01638
G1 X124.86 Y150.473 E0.04915
G1 X124.801 Y150.396 E0.00415
G1 X124.767 Y150.289 E0.0048
G1 X124.804 Y150.185 E0.00473
G1 X124.86 Y150.111 E0.00395
G1 X132.144 Y142.827 E0.43966
G1 X132.349 Y142.571 E0.01403
G1 X132.473 Y142.348 E0.01084
G1 X132.582 Y142.037 E0.0141
G1 X136.79 Y123.811 E0.79835
G1 X136.824 Y123.72 E0.00414
G1 X136.913 Y123.614 E0.00594
G1 X137.02 Y123.61 E0.00456
G1 X137.751 Y123.776 E0.03197
G1 X138.945 Y124.046 E0.05227
G1 X139.041 Y124.082 E0.00437
G1 X139.083 Y124.112 E0.00219
G1 X139.115 Y124.152 E0.00219
G1 X139.137 Y124.198 E0.00219
G1 X139.145 Y124.249 E0.00219
G1 X139.135 Y124.352 E0.00444
G1 X135.974 Y138.044 E0.59975
G1 X135.744 Y138.186 E0.01157
G1 X135.549 Y138.358 E0.01107
G1 X135.32 Y138.704 E0.01773
G1 X135.212 Y139.142 E0.01924
G1 X135.256 Y139.555 E0.01773
G1 X135.349 Y139.798 E0.01108
G1 X135.482 Y140.02 E0.01107
G1 X135.78 Y140.31 E0.01773
G1 X136.19 Y140.496 E0.01924
G1 X136.699 Y140.537 E0.02179
G1 X136.905 Y140.743 E0.01245
G1 X136.884 Y140.947 E0.00876
G1 X136.927 Y141.233 E0.01234
G1 X137.088 Y141.608 E0.01742
G1 X137.388 Y141.934 E0.01889
G1 X137.749 Y142.124 E0.01742
G1 X138.03 Y142.191 E0.01234
G1 X138.438 Y142.181 E0.01741
G1 X138.819 Y142.035 E0.01742
G1 X139.055 Y141.867 E0.01234
G1 X139.316 Y141.554 E0.01742
G1 X139.471 Y141.14 E0.01889
G1 X139.478 Y140.732 E0.01742
G1 X139.409 Y140.451 E0.01234
M73 P3 R20
G1 X139.197 Y140.056 E0.01911
G1 X142.927 Y123.901 E0.70768
G1 X142.971 Y123.782 E0.00541
G1 X143.053 Y123.721 E0.00436
G1 X143.137 Y123.7 E0.00372
G1 X143.232 Y123.709 E0.00406
G1 X145.142 Y124.158 E0.08375
G1 X145.264 Y124.231 E0.00608
G1 X145.282 Y124.339 E0.00467
G1 X145.272 Y124.442 E0.00444
G1 X141.123 Y142.413 E0.78721
G1 X141.083 Y142.816 E0.01725
G1 X141.148 Y143.24 E0.01833
G1 X141.242 Y143.502 E0.01187
G1 X141.453 Y143.862 E0.01782
G1 X144.791 Y147.227 E0.2023
G1 X144.818 Y147.272 E0.00225
G1 X144.846 Y147.378 E0.00466
G1 X144.737 Y147.534 E0.00816
G1 X143.302 Y148.958 E0.08626
G1 X143.142 Y148.947 E0.00684
G1 X143.041 Y148.869 E0.00545
G1 X137.584 Y143.412 E0.32939
G1 X137.541 Y142.925 E0.02086
G1 X137.44 Y142.646 E0.01267
G1 X137.199 Y142.303 E0.01788
G1 X136.827 Y142.042 E0.0194
G1 X136.422 Y141.934 E0.01788
G1 X136.126 Y141.934 E0.01267
G1 X135.721 Y142.042 E0.01788
