; generated by SuperSlicer 2.4 on 2023-08-15 at 11:51:23 UTC


;
;

;
;
; 

; external perimeters extrusion width = 0.40mm
; perimeters extrusion width = 0.46mm
; infill extrusion width = 0.64mm
; solid infill extrusion width = 0.56mm
; top infill extrusion width = 0.40mm
; first layer extrusion width = 0.50mm

; object:{"name":"Shape-Box","id":"Shape-Box id:0 copy 0","object_center":[150.000000,150.000000,0.000000],"boundingbox_center":[150.000000,150.000000,0.125000],"boundingbox_size":[250.000000,250.000000,0.250000]}
; plater:{"center":[150.000000,150.000000,0.000000],"boundingbox_center":[150.000000,150.000000,0.125000],"boundingbox_size":[250.000000,250.000000,0.250000]}

M73 P0 R35
;TYPE:Custom
; custom gcode: start_gcode
M190 S0
M104 S0
PRINT_START EXTRUDER_TEMP=210 BED_TEMP=60 FILAMENT=PLA SIZE=21.4905_21.4905_278.51_278.51 ENCLOSURE_TEMP=0
; custom gcode end: start_gcode
M107
G21 ; set units to millimeters
G90 ; use absolute coordinates
M83 ; use relative distances for extrusion
;_TOOLCHANGE 0
;LAYER_CHANGE
;Z:0.25
;HEIGHT:0.25
G1 Z0.25 F27000
; custom gcode: layer_gcode
;DISPLAY_PROGRESS TOTAL_LAYERS=1 CURRENT_LAYER=0
; custom gcode end: layer_gcode

G92 E0
M204 S2000
G1 X23.375 Y22.401
; custom gcode: feature_gcode
; External perimeter
;Skirt
SET_VELOCITY_LIMIT ACCEL=7000 ACCEL_TO_DECEL=7000 SQUARE_CORNER_VELOCITY=8

; Support material
; custom gcode end: feature_gcode

;TYPE:Skirt
;WIDTH:0.46
G1 F1800
G1 X22.291 Y23.561 E0.06171
G1 X21.897 Y25.1 E0.06171
G1 X21.897 Y274.9 E9.70631
M73 P1 R34
G1 X22.401 Y276.625 E0.06983
G1 X23.561 Y277.709 E0.06171
G1 X25.1 Y278.103 E0.06171
G1 X274.9 Y278.103 E9.70631
G1 X276.625 Y277.599 E0.06983
G1 X277.709 Y276.439 E0.06171
G1 X278.103 Y274.9 E0.06171
G1 X278.103 Y25.1 E9.70631
G1 X277.599 Y23.375 E0.06983
G1 X276.439 Y22.291 E0.06171
G1 X274.9 Y21.897 E0.06171
G1 X25.1 Y21.897 E9.70631
M73 P2 R34
G1 X23.433 Y22.384 E0.0675
M104 S210 ; set temperature
G1 E-1.6
M204 S4000
G1 Z0.65 F27000
; printing object Shape-Box id:0 copy 0
; acceleration to travel
M204 S10000
G1 X251.812 Y251.717
; decel to extrusion
M204 S1000
G1 X274.65 Y274.65
; end travel
G1 Z0.25
G1 E1.6 F1800
; custom gcode: feature_gcode
; External perimeter
;ExternalPerimeter
SET_VELOCITY_LIMIT ACCEL=1000 ACCEL_TO_DECEL=1000 SQUARE_CORNER_VELOCITY=8

; Perimeter
; custom gcode end: feature_gcode

;TYPE:External perimeter
;WIDTH:0.5
G1 X25.35 Y274.65 E10.64043
G1 X25.35 Y25.35 E10.64043
M73 P3 R34
G1 X274.65 Y25.35 E10.64043
G1 X274.65 Y274.59 E10.63787
;WIPE_START
M204 S4000
G1 X274.304 Y274.45 F27000
;WIPE_END
; acceleration to travel
M204 S10000
G1 X274.48 Y68.197
; decel to extrusion
M204 S2000
G1 X274.516 Y26.386
; end travel
; custom gcode: feature_gcode
; External perimeter
;SolidInfill
SET_VELOCITY_LIMIT ACCEL=4000 ACCEL_TO_DECEL=4000 SQUARE_CORNER_VELOCITY=8

; Bridge infill
; custom gcode end: feature_gcode

;TYPE:Solid infill
;WIDTH:0.500147
G1 F3600
G1 X273.614 Y25.484 E0.05448
G1 X272.983 Y25.484 F27000
G1 F3600
G1 X274.516 Y27.017 E0.09259
G1 X274.516 Y27.649 F27000
G1 F3600
G1 X272.351 Y25.484 E0.1307
G1 X271.72 Y25.484 F27000
G1 F3600
G1 X274.516 Y28.28 E0.16882
G1 X274.516 Y28.911 F27000
G1 F3600
G1 X271.089 Y25.484 E0.20693
G1 X270.458 Y25.484 F27000
G1 F3600
G1 X274.516 Y29.542 E0.24504
G1 X274.516 Y30.174 F27000
G1 F3600
G1 X269.826 Y25.484 E0.28315
G1 X269.195 Y25.484 F27000
G1 F3600
G1 X274.516 Y30.805 E0.32127
G1 X274.516 Y31.436 F27000
G1 F3600
G1 X268.564 Y25.484 E0.35938
G1 X267.933 Y25.484 F27000
G1 F3600
G1 X274.516 Y32.067 E0.39749
G1 X274.516 Y32.698 F27000
G1 F3600
G1 X267.302 Y25.484 E0.4356
G1 X266.67 Y25.484 F27000
G1 F3600
G1 X274.516 Y33.33 E0.47372
G1 X274.516 Y33.961 F27000
G1 F3600
G1 X266.039 Y25.484 E0.51183
G1 X265.408 Y25.484 F27000
G1 F3600
G1 X274.516 Y34.592 E0.54994
G1 X274.516 Y35.223 F27000
G1 F3600
G1 X264.777 Y25.484 E0.58805
G1 X264.145 Y25.484 F27000
G1 F3600
G1 X274.516 Y35.855 E0.62617
G1 X274.516 Y36.486 F27000
G1 F3600
G1 X263.514 Y25.484 E0.66428
G1 X262.883 Y25.484 F27000
G1 F3600
G1 X274.516 Y37.117 E0.70239
G1 X274.516 Y37.748 F27000
G1 F3600
G1 X262.252 Y25.484 E0.74051
G1 X261.62 Y25.484 F27000
G1 F3600
G1 X274.516 Y38.38 E0.77862
G1 X274.516 Y39.011 F27000
G1 F3600
G1 X260.989 Y25.484 E0.81673
G1 X260.358 Y25.484 F27000
G1 F3600
G1 X274.516 Y39.642 E0.85484
G1 X274.516 Y40.273 F27000
G1 F3600
G1 X259.727 Y25.484 E0.89296
M73 P4 R34
G1 X259.095 Y25.484 F27000
G1 F3600
G1 X274.516 Y40.905 E0.93107
G1 X274.516 Y41.536 F27000
G1 F3600
G1 X258.464 Y25.484 E0.96918
G1 X257.833 Y25.484 F27000
G1 F3600
G1 X274.516 Y42.167 E1.00729
G1 X274.516 Y42.798 F27000
G1 F3600
G1 X257.202 Y25.484 E1.04541
G1 X256.571 Y25.484 F27000
G1 F3600
G1 X274.516 Y43.429 E1.08352
G1 X274.516 Y44.061 F27000
G1 F3600
G1 X255.939 Y25.484 E1.12163
M73 P4 R33
G1 X255.308 Y25.484 F27000
G1 F3600
G1 X274.516 Y44.692 E1.15974
G1 X274.516 Y45.323 F27000
G1 F3600
G1 X254.677 Y25.484 E1.19786
G1 X254.046 Y25.484 F27000
G1 F3600
G1 X274.516 Y45.954 E1.23597
G1 X274.516 Y46.586 F27000
G1 F3600
G1 X253.414 Y25.484 E1.27408
G1 X252.783 Y25.484 F27000
G1 F3600
G1 X274.516 Y47.217 E1.31219
G1 X274.516 Y47.848 F27000
G1 F3600
G1 X252.152 Y25.484 E1.35031
G1 X251.521 Y25.484 F27000
G1 F3600
G1 X274.516 Y48.479 E1.38842
G1 X274.516 Y49.111 F27000
G1 F3600
G1 X250.889 Y25.484 E1.42653
G1 X250.258 Y25.484 F27000
G1 F3600
G1 X274.516 Y49.742 E1.46464
G1 X274.516 Y50.373 F27000
G1 F3600
G1 X249.627 Y25.484 E1.50276
G1 X248.996 Y25.484 F27000
G1 F3600
G1 X274.516 Y51.004 E1.54087
G1 X274.516 Y51.635 F27000
G1 F3600
G1 X248.365 Y25.484 E1.57898
G1 X247.733 Y25.484 F27000
G1 F3600
G1 X274.516 Y52.267 E1.6171
G1 X274.516 Y52.898 F27000
G1 F3600
G1 X247.102 Y25.484 E1.65521
G1 X246.471 Y25.484 F27000
G1 F3600
G1 X274.516 Y53.529 E1.69332
G1 X274.516 Y54.16 F27000
G1 F3600
G1 X245.84 Y25.484 E1.73143
G1 X245.208 Y25.484 F27000
G1 F3600
G1 X274.516 Y54.792 E1.76955
G1 X274.516 Y55.423 F27000
G1 F3600
G1 X244.577 Y25.484 E1.80766
G1 X243.946 Y25.484 F27000
G1 F3600
G1 X274.516 Y56.054 E1.84577
G1 X274.516 Y56.685 F27000
G1 F3600
G1 X243.315 Y25.484 E1.88388
G1 X242.683 Y25.484 F27000
G1 F3600
G1 X274.516 Y57.317 E1.922
G1 X274.516 Y57.948 F27000
G1 F3600
G1 X242.052 Y25.484 E1.96011
G1 X241.421 Y25.484 F27000
G1 F3600
G1 X274.516 Y58.579 E1.99822
G1 X274.516 Y59.21 F27000
G1 F3600
G1 X240.79 Y25.484 E2.03633
G1 X240.158 Y25.484 F27000
G1 F3600
G1 X274.516 Y59.842 E2.07445
G1 X274.516 Y60.473 F27000
G1 F3600
G1 X239.527 Y25.484 E2.11256
G1 X238.896 Y25.484 F27000
G1 F3600
G1 X274.516 Y61.104 E2.15067
G1 X274.516 Y61.735 F27000
G1 F3600
G1 X238.265 Y25.484 E2.18878
G1 X237.634 Y25.484 F27000
G1 F3600
G1 X274.516 Y62.366 E2.2269
G1 X274.516 Y62.998 F27000
G1 F3600
G1 X237.002 Y25.484 E2.26501
G1 X236.371 Y25.484 F27000
G1 F3600
G1 X274.516 Y63.629 E2.30312
M73 P5 R33
G1 X274.516 Y64.26 F27000
G1 F3600
G1 X235.74 Y25.484 E2.34123
G1 X235.109 Y25.484 F27000
G1 F3600
G1 X274.516 Y64.891 E2.37935
G1 X274.516 Y65.523 F27000
G1 F3600
G1 X234.477 Y25.484 E2.41746
G1 X233.846 Y25.484 F27000
G1 F3600
G1 X274.516 Y66.154 E2.45557
G1 X274.516 Y66.785 F27000
G1 F3600
G1 X233.215 Y25.484 E2.49369
G1 X232.584 Y25.484 F27000
G1 F3600
G1 X274.516 Y67.416 E2.5318
G1 X274.516 Y68.048 F27000
G1 F3600
G1 X231.952 Y25.484 E2.56991
G1 X231.321 Y25.484 F27000
G1 F3600
G1 X274.516 Y68.679 E2.60802
G1 X274.516 Y69.31 F27000
G1 F3600
G1 X230.69 Y25.484 E2.64614
G1 X230.059 Y25.484 F27000
G1 F3600
G1 X274.516 Y69.941 E2.68425
G1 X274.516 Y70.572 F27000
G1 F3600
G1 X229.428 Y25.484 E2.72236
G1 X228.796 Y25.484 F27000
G1 F3600
G1 X274.516 Y71.204 E2.76047
G1 X274.516 Y71.835 F27000
G1 F3600
G1 X228.165 Y25.484 E2.79859
G1 X227.534 Y25.484 F27000
G1 F3600
G1 X274.516 Y72.466 E2.8367
G1 X274.516 Y73.097 F27000
G1 F3600
G1 X226.903 Y25.484 E2.87481
G1 X226.271 Y25.484 F27000
G1 F3600
G1 X274.516 Y73.729 E2.91292
G1 X274.516 Y74.36 F27000
G1 F3600
G1 X225.64 Y25.484 E2.95104
G1 X225.009 Y25.484 F27000
G1 F3600
G1 X274.516 Y74.991 E2.98915
G1 X274.516 Y75.622 F27000
G1 F3600
G1 X224.378 Y25.484 E3.02726
G1 X223.746 Y25.484 F27000
G1 F3600
G1 X274.516 Y76.254 E3.06537
G1 X274.516 Y76.885 F27000
G1 F3600
G1 X223.115 Y25.484 E3.10349
G1 X222.484 Y25.484 F27000
G1 F3600
G1 X274.516 Y77.516 E3.1416
M73 P6 R33
G1 X274.516 Y78.147 F27000
G1 F3600
G1 X221.853 Y25.484 E3.17971
G1 X221.222 Y25.484 F27000
G1 F3600
G1 X274.516 Y78.778 E3.21783
G1 X274.516 Y79.41 F27000
G1 F3600
G1 X220.59 Y25.484 E3.25594
G1 X219.959 Y25.484 F27000
G1 F3600
G1 X274.516 Y80.041 E3.29405
G1 X274.516 Y80.672 F27000
G1 F3600
G1 X219.328 Y25.484 E3.33216
G1 X218.697 Y25.484 F27000
G1 F3600
G1 X274.516 Y81.303 E3.37028
G1 X274.516 Y81.935 F27000
G1 F3600
G1 X218.065 Y25.484 E3.40839
G1 X217.434 Y25.484 F27000
G1 F3600
G1 X274.516 Y82.566 E3.4465
G1 X274.516 Y83.197 F27000
G1 F3600
G1 X216.803 Y25.484 E3.48461
G1 X216.172 Y25.484 F27000
G1 F3600
G1 X274.516 Y83.828 E3.52273
G1 X274.516 Y84.46 F27000
G1 F3600
G1 X215.54 Y25.484 E3.56084
G1 X214.909 Y25.484 F27000
G1 F3600
G1 X274.516 Y85.091 E3.59895
G1 X274.516 Y85.722 F27000
G1 F3600
G1 X214.278 Y25.484 E3.63706
G1 X213.647 Y25.484 F27000
G1 F3600
G1 X274.516 Y86.353 E3.67518
G1 X274.516 Y86.985 F27000
G1 F3600
G1 X213.015 Y25.484 E3.71329
G1 X212.384 Y25.484 F27000
G1 F3600
G1 X274.516 Y87.616 E3.7514
M73 P6 R32
G1 X274.516 Y88.247 F27000
G1 F3600
G1 X211.753 Y25.484 E3.78951
M73 P7 R32
G1 X211.122 Y25.484 F27000
G1 F3600
G1 X274.516 Y88.878 E3.82763
G1 X274.516 Y89.509 F27000
G1 F3600
G1 X210.491 Y25.484 E3.86574
G1 X209.859 Y25.484 F27000
G1 F3600
G1 X274.516 Y90.141 E3.90385
G1 X274.516 Y90.772 F27000
G1 F3600
G1 X209.228 Y25.484 E3.94196
G1 X208.597 Y25.484 F27000
G1 F3600
G1 X274.516 Y91.403 E3.98008
G1 X274.516 Y92.034 F27000
G1 F3600
G1 X207.966 Y25.484 E4.01819
G1 X207.334 Y25.484 F27000
G1 F3600
G1 X274.516 Y92.666 E4.0563
G1 X274.516 Y93.297 F27000
G1 F3600
G1 X206.703 Y25.484 E4.09442
G1 X206.072 Y25.484 F27000
G1 F3600
G1 X274.516 Y93.928 E4.13253
G1 X274.516 Y94.559 F27000
G1 F3600
G1 X205.441 Y25.484 E4.17064
G1 X204.809 Y25.484 F27000
G1 F3600
G1 X274.516 Y95.191 E4.20875
G1 X274.516 Y95.822 F27000
G1 F3600
G1 X204.178 Y25.484 E4.24687
G1 X203.547 Y25.484 F27000
G1 F3600
G1 X274.516 Y96.453 E4.28498
G1 X274.516 Y97.084 F27000
G1 F3600
G1 X202.916 Y25.484 E4.32309
G1 X202.285 Y25.484 F27000
G1 F3600
G1 X274.516 Y97.715 E4.3612
M73 P8 R32
G1 X274.516 Y98.347 F27000
G1 F3600
G1 X201.653 Y25.484 E4.39932
G1 X201.022 Y25.484 F27000
G1 F3600
G1 X274.516 Y98.978 E4.43743
G1 X274.516 Y99.609 F27000
G1 F3600
G1 X200.391 Y25.484 E4.47554
G1 X199.76 Y25.484 F27000
G1 F3600
G1 X274.516 Y100.24 E4.51365
G1 X274.516 Y100.872 F27000
G1 F3600
G1 X199.128 Y25.484 E4.55177
G1 X198.497 Y25.484 F27000
G1 F3600
G1 X274.516 Y101.503 E4.58988
G1 X274.516 Y102.134 F27000
G1 F3600
G1 X197.866 Y25.484 E4.62799
G1 X197.235 Y25.484 F27000
G1 F3600
G1 X274.516 Y102.765 E4.6661
G1 X274.516 Y103.397 F27000
G1 F3600
G1 X196.603 Y25.484 E4.70422
G1 X195.972 Y25.484 F27000
G1 F3600
G1 X274.516 Y104.028 E4.74233
G1 X274.516 Y104.659 F27000
G1 F3600
G1 X195.341 Y25.484 E4.78044
G1 X194.71 Y25.484 F27000
G1 F3600
G1 X274.516 Y105.29 E4.81855
G1 X274.516 Y105.922 F27000
G1 F3600
G1 X194.078 Y25.484 E4.85667
M73 P9 R32
G1 X193.447 Y25.484 F27000
G1 F3600
G1 X274.516 Y106.553 E4.89478
G1 X274.516 Y107.184 F27000
G1 F3600
G1 X192.816 Y25.484 E4.93289
G1 X192.185 Y25.484 F27000
G1 F3600
G1 X274.516 Y107.815 E4.97101
G1 X274.516 Y108.446 F27000
G1 F3600
G1 X191.554 Y25.484 E5.00912
G1 X190.922 Y25.484 F27000
G1 F3600
G1 X274.516 Y109.078 E5.04723
G1 X274.516 Y109.709 F27000
G1 F3600
G1 X190.291 Y25.484 E5.08534
G1 X189.66 Y25.484 F27000
G1 F3600
G1 X274.516 Y110.34 E5.12346
G1 X274.516 Y110.971 F27000
G1 F3600
G1 X189.029 Y25.484 E5.16157
G1 X188.397 Y25.484 F27000
G1 F3600
G1 X274.516 Y111.603 E5.19968
M73 P9 R31
G1 X274.516 Y112.234 F27000
G1 F3600
G1 X187.766 Y25.484 E5.23779
G1 X187.135 Y25.484 F27000
G1 F3600
G1 X274.516 Y112.865 E5.27591
G1 X274.516 Y113.496 F27000
G1 F3600
G1 X186.504 Y25.484 E5.31402
M73 P10 R31
G1 X185.872 Y25.484 F27000
G1 F3600
G1 X274.516 Y114.128 E5.35213
G1 X274.516 Y114.759 F27000
G1 F3600
G1 X185.241 Y25.484 E5.39024
G1 X184.61 Y25.484 F27000
G1 F3600
G1 X274.516 Y115.39 E5.42836
G1 X274.516 Y116.021 F27000
G1 F3600
G1 X183.979 Y25.484 E5.46647
G1 X183.348 Y25.484 F27000
G1 F3600
G1 X274.516 Y116.652 E5.50458
G1 X274.516 Y117.284 F27000
G1 F3600
G1 X182.716 Y25.484 E5.54269
G1 X182.085 Y25.484 F27000
G1 F3600
G1 X274.516 Y117.915 E5.58081
G1 X274.516 Y118.546 F27000
G1 F3600
G1 X181.454 Y25.484 E5.61892
G1 X180.823 Y25.484 F27000
G1 F3600
G1 X274.516 Y119.177 E5.65703
G1 X274.516 Y119.809 F27000
G1 F3600
G1 X180.191 Y25.484 E5.69514
G1 X179.56 Y25.484 F27000
G1 F3600
G1 X274.516 Y120.44 E5.73326
M73 P11 R31
G1 X274.516 Y121.071 F27000
G1 F3600
G1 X178.929 Y25.484 E5.77137
G1 X178.298 Y25.484 F27000
G1 F3600
G1 X274.516 Y121.702 E5.80948
G1 X274.516 Y122.334 F27000
G1 F3600
G1 X177.666 Y25.484 E5.8476
G1 X177.035 Y25.484 F27000
G1 F3600
G1 X274.516 Y122.965 E5.88571
G1 X274.516 Y123.596 F27000
G1 F3600
G1 X176.404 Y25.484 E5.92382
G1 X175.773 Y25.484 F27000
G1 F3600
G1 X274.516 Y124.227 E5.96193
G1 X274.516 Y124.858 F27000
G1 F3600
G1 X175.142 Y25.484 E6.00005
G1 X174.51 Y25.484 F27000
G1 F3600
G1 X274.516 Y125.49 E6.03816
G1 X274.516 Y126.121 F27000
G1 F3600
G1 X173.879 Y25.484 E6.07627
G1 X173.248 Y25.484 F27000
G1 F3600
G1 X274.516 Y126.752 E6.11438
G1 X274.516 Y127.383 F27000
G1 F3600
G1 X172.617 Y25.484 E6.1525
M73 P12 R31
G1 X171.985 Y25.484 F27000
G1 F3600
G1 X274.516 Y128.015 E6.19061
G1 X274.516 Y128.646 F27000
G1 F3600
G1 X171.354 Y25.484 E6.22872
G1 X170.723 Y25.484 F27000
G1 F3600
G1 X274.516 Y129.277 E6.26683
G1 X274.516 Y129.908 F27000
G1 F3600
G1 X170.092 Y25.484 E6.30495
G1 X169.46 Y25.484 F27000
G1 F3600
G1 X274.516 Y130.54 E6.34306
M73 P12 R30
G1 X274.516 Y131.171 F27000
G1 F3600
G1 X168.829 Y25.484 E6.38117
G1 X168.198 Y25.484 F27000
G1 F3600
G1 X274.516 Y131.802 E6.41928
G1 X274.516 Y132.433 F27000
G1 F3600
G1 X167.567 Y25.484 E6.4574
G1 X166.935 Y25.484 F27000
G1 F3600
G1 X274.516 Y133.065 E6.49551
M73 P13 R30
G1 X274.516 Y133.696 F27000
G1 F3600
G1 X166.304 Y25.484 E6.53362
G1 X165.673 Y25.484 F27000
G1 F3600
G1 X274.516 Y134.327 E6.57173
G1 X274.516 Y134.958 F27000
G1 F3600
G1 X165.042 Y25.484 E6.60985
G1 X164.411 Y25.484 F27000
G1 F3600
G1 X274.516 Y135.589 E6.64796
G1 X274.516 Y136.221 F27000
G1 F3600
G1 X163.779 Y25.484 E6.68607
G1 X163.148 Y25.484 F27000
G1 F3600
G1 X274.516 Y136.852 E6.72419
G1 X274.516 Y137.483 F27000
G1 F3600
G1 X162.517 Y25.484 E6.7623
G1 X161.886 Y25.484 F27000
G1 F3600
G1 X274.516 Y138.114 E6.80041
G1 X274.516 Y138.746 F27000
G1 F3600
G1 X161.254 Y25.484 E6.83852
G1 X160.623 Y25.484 F27000
G1 F3600
G1 X274.516 Y139.377 E6.87664
M73 P14 R30
G1 X274.516 Y140.008 F27000
G1 F3600
G1 X159.992 Y25.484 E6.91475
G1 X159.361 Y25.484 F27000
G1 F3600
G1 X274.516 Y140.639 E6.95286
G1 X274.516 Y141.271 F27000
G1 F3600
G1 X158.729 Y25.484 E6.99097
G1 X158.098 Y25.484 F27000
G1 F3600
G1 X274.516 Y141.902 E7.02909
G1 X274.516 Y142.533 F27000
G1 F3600
G1 X157.467 Y25.484 E7.0672
G1 X156.836 Y25.484 F27000
G1 F3600
G1 X274.516 Y143.164 E7.10531
G1 X274.516 Y143.795 F27000
G1 F3600
G1 X156.205 Y25.484 E7.14342
G1 X155.573 Y25.484 F27000
G1 F3600
G1 X274.516 Y144.427 E7.18154
M73 P15 R30
G1 X274.516 Y145.058 F27000
G1 F3600
G1 X154.942 Y25.484 E7.21965
G1 X154.311 Y25.484 F27000
G1 F3600
G1 X274.516 Y145.689 E7.25776
G1 X274.516 Y146.32 F27000
G1 F3600
G1 X153.68 Y25.484 E7.29587
G1 X153.048 Y25.484 F27000
G1 F3600
G1 X274.516 Y146.952 E7.33399
M73 P15 R29
G1 X274.516 Y147.583 F27000
G1 F3600
G1 X152.417 Y25.484 E7.3721
G1 X151.786 Y25.484 F27000
G1 F3600
G1 X274.516 Y148.214 E7.41021
G1 X274.516 Y148.845 F27000
G1 F3600
G1 X151.155 Y25.484 E7.44833
G1 X150.523 Y25.484 F27000
G1 F3600
G1 X274.516 Y149.477 E7.48644
G1 X274.516 Y150.108 F27000
G1 F3600
G1 X149.892 Y25.484 E7.52455
M73 P16 R29
G1 X149.261 Y25.484 F27000
G1 F3600
G1 X274.516 Y150.739 E7.56266
