; generated by SuperSlicer 2.4 on 2023-08-15 at 11:56:39 UTC


;
;

;
;
; 

; external perimeters extrusion width = 0.40mm
; perimeters extrusion width = 0.46mm
; infill extrusion width = 0.64mm
; solid infill extrusion width = 0.56mm
; top infill extrusion width = 0.40mm
; first layer extrusion width = 0.50mm

; object:{"name":"Voron_Design_Cube_v7","id":"Voron_Design_Cube_v7.stl id:0 copy 0","object_center":[150.000000,150.000000,0.000000],"boundingbox_center":[150.000000,150.000000,15.000000],"boundingbox_size":[42.426407,42.426407,30.000000]}
; plater:{"center":[150.000000,150.000000,0.000000],"boundingbox_center":[150.000000,150.000000,15.000000],"boundingbox_size":[42.426407,42.426407,30.000000]}

M73 P0 R46


; Pre-Processed for Cancel-Object support by preprocess_cancellation v0.2.0
; 1 known objects
EXCLUDE_OBJECT_DEFINE NAME=Voron_Design_Cube_v7_stl_id_0_copy_0 CENTER=150.175,150.234 POLYGON=[[129.07,129.07],[129.07,170.907],[170.93,170.907],[170.93,129.07]]
;TYPE:Custom
; custom gcode: start_gcode
M190 S0
M104 S0
PRINT_START EXTRUDER_TEMP=240 BED_TEMP=110 FILAMENT=ABS SIZE=127.853_127.853_172.147_172.147 ENCLOSURE_TEMP=45
; custom gcode end: start_gcode
M107
G21 ; set units to millimeters
G90 ; use absolute coordinates
M83 ; use relative distances for extrusion
;_TOOLCHANGE 0
;LAYER_CHANGE
;Z:0.25
;HEIGHT:0.25
G1 Z0.25 F27000
; custom gcode: layer_gcode
;DISPLAY_PROGRESS TOTAL_LAYERS=150 CURRENT_LAYER=0
; custom gcode end: layer_gcode

G92 E0
G1 E-1.6 F1800
G1 Z0.65 F27000
M204 S2000
G1 X136.103 Y136.103
G1 Z0.25
G1 E1.6 F1800
; custom gcode: feature_gcode
; External perimeter
;Skirt
SET_VELOCITY_LIMIT ACCEL=7000 ACCEL_TO_DECEL=7000 SQUARE_CORNER_VELOCITY=8

; Support material
; custom gcode end: feature_gcode

;TYPE:Skirt
;WIDTH:0.46
G1 X129.674 Y142.532 E0.34945
G1 X128.655 Y144.032 E0.06967
G1 X128.259 Y145.946 E0.07515
G1 X128.259 Y154.054 E0.3116
G1 X128.6 Y155.834 E0.06967
G1 X129.674 Y157.468 E0.07515
G1 X142.532 Y170.326 E0.6989
G1 X144.032 Y171.345 E0.06967
G1 X145.946 Y171.741 E0.07515
G1 X154.054 Y171.741 E0.3116
G1 X155.834 Y171.4 E0.06967
G1 X157.468 Y170.326 E0.07515
G1 X170.326 Y157.468 E0.6989
G1 X171.345 Y155.968 E0.06967
G1 X171.741 Y154.054 E0.07515
G1 X171.741 Y145.946 E0.3116
G1 X171.4 Y144.166 E0.06967
G1 X170.326 Y142.532 E0.07515
G1 X157.468 Y129.674 E0.6989
G1 X155.968 Y128.655 E0.06967
G1 X154.054 Y128.259 E0.07515
G1 X145.946 Y128.259 E0.3116
G1 X144.166 Y128.6 E0.06967
G1 X142.532 Y129.674 E0.07515
G1 X136.145 Y136.06 E0.34714
G1 X136.433 Y136.348 F27000
G1 F1800
G1 X129.961 Y142.819 E0.35176
G1 X129.061 Y144.118 E0.06073
G1 X128.666 Y145.946 E0.07188
G1 X128.666 Y154.054 E0.3116
G1 X128.948 Y155.608 E0.06073
G1 X129.961 Y157.181 E0.07188
G1 X142.819 Y170.039 E0.6989
G1 X144.118 Y170.939 E0.06073
G1 X145.946 Y171.334 E0.07188
G1 X154.054 Y171.334 E0.3116
G1 X155.608 Y171.052 E0.06073
G1 X157.181 Y170.039 E0.07188
G1 X170.039 Y157.181 E0.6989
G1 X170.939 Y155.882 E0.06073
G1 X171.334 Y154.054 E0.07188
G1 X171.334 Y145.946 E0.3116
M73 P0 R45
G1 X171.052 Y144.392 E0.06073
G1 X170.039 Y142.819 E0.07188
G1 X157.181 Y129.961 E0.6989
M73 P1 R45
G1 X155.882 Y129.061 E0.06073
G1 X154.054 Y128.666 E0.07188
G1 X145.946 Y128.666 E0.3116
G1 X144.392 Y128.948 E0.06073
G1 X142.819 Y129.961 E0.07188
G1 X136.475 Y136.305 E0.34484
G1 X136.762 Y136.593 F27000
G1 F1800
G1 X130.248 Y143.107 E0.35406
G1 X129.467 Y144.209 E0.05194
G1 X129.072 Y145.946 E0.06846
G1 X129.072 Y154.054 E0.3116
G1 X129.299 Y155.386 E0.05194
G1 X130.248 Y156.893 E0.06846
G1 X143.107 Y169.752 E0.6989
G1 X144.209 Y170.533 E0.05194
G1 X145.946 Y170.928 E0.06846
G1 X154.054 Y170.928 E0.3116
G1 X155.386 Y170.701 E0.05194
G1 X156.893 Y169.752 E0.06846
G1 X169.752 Y156.893 E0.6989
G1 X170.533 Y155.791 E0.05194
G1 X170.928 Y154.054 E0.06846
G1 X170.928 Y145.946 E0.3116
G1 X170.701 Y144.614 E0.05194
G1 X169.752 Y143.107 E0.06846
G1 X156.893 Y130.248 E0.6989
G1 X155.791 Y129.467 E0.05194
G1 X154.054 Y129.072 E0.06846
G1 X145.946 Y129.072 E0.3116
G1 X144.614 Y129.299 E0.05194
G1 X143.107 Y130.248 E0.06846
G1 X136.805 Y136.55 E0.34253
G1 X137.092 Y136.838 F27000
G1 F1800
G1 X130.536 Y143.394 E0.35637
G1 X129.873 Y144.306 E0.04332
G1 X129.478 Y145.946 E0.06486
G1 X129.478 Y154.054 E0.3116
G1 X129.654 Y155.167 E0.04332
G1 X130.536 Y156.606 E0.06486
G1 X143.394 Y169.464 E0.6989
G1 X144.306 Y170.127 E0.04332
G1 X145.946 Y170.522 E0.06486
G1 X154.054 Y170.522 E0.3116
G1 X155.167 Y170.346 E0.04332
G1 X156.606 Y169.464 E0.06486
G1 X169.464 Y156.606 E0.6989
G1 X170.127 Y155.694 E0.04332
G1 X170.522 Y154.054 E0.06486
G1 X170.522 Y145.946 E0.3116
G1 X170.346 Y144.833 E0.04332
G1 X169.464 Y143.394 E0.06486
G1 X156.606 Y130.536 E0.6989
G1 X155.694 Y129.873 E0.04332
G1 X154.054 Y129.478 E0.06486
G1 X145.946 Y129.478 E0.3116
G1 X144.833 Y129.654 E0.04332
G1 X143.394 Y130.536 E0.06486
G1 X137.135 Y136.795 E0.34023
G1 X137.422 Y137.082 F27000
G1 F1800
G1 X130.823 Y143.681 E0.35868
G1 X130.279 Y144.408 E0.03489
G1 X129.885 Y145.946 E0.06104
G1 X129.885 Y154.054 E0.3116
G1 X130.013 Y154.952 E0.03489
G1 X130.823 Y156.319 E0.06104
G1 X143.681 Y169.177 E0.6989
G1 X144.408 Y169.721 E0.03489
G1 X145.946 Y170.115 E0.06104
G1 X154.054 Y170.115 E0.3116
G1 X154.952 Y169.987 E0.03489
G1 X156.319 Y169.177 E0.06104
G1 X169.177 Y156.319 E0.6989
G1 X169.721 Y155.592 E0.03489
G1 X170.115 Y154.054 E0.06104
G1 X170.115 Y145.946 E0.3116
G1 X169.987 Y145.048 E0.03489
G1 X169.177 Y143.681 E0.06104
G1 X156.319 Y130.823 E0.6989
G1 X155.592 Y130.279 E0.03489
G1 X154.054 Y129.885 E0.06104
G1 X145.946 Y129.885 E0.3116
G1 X145.048 Y130.013 E0.03489
G1 X143.681 Y130.823 E0.06104
G1 X137.464 Y137.04 E0.33792
M104 S240 ; set temperature
G1 E-1.6
M204 S4000
G1 Z0.65 F27000
; printing object Voron_Design_Cube_v7.stl id:0 copy 0
EXCLUDE_OBJECT_START NAME=Voron_Design_Cube_v7_stl_id_0_copy_0
; acceleration to travel
M204 S10000
G1 X148.252 Y140.001
; decel to extrusion
M204 S2000
G1 X150.409 Y140.593
; end travel
G1 Z0.25
G1 E1.6 F1800
; custom gcode: feature_gcode
; External perimeter
;Perimeter
SET_VELOCITY_LIMIT ACCEL=2000 ACCEL_TO_DECEL=2000 SQUARE_CORNER_VELOCITY=8

; Overhang perimeter
; custom gcode end: feature_gcode

;TYPE:Internal perimeter
;WIDTH:0.5
G1 X150.004 Y140.594 E0.01712
G1 X149.619 Y140.594 E0.01622
G1 X148.933 Y140.645 E0.02906
G1 X147.982 Y140.802 E0.04068
G1 X147.042 Y141.06 E0.04114
G1 X146.134 Y141.414 E0.04114
G1 X145.268 Y141.859 E0.04114
G1 X144.452 Y142.392 E0.04114
G1 X143.695 Y143.006 E0.04114
G1 X143.006 Y143.695 E0.04114
G1 X142.392 Y144.452 E0.04114
G1 X141.859 Y145.268 E0.04114
G1 X141.419 Y146.125 E0.0407
G1 X141.161 Y146.763 E0.02905
G1 X140.918 Y147.514 E0.03333
G1 X140.71 Y148.461 E0.0409
G1 X140.601 Y149.429 E0.04114
G1 X140.592 Y150.403 E0.04114
G1 X140.684 Y151.373 E0.04114
G1 X140.876 Y152.329 E0.04114
G1 X141.162 Y153.248 E0.04066
G1 X141.425 Y153.885 E0.02908
G1 X141.78 Y154.592 E0.03337
G1 X142.294 Y155.412 E0.04087
G1 X142.895 Y156.179 E0.04114
G1 X143.571 Y156.88 E0.04114
G1 X144.317 Y157.508 E0.04114
G1 X145.123 Y158.055 E0.04114
G1 X145.971 Y158.51 E0.04062
G1 X146.605 Y158.781 E0.02911
G1 X147.354 Y159.036 E0.03341
G1 X148.295 Y159.26 E0.04083
G1 X149.261 Y159.387 E0.04114
G1 X150.235 Y159.413 E0.04114
G1 X151.207 Y159.338 E0.04114
G1 X152.165 Y159.164 E0.04114
G1 X153.101 Y158.891 E0.04114
G1 X154.003 Y158.523 E0.04114
G1 X154.862 Y158.063 E0.04114
G1 X155.67 Y157.517 E0.04114
G1 X156.406 Y156.9 E0.04056
G1 X156.9 Y156.406 E0.02951
G1 X157.517 Y155.67 E0.04056
G1 X158.063 Y154.862 E0.04114
G1 X158.519 Y154.01 E0.0408
G1 X158.825 Y153.279 E0.03345
G1 X159.042 Y152.624 E0.02915
G1 X159.263 Y151.688 E0.04059
G1 X159.388 Y150.722 E0.04113
G1 X159.413 Y149.748 E0.04114
G1 X159.336 Y148.777 E0.04114
G1 X159.16 Y147.818 E0.04114
G1 X158.887 Y146.89 E0.04084
G1 X158.593 Y146.155 E0.03341
G1 X158.29 Y145.536 E0.02911
G1 X157.792 Y144.713 E0.04062
G1 X157.204 Y143.936 E0.04114
G1 X156.538 Y143.224 E0.04114
G1 X155.803 Y142.585 E0.04114
G1 X155.006 Y142.025 E0.04114
G1 X154.155 Y141.55 E0.04114
G1 X153.259 Y141.166 E0.04114
G1 X152.329 Y140.876 E0.04114
G1 X151.373 Y140.684 E0.04114
G1 X150.469 Y140.599 E0.03836
G1 X150.388 Y141.039 F27000
G1 F1800
G1 X150.004 Y141.04 E0.01621
G1 X149.636 Y141.041 E0.01555
G1 X148.986 Y141.089 E0.02753
G1 X148.078 Y141.239 E0.03885
G1 X147.183 Y141.485 E0.03919
G1 X146.318 Y141.821 E0.03919
G1 X145.492 Y142.246 E0.03918
G1 X144.715 Y142.753 E0.03919
G1 X143.994 Y143.338 E0.03919
G1 X143.338 Y143.994 E0.03919
G1 X142.753 Y144.715 E0.03919
G1 X142.246 Y145.492 E0.03919
G1 X141.825 Y146.311 E0.03886
G1 X141.581 Y146.916 E0.02753
G1 X141.349 Y147.631 E0.03175
G1 X141.151 Y148.534 E0.03901
G1 X141.047 Y149.456 E0.03919
G1 X141.039 Y150.384 E0.03919
G1 X141.127 Y151.308 E0.03918
G1 X141.309 Y152.218 E0.03918
G1 X141.583 Y153.097 E0.03883
G1 X141.832 Y153.7 E0.02755
G1 X142.169 Y154.373 E0.03178
G1 X142.66 Y155.155 E0.03899
G1 X143.232 Y155.886 E0.03919
G1 X143.877 Y156.554 E0.03919
G1 X144.587 Y157.151 E0.03918
G1 X145.355 Y157.672 E0.03919
G1 X146.165 Y158.107 E0.0388
G1 X146.765 Y158.364 E0.02757
G1 X147.478 Y158.607 E0.03181
G1 X148.376 Y158.821 E0.03896
G1 X149.296 Y158.941 E0.03918
G1 X150.224 Y158.966 E0.03919
G1 X151.15 Y158.895 E0.03918
G1 X152.063 Y158.729 E0.03918
G1 X152.954 Y158.469 E0.03918
G1 X153.813 Y158.118 E0.03918
G1 X154.632 Y157.68 E0.03918
G1 X155.401 Y157.161 E0.03918
G1 X156.104 Y156.571 E0.03876
G1 X156.571 Y156.104 E0.02786
G1 X157.161 Y155.401 E0.03876
G1 X157.68 Y154.632 E0.03918
G1 X158.115 Y153.818 E0.03894
G1 X158.407 Y153.123 E0.03184
G1 X158.612 Y152.502 E0.0276
G1 X158.824 Y151.608 E0.03878
G1 X158.943 Y150.688 E0.03918
G1 X158.966 Y149.76 E0.03918
G1 X158.893 Y148.835 E0.03918
G1 X158.725 Y147.922 E0.03919
G1 X158.465 Y147.036 E0.03896
G1 X158.185 Y146.337 E0.03181
G1 X157.898 Y145.75 E0.02757
G1 X157.422 Y144.964 E0.03881
G1 X156.862 Y144.224 E0.03918
G1 X156.228 Y143.546 E0.03919
G1 X155.528 Y142.937 E0.03918
G1 X154.768 Y142.403 E0.03919
G1 X153.957 Y141.951 E0.03919
G1 X153.104 Y141.585 E0.03918
G1 X152.218 Y141.309 E0.03919
G1 X151.308 Y141.127 E0.03918
G1 X150.448 Y141.045 E0.03647
G1 X150.368 Y141.486 F27000
G1 F1800
G1 X150.005 Y141.486 E0.0153
G1 X149.653 Y141.487 E0.01488
G1 X149.039 Y141.532 E0.026
G1 X148.174 Y141.676 E0.03702
G1 X147.323 Y141.909 E0.03723
G1 X146.501 Y142.229 E0.03723
G1 X145.717 Y142.632 E0.03723
G1 X144.978 Y143.114 E0.03723
G1 X144.294 Y143.67 E0.03723
G1 X143.67 Y144.294 E0.03723
G1 X143.114 Y144.978 E0.03723
G1 X142.632 Y145.717 E0.03723
G1 X142.231 Y146.497 E0.03703
G1 X142.001 Y147.068 E0.026
G1 X141.781 Y147.748 E0.03017
G1 X141.592 Y148.607 E0.03712
G1 X141.493 Y149.483 E0.03723
G1 X141.485 Y150.365 E0.03723
G1 X141.569 Y151.243 E0.03723
G1 X141.742 Y152.108 E0.03723
G1 X142.003 Y152.945 E0.03701
G1 X142.238 Y153.514 E0.02601
G1 X142.559 Y154.153 E0.03019
G1 X143.026 Y154.898 E0.0371
G1 X143.569 Y155.592 E0.03723
G1 X144.182 Y156.227 E0.03723
G1 X144.856 Y156.795 E0.03723
G1 X145.586 Y157.29 E0.03723
G1 X146.358 Y157.705 E0.03699
G1 X146.925 Y157.947 E0.02603
G1 X147.602 Y158.178 E0.03021
G1 X148.457 Y158.381 E0.03709
G1 X149.331 Y158.496 E0.03723
G1 X150.213 Y158.519 E0.03723
G1 X151.092 Y158.452 E0.03723
G1 X151.96 Y158.294 E0.03723
G1 X152.806 Y158.047 E0.03723
G1 X153.623 Y157.713 E0.03723
G1 X154.401 Y157.298 E0.03723
G1 X155.131 Y156.804 E0.03723
G1 X155.802 Y156.241 E0.03696
G1 X156.241 Y155.802 E0.02622
G1 X156.804 Y155.131 E0.03696
G1 X157.298 Y154.401 E0.03723
G1 X157.712 Y153.626 E0.03707
G1 X157.988 Y152.966 E0.03023
G1 X158.182 Y152.38 E0.02604
G1 X158.384 Y151.528 E0.03697
G1 X158.497 Y150.654 E0.03723
G1 X158.519 Y149.772 E0.03723
G1 X158.45 Y148.893 E0.03723
G1 X158.29 Y148.025 E0.03723
G1 X158.043 Y147.182 E0.03709
G1 X157.777 Y146.518 E0.03021
G1 X157.506 Y145.964 E0.02603
G1 X157.052 Y145.215 E0.03699
G1 X156.52 Y144.512 E0.03723
G1 X155.918 Y143.867 E0.03723
G1 X155.252 Y143.289 E0.03723
G1 X154.53 Y142.782 E0.03723
G1 X153.76 Y142.352 E0.03723
G1 X152.95 Y142.004 E0.03723
G1 X152.108 Y141.742 E0.03723
G1 X151.243 Y141.569 E0.03723
G1 X150.428 Y141.491 E0.03458
G1 E-1.6
M204 S4000
G1 Z0.65 F27000
; acceleration to travel
M204 S10000
G1 X150.222 Y156.565
; decel to extrusion
M204 S1000
G1 X150.202 Y158.073
; end travel
G1 Z0.25
G1 E1.6 F1800
; custom gcode: feature_gcode
; External perimeter
;ExternalPerimeter
SET_VELOCITY_LIMIT ACCEL=1000 ACCEL_TO_DECEL=1000 SQUARE_CORNER_VELOCITY=8

; Perimeter
; custom gcode end: feature_gcode

;TYPE:External perimeter
G1 X151.035 Y158.008 E0.03528
G1 X151.857 Y157.859 E0.03528
G1 X152.659 Y157.625 E0.03528
G1 X153.433 Y157.309 E0.03528
G1 X154.17 Y156.915 E0.03528
G1 X154.862 Y156.447 E0.03528
G1 X155.5 Y155.912 E0.03516
G1 X155.912 Y155.5 E0.02457
G1 X156.447 Y154.862 E0.03516
G1 X156.915 Y154.17 E0.03528
G1 X157.308 Y153.434 E0.03521
G1 X157.57 Y152.809 E0.02862
G1 X157.753 Y152.259 E0.02449
G1 X157.944 Y151.448 E0.03516
G1 X158.051 Y150.619 E0.03528
G1 X158.072 Y149.784 E0.03528
G1 X158.007 Y148.951 E0.03528
G1 X157.855 Y148.129 E0.03528
G1 X157.62 Y147.329 E0.03522
G1 X157.369 Y146.699 E0.02861
G1 X157.114 Y146.179 E0.02448
G1 X156.682 Y145.466 E0.03517
G1 X156.178 Y144.8 E0.03528
G1 X155.607 Y144.189 E0.03528
G1 X154.977 Y143.641 E0.03528
G1 X154.293 Y143.16 E0.03528
G1 X153.563 Y142.753 E0.03528
G1 X152.795 Y142.424 E0.03528
G1 X151.997 Y142.175 E0.03528
G1 X151.178 Y142.011 E0.03528
G1 X150.347 Y141.932 E0.03523
G1 X150.006 Y141.933 E0.01439
G1 X149.67 Y141.933 E0.01421
G1 X149.092 Y141.976 E0.02447
G1 X148.269 Y142.112 E0.03518
G1 X147.463 Y142.333 E0.03528
G1 X146.685 Y142.636 E0.03528
G1 X145.941 Y143.018 E0.03528
G1 X145.242 Y143.475 E0.03528
G1 X144.593 Y144.002 E0.03528
G1 X144.002 Y144.593 E0.03528
G1 X143.475 Y145.242 E0.03528
G1 X143.018 Y145.941 E0.03528
G1 X142.637 Y146.683 E0.03519
G1 X142.42 Y147.22 E0.02447
G1 X142.212 Y147.865 E0.02859
G1 X142.033 Y148.68 E0.03523
G1 X141.939 Y149.51 E0.03528
G1 X141.932 Y150.346 E0.03528
G1 X142.011 Y151.178 E0.03528
G1 X142.175 Y151.997 E0.03528
G1 X142.423 Y152.793 E0.03518
G1 X142.644 Y153.329 E0.02448
G1 X142.948 Y153.934 E0.0286
G1 X143.392 Y154.641 E0.03522
G1 X143.907 Y155.299 E0.03528
G1 X144.487 Y155.9 E0.03528
G1 X145.126 Y156.439 E0.03528
G1 X145.818 Y156.908 E0.03528
G1 X146.552 Y157.302 E0.03517
G1 X147.085 Y157.53 E0.02449
G1 X147.726 Y157.748 E0.02861
G1 X148.538 Y157.942 E0.03522
G1 X149.366 Y158.05 E0.03528
G1 X150.142 Y158.071 E0.03275
;WIPE_START
M204 S4000
G1 X150.416 Y158.41 F27000
;WIPE_END
G1 E-1.6 F1800
G1 Z0.65 F27000
; acceleration to travel
M204 S10000
G1 X162.839 Y148.572
; decel to extrusion
M204 S2000
G1 X165.323 Y146.605
; end travel
G1 Z0.25
G1 E1.6 F1800
; custom gcode: feature_gcode
; External perimeter
;Perimeter
SET_VELOCITY_LIMIT ACCEL=2000 ACCEL_TO_DECEL=2000 SQUARE_CORNER_VELOCITY=8

; Overhang perimeter
; custom gcode end: feature_gcode

;TYPE:Internal perimeter
G1 X165.323 Y153.395 E0.28669
G1 X153.395 Y165.323 E0.71212
G1 X146.605 Y165.323 E0.28669
G1 X134.677 Y153.395 E0.71212
G1 X134.677 Y146.605 E0.28669
G1 X146.605 Y134.677 E0.71212
G1 X153.395 Y134.677 E0.28669
G1 X165.281 Y146.562 E0.70959
G1 X165.769 Y146.42 F27000
G1 F1800
G1 X165.769 Y153.58 E0.30231
G1 X153.58 Y165.769 E0.72774
G1 X146.42 Y165.769 E0.30231
G1 X134.231 Y153.58 E0.72774
G1 X134.231 Y146.42 E0.30231
G1 X146.42 Y134.231 E0.72774
G1 X153.58 Y134.231 E0.30231
G1 X165.727 Y146.377 E0.7252
G1 X166.216 Y146.235 F27000
G1 F1800
G1 X166.216 Y153.765 E0.31792
G1 X153.765 Y166.216 E0.74335
G1 X146.235 Y166.216 E0.31792
G1 X133.784 Y153.765 E0.74335
G1 X133.784 Y146.235 E0.31792
G1 X146.235 Y133.784 E0.74335
G1 X153.765 Y133.784 E0.31792
G1 X166.173 Y146.192 E0.74081
; acceleration to travel
M204 S10000
M73 P2 R45
G1 X151.47 Y164.801 F27000
; decel to extrusion
M204 S1000
G1 X150 Y166.662
; end travel
; custom gcode: feature_gcode
; External perimeter
;ExternalPerimeter
SET_VELOCITY_LIMIT ACCEL=1000 ACCEL_TO_DECEL=1000 SQUARE_CORNER_VELOCITY=8

; Perimeter
; custom gcode end: feature_gcode

