; generated by SuperSlicer 2.4 on 2023-09-10 at 11:18:20 UTC


;
;

;
;
; 

; external perimeters extrusion width = 0.40mm
; perimeters extrusion width = 0.46mm
; infill extrusion width = 0.64mm
; solid infill extrusion width = 0.56mm
; top infill extrusion width = 0.40mm
; first layer extrusion width = 0.50mm

; object:{"name":"Less_Thin_Hexagon_Parts_Tray (1)","id":"Less_Thin_Hexagon_Parts_Tray (1).stl id:0 copy 0","object_center":[150.000005,150.000000,0.000000],"boundingbox_center":[150.000005,150.000000,7.500000],"boundingbox_size":[213.668041,213.668041,15.000000]}
; plater:{"center":[150.000005,150.000000,0.000000],"boundingbox_center":[150.000005,150.000000,7.500000],"boundingbox_size":[213.668041,213.668041,15.000000]}

M73 P0 R80


; Pre-Processed for Cancel-Object support by preprocess_cancellation v0.2.0
; 1 known objects
EXCLUDE_OBJECT_DEFINE NAME=Less_Thin_Hexagon_Parts_Tray_1_stl_id_0_copy_0 CENTER=140.716,159.178 POLYGON=[[43.366,43.366],[43.366,256.631],[256.634,256.631],[256.634,43.366]]
;TYPE:Custom
; custom gcode: start_gcode
M190 S0
M104 S0
PRINT_START EXTRUDER_TEMP=225 BED_TEMP=60 FILAMENT=PLA SIZE=39.934_39.934_260.066_260.066 ENCLOSURE_TEMP=0
; custom gcode end: start_gcode
M107
G21 ; set units to millimeters
G90 ; use absolute coordinates
M83 ; use relative distances for extrusion
;_TOOLCHANGE 0
;LAYER_CHANGE
;Z:0.25
;HEIGHT:0.25
G1 Z0.25 F48000
; custom gcode: layer_gcode
;DISPLAY_PROGRESS TOTAL_LAYERS=75 CURRENT_LAYER=0
; custom gcode end: layer_gcode

G92 E0
M73 P0 R79
G1 E-1.6 F1800
G1 Z0.65 F48000
M204 S2000
G1 X76.534 Y76.534
G1 Z0.25
G1 E1.6 F1800
; custom gcode: feature_gcode
; External perimeter
;Skirt
SET_VELOCITY_LIMIT ACCEL=7000 ACCEL_TO_DECEL=7000 SQUARE_CORNER_VELOCITY=8

; Support material
; custom gcode end: feature_gcode

;TYPE:Skirt
;WIDTH:0.46
G1 F3600
G1 X51.583 Y101.485 E1.37108
G1 X50.931 Y102.308 E0.04079
G1 X50.218 Y103.657 E0.05931
G1 X49.83 Y104.905 E0.05079
G1 X40.575 Y139.444 E1.38939
G1 X40.361 Y140.719 E0.05022
G1 X40.358 Y141.768 E0.04079
G1 X40.511 Y142.807 E0.04079
G1 X41.046 Y144.335 E0.0629
G1 X41.573 Y145.242 E0.04078
G1 X42.396 Y146.239 E0.05022
G1 X153.761 Y257.604 E6.11963
G1 X154.758 Y258.427 E0.05022
G1 X156.189 Y259.183 E0.0629
G1 X157.663 Y259.578 E0.05931
G1 X159.281 Y259.639 E0.0629
G1 X160.556 Y259.425 E0.05022
G1 X195.571 Y250.042 E1.40855
G1 X196.781 Y249.59 E0.05022
G1 X197.692 Y249.069 E0.04079
G1 X198.515 Y248.417 E0.04078
G1 X248.417 Y198.515 E2.74215
G1 X249.323 Y197.287 E0.05931
G1 X249.782 Y196.343 E0.04078
G1 X250.042 Y195.571 E0.03166
G1 X259.425 Y160.556 E1.40855
G1 X259.639 Y159.281 E0.05022
G1 X259.642 Y158.231 E0.04079
G1 X259.341 Y156.641 E0.0629
G1 X258.954 Y155.665 E0.04079
G1 X258.427 Y154.758 E0.04078
G1 X257.604 Y153.761 E0.05022
G1 X146.239 Y42.396 E6.11962
G1 X145.242 Y41.573 E0.05022
G1 X144.335 Y41.046 E0.04078
G1 X143.359 Y40.659 E0.04079
G1 X141.769 Y40.358 E0.0629
G1 X140.719 Y40.361 E0.04079
G1 X139.444 Y40.575 E0.05022
G1 X104.429 Y49.958 E1.40855
G1 X103.657 Y50.218 E0.03166
G1 X102.713 Y50.677 E0.04078
G1 X101.485 Y51.583 E0.05931
G1 X76.576 Y76.492 E1.36875
M104 S225 ; set temperature
G1 E-1.6 F1800
M204 S10000
G1 Z0.65 F48000
; printing object Less_Thin_Hexagon_Parts_Tray (1).stl id:0 copy 0
EXCLUDE_OBJECT_START NAME=Less_Thin_Hexagon_Parts_Tray_1_stl_id_0_copy_0
; acceleration to travel
G1 X130.693 Y50.375
; decel to extrusion
M204 S2000
G1 X141.516 Y45.152
; end travel
G1 Z0.25
G1 E1.6 F1800
; custom gcode: feature_gcode
; External perimeter
;Perimeter
SET_VELOCITY_LIMIT ACCEL=2000 ACCEL_TO_DECEL=2000 SQUARE_CORNER_VELOCITY=8

; Overhang perimeter
; custom gcode end: feature_gcode

;TYPE:Internal perimeter
;WIDTH:0.5
G1 F3600
G1 X141.682 Y45.171 E0.00712
G1 X142.004 Y45.257 E0.01423
G1 X142.309 Y45.39 E0.01423
G1 X142.592 Y45.568 E0.01423
G1 X142.893 Y45.827 E0.01694
G1 X254.173 Y157.107 E6.71695
G1 X254.432 Y157.408 E0.01694
G1 X254.61 Y157.691 E0.01423
G1 X254.743 Y157.996 E0.01423
G1 X254.829 Y158.318 E0.01423
G1 X254.867 Y158.65 E0.01423
G1 X254.854 Y158.983 E0.01423
G1 X254.78 Y159.373 E0.01694
G1 X245.429 Y194.273 E1.54212
G1 X245.298 Y194.648 E0.01694
G1 X245.142 Y194.942 E0.01423
G1 X244.944 Y195.211 E0.01423
G1 X244.708 Y195.447 E0.01424
G1 X244.44 Y195.645 E0.01423
G1 X244.145 Y195.8 E0.01423
G1 X243.77 Y195.931 E0.01694
G1 X208.745 Y205.316 E1.54766
G1 X208.08 Y205.552 E0.03012
G1 X207.376 Y205.937 E0.03425
G1 X206.79 Y206.388 E0.03155
G1 X206.388 Y206.79 E0.02428
G1 X205.927 Y207.389 E0.03225
G1 X205.555 Y208.073 E0.03326
G1 X205.316 Y208.745 E0.03042
G1 X195.931 Y243.77 E1.54766
G1 X195.8 Y244.145 E0.01694
G1 X195.645 Y244.44 E0.01423
G1 X195.447 Y244.708 E0.01423
G1 X195.211 Y244.944 E0.01424
G1 X194.942 Y245.142 E0.01423
G1 X194.648 Y245.298 E0.01423
G1 X194.273 Y245.429 E0.01694
G1 X159.373 Y254.78 E1.54212
G1 X158.983 Y254.854 E0.01694
G1 X158.65 Y254.867 E0.01423
G1 X158.318 Y254.829 E0.01423
G1 X157.996 Y254.743 E0.01423
G1 X157.691 Y254.61 E0.01424
G1 X157.408 Y254.432 E0.01423
G1 X157.107 Y254.173 E0.01694
G1 X45.827 Y142.893 E6.71695
G1 X45.568 Y142.592 E0.01694
G1 X45.39 Y142.309 E0.01423
G1 X45.257 Y142.004 E0.01423
G1 X45.171 Y141.682 E0.01423
G1 X45.133 Y141.35 E0.01423
G1 X45.146 Y141.017 E0.01423
G1 X45.22 Y140.627 E0.01694
G1 X54.571 Y105.727 E1.54212
G1 X54.702 Y105.352 E0.01694
G1 X54.858 Y105.058 E0.01423
G1 X55.056 Y104.789 E0.01423
G1 X55.292 Y104.553 E0.01423
G1 X55.56 Y104.355 E0.01423
G1 X55.855 Y104.2 E0.01423
G1 X56.23 Y104.069 E0.01694
G1 X91.255 Y94.684 E1.54766
G1 X91.927 Y94.445 E0.03042
G1 X92.611 Y94.073 E0.03326
G1 X93.21 Y93.612 E0.03225
G1 X93.612 Y93.21 E0.02428
G1 X94.06 Y92.628 E0.03133
G1 X94.213 Y92.363 E0.01309
G1 X94.449 Y91.917 E0.02152
G1 X94.684 Y91.255 E0.02999
G1 X104.069 Y56.23 E1.54766
G1 X104.2 Y55.855 E0.01694
G1 X104.355 Y55.56 E0.01423
G1 X104.553 Y55.292 E0.01423
G1 X104.789 Y55.056 E0.01423
G1 X105.058 Y54.858 E0.01423
G1 X105.352 Y54.702 E0.01423
G1 X105.727 Y54.571 E0.01694
G1 X140.627 Y45.22 E1.54212
G1 X141.017 Y45.146 E0.01694
G1 X141.35 Y45.133 E0.01423
G1 X141.456 Y45.145 E0.00455
G1 X141.566 Y44.709 F48000
G1 F3600
G1 X141.765 Y44.731 E0.00854
G1 X142.152 Y44.835 E0.01709
G1 X142.519 Y44.995 E0.01709
G1 X142.858 Y45.208 E0.01709
G1 X143.196 Y45.499 E0.01908
G1 X254.501 Y156.804 E6.71838
G1 X254.792 Y157.142 E0.01908
G1 X255.005 Y157.481 E0.01709
G1 X255.165 Y157.848 E0.01709
G1 X255.269 Y158.235 E0.01709
G1 X255.314 Y158.633 E0.01709
G1 X255.299 Y159.033 E0.01709
G1 X255.216 Y159.472 E0.01908
G1 X245.856 Y194.405 E1.54355
G1 X245.708 Y194.827 E0.01908
G1 X245.521 Y195.181 E0.01709
G1 X245.283 Y195.503 E0.01709
G1 X245 Y195.786 E0.01709
G1 X244.678 Y196.024 E0.01709
G1 X244.324 Y196.211 E0.01709
G1 X243.902 Y196.358 E0.01908
G1 X208.878 Y205.743 E1.54762
G1 X208.263 Y205.961 E0.02784
G1 X207.853 Y206.177 E0.01977
G1 X207.62 Y206.312 E0.01147
G1 X207.085 Y206.724 E0.02883
G1 X206.724 Y207.085 E0.0218
G1 X206.302 Y207.633 E0.02951
G1 X205.963 Y208.256 E0.03026
G1 X205.743 Y208.878 E0.02816
G1 X196.358 Y243.902 E1.54762
G1 X196.211 Y244.324 E0.01908
G1 X196.024 Y244.678 E0.01709
G1 X195.786 Y245 E0.01709
G1 X195.503 Y245.283 E0.01709
G1 X195.181 Y245.521 E0.01709
G1 X194.827 Y245.708 E0.01709
G1 X194.405 Y245.856 E0.01908
G1 X159.472 Y255.216 E1.54355
G1 X159.033 Y255.299 E0.01908
G1 X158.633 Y255.314 E0.01709
G1 X158.235 Y255.269 E0.01709
G1 X157.848 Y255.165 E0.01709
G1 X157.481 Y255.005 E0.01709
G1 X157.142 Y254.792 E0.01709
G1 X156.804 Y254.501 E0.01908
G1 X45.499 Y143.196 E6.71838
G1 X45.208 Y142.858 E0.01908
G1 X44.995 Y142.519 E0.01709
G1 X44.835 Y142.152 E0.01709
G1 X44.731 Y141.765 E0.01709
G1 X44.686 Y141.367 E0.01709
G1 X44.701 Y140.967 E0.01709
G1 X44.784 Y140.528 E0.01908
G1 X54.144 Y105.595 E1.54355
G1 X54.292 Y105.173 E0.01908
G1 X54.479 Y104.819 E0.01709
G1 X54.717 Y104.497 E0.01709
G1 X55 Y104.214 E0.01709
G1 X55.322 Y103.976 E0.01709
G1 X55.676 Y103.789 E0.01709
G1 X56.098 Y103.642 E0.01908
G1 X91.122 Y94.257 E1.54762
G1 X91.744 Y94.037 E0.02816
G1 X92.367 Y93.698 E0.03026
G1 X92.915 Y93.276 E0.02951
G1 X93.276 Y92.915 E0.0218
G1 X93.688 Y92.38 E0.02883
G1 X93.823 Y92.147 E0.01147
G1 X94.039 Y91.737 E0.01977
G1 X94.257 Y91.122 E0.02785
G1 X103.642 Y56.098 E1.54762
M73 P1 R79
G1 X103.789 Y55.676 E0.01908
G1 X103.976 Y55.322 E0.01709
G1 X104.214 Y55 E0.01709
G1 X104.497 Y54.717 E0.01709
G1 X104.819 Y54.479 E0.01709
G1 X105.173 Y54.292 E0.01709
G1 X105.595 Y54.144 E0.01908
G1 X140.528 Y44.784 E1.54355
G1 X140.967 Y44.701 E0.01908
G1 X141.367 Y44.686 E0.01709
G1 X141.506 Y44.702 E0.00598
G1 X141.616 Y44.265 F48000
G1 F3600
G1 X141.848 Y44.291 E0.00997
G1 X142.299 Y44.412 E0.01994
G1 X142.728 Y44.599 E0.01994
G1 X143.123 Y44.848 E0.01994
G1 X143.5 Y45.172 E0.02122
G1 X254.828 Y156.5 E6.7198
G1 X255.152 Y156.877 E0.02122
G1 X255.401 Y157.272 E0.01994
G1 X255.588 Y157.701 E0.01994
G1 X255.709 Y158.152 E0.01994
G1 X255.761 Y158.616 E0.01994
G1 X255.744 Y159.083 E0.01994
G1 X255.651 Y159.572 E0.02122
G1 X246.283 Y194.536 E1.54497
G1 X246.118 Y195.006 E0.02122
G1 X245.9 Y195.419 E0.01994
G1 X245.623 Y195.795 E0.01994
G1 X245.292 Y196.125 E0.01995
G1 X244.916 Y196.403 E0.01994
G1 X244.503 Y196.621 E0.01994
G1 X244.034 Y196.785 E0.02122
G1 X209.01 Y206.17 E1.54759
G1 X208.442 Y206.371 E0.0257
G1 X208.069 Y206.568 E0.01803
G1 X207.869 Y206.684 E0.00986
G1 X207.38 Y207.06 E0.02633
G1 X207.06 Y207.38 E0.01933
G1 X206.677 Y207.877 E0.02677
G1 X206.372 Y208.438 E0.02725
G1 X206.17 Y209.01 E0.02591
G1 X196.785 Y244.034 E1.54759
G1 X196.621 Y244.503 E0.02122
G1 X196.403 Y244.916 E0.01994
G1 X196.125 Y245.292 E0.01994
G1 X195.795 Y245.623 E0.01995
G1 X195.419 Y245.9 E0.01994
G1 X195.006 Y246.118 E0.01994
G1 X194.536 Y246.283 E0.02122
G1 X159.572 Y255.651 E1.54497
G1 X159.083 Y255.744 E0.02122
G1 X158.616 Y255.761 E0.01994
G1 X158.152 Y255.709 E0.01994
G1 X157.701 Y255.588 E0.01994
G1 X157.272 Y255.401 E0.01995
G1 X156.877 Y255.152 E0.01994
G1 X156.5 Y254.828 E0.02122
G1 X45.172 Y143.5 E6.7198
G1 X44.848 Y143.123 E0.02122
G1 X44.599 Y142.728 E0.01994
G1 X44.412 Y142.299 E0.01995
G1 X44.291 Y141.848 E0.01994
G1 X44.239 Y141.384 E0.01994
G1 X44.256 Y140.917 E0.01994
G1 X44.349 Y140.428 E0.02122
G1 X53.717 Y105.464 E1.54498
G1 X53.882 Y104.994 E0.02122
G1 X54.1 Y104.581 E0.01994
G1 X54.377 Y104.205 E0.01994
G1 X54.708 Y103.875 E0.01994
G1 X55.084 Y103.597 E0.01994
G1 X55.497 Y103.379 E0.01994
G1 X55.966 Y103.215 E0.02122
G1 X90.99 Y93.83 E1.54759
G1 X91.562 Y93.628 E0.02591
G1 X92.123 Y93.323 E0.02725
G1 X92.62 Y92.94 E0.02677
G1 X92.94 Y92.62 E0.01933
G1 X93.316 Y92.131 E0.02633
G1 X93.432 Y91.931 E0.00986
G1 X93.629 Y91.558 E0.01803
G1 X93.83 Y90.99 E0.0257
G1 X103.215 Y55.966 E1.54759
G1 X103.379 Y55.497 E0.02122
G1 X103.597 Y55.084 E0.01994
G1 X103.875 Y54.708 E0.01994
G1 X104.205 Y54.377 E0.01994
G1 X104.581 Y54.1 E0.01994
G1 X104.994 Y53.882 E0.01994
G1 X105.464 Y53.717 E0.02122
G1 X140.428 Y44.349 E1.54498
G1 X140.917 Y44.256 E0.02122
G1 X141.384 Y44.239 E0.01994
G1 X141.556 Y44.258 E0.00741
; acceleration to travel
M204 S10000
G1 X155.759 Y220.883 F48000
; decel to extrusion
M204 S2000
G1 X158.6 Y256.208
; end travel
; custom gcode: feature_gcode
; External perimeter
;ExternalPerimeter
SET_VELOCITY_LIMIT ACCEL=1000 ACCEL_TO_DECEL=1000 SQUARE_CORNER_VELOCITY=8

; Perimeter
; custom gcode end: feature_gcode

;TYPE:External perimeter
G1 F3600
G1 X158.069 Y256.149 E0.0228
G1 X157.553 Y256.01 E0.0228
G1 X157.063 Y255.797 E0.0228
G1 X156.611 Y255.513 E0.0228
G1 X156.196 Y255.156 E0.02336
G1 X44.844 Y143.804 E6.72123
G1 X44.487 Y143.389 E0.02336
G1 X44.203 Y142.937 E0.0228
G1 X43.99 Y142.447 E0.0228
G1 X43.851 Y141.931 E0.0228
G1 X43.792 Y141.4 E0.0228
G1 X43.812 Y140.867 E0.0228
G1 X43.913 Y140.329 E0.02336
G1 X53.291 Y105.332 E1.5464
G1 X53.471 Y104.815 E0.02336
G1 X53.721 Y104.343 E0.0228
G1 X54.038 Y103.913 E0.0228
G1 X54.416 Y103.536 E0.0228
G1 X54.846 Y103.218 E0.0228
G1 X55.318 Y102.969 E0.0228
G1 X55.835 Y102.788 E0.02336
G1 X90.857 Y93.404 E1.54755
G1 X91.38 Y93.219 E0.02365
G1 X91.879 Y92.947 E0.02424
G1 X92.325 Y92.604 E0.02403
G1 X92.604 Y92.325 E0.01685
G1 X92.945 Y91.882 E0.02383
G1 X93.041 Y91.715 E0.00824
G1 X93.219 Y91.378 E0.01628
G1 X93.404 Y90.857 E0.02356
G1 X102.788 Y55.835 E1.54755
G1 X102.969 Y55.318 E0.02336
G1 X103.218 Y54.846 E0.0228
G1 X103.536 Y54.416 E0.0228
G1 X103.913 Y54.038 E0.0228
G1 X104.343 Y53.721 E0.0228
G1 X104.815 Y53.471 E0.0228
G1 X105.332 Y53.291 E0.02336
G1 X140.329 Y43.913 E1.5464
G1 X140.867 Y43.812 E0.02336
G1 X141.4 Y43.792 E0.0228
G1 X141.666 Y43.821 E0.0114
G1 X141.931 Y43.851 E0.0114
G1 X142.447 Y43.99 E0.0228
G1 X142.937 Y44.203 E0.0228
G1 X143.389 Y44.487 E0.0228
G1 X143.804 Y44.844 E0.02336
G1 X255.156 Y156.196 E6.72123
G1 X255.513 Y156.611 E0.02336
G1 X255.797 Y157.063 E0.0228
G1 X256.01 Y157.553 E0.0228
G1 X256.149 Y158.069 E0.0228
G1 X256.208 Y158.6 E0.0228
G1 X256.189 Y159.133 E0.0228
G1 X256.087 Y159.671 E0.02336
G1 X246.709 Y194.668 E1.5464
G1 X246.529 Y195.185 E0.02336
G1 X246.279 Y195.657 E0.0228
G1 X245.962 Y196.087 E0.0228
G1 X245.584 Y196.464 E0.0228
G1 X245.154 Y196.782 E0.0228
G1 X244.682 Y197.031 E0.0228
G1 X244.165 Y197.212 E0.02336
G1 X209.143 Y206.596 E1.54755
G1 X208.622 Y206.781 E0.02356
G1 X208.285 Y206.959 E0.01628
G1 X208.118 Y207.055 E0.00824
G1 X207.675 Y207.396 E0.02383
G1 X207.396 Y207.675 E0.01685
G1 X207.053 Y208.121 E0.02403
G1 X206.781 Y208.62 E0.02424
G1 X206.596 Y209.143 E0.02365
G1 X197.212 Y244.165 E1.54755
G1 X197.031 Y244.682 E0.02336
G1 X196.782 Y245.154 E0.0228
G1 X196.464 Y245.584 E0.0228
G1 X196.087 Y245.962 E0.0228
G1 X195.657 Y246.279 E0.0228
G1 X195.185 Y246.529 E0.0228
G1 X194.668 Y246.709 E0.02336
G1 X159.671 Y256.087 E1.5464
G1 X159.133 Y256.189 E0.02336
G1 X158.659 Y256.206 E0.02024
;WIPE_START
M204 S10000
G1 X158.421 Y255.85 F48000
;WIPE_END
; acceleration to travel
G1 X143.207 Y80.492
; decel to extrusion
M204 S2000
G1 X140.17 Y45.481
; end travel
; custom gcode: feature_gcode
; External perimeter
;SolidInfill
SET_VELOCITY_LIMIT ACCEL=4000 ACCEL_TO_DECEL=4000 SQUARE_CORNER_VELOCITY=8

; Bridge infill
; custom gcode end: feature_gcode

;TYPE:Solid infill
;WIDTH:0.500232
G1 F3000
G1 X142.182 Y45.481 E0.08591
G1 X142.804 Y45.927 F48000
G1 F3000
G1 X138.504 Y45.927 E0.1836
G1 X136.838 Y46.373 F48000
G1 F3000
G1 X143.25 Y46.373 E0.27379
G1 X143.696 Y46.82 F48000
G1 F3000
G1 X135.172 Y46.82 E0.36398
G1 X133.507 Y47.266 F48000
G1 F3000
G1 X144.143 Y47.266 E0.45417
G1 X144.589 Y47.713 F48000
G1 F3000
G1 X131.841 Y47.713 E0.54436
G1 X130.175 Y48.159 F48000
G1 F3000
G1 X145.035 Y48.159 E0.63456
G1 X145.482 Y48.605 F48000
G1 F3000
G1 X128.509 Y48.605 E0.72475
G1 X126.843 Y49.052 F48000
G1 F3000
G1 X145.928 Y49.052 E0.81494
G1 X146.374 Y49.498 F48000
G1 F3000
G1 X125.178 Y49.498 E0.90513
G1 X123.512 Y49.944 F48000
G1 F3000
G1 X146.821 Y49.944 E0.99532
G1 X147.267 Y50.391 F48000
G1 F3000
G1 X121.846 Y50.391 E1.08551
G1 X120.18 Y50.837 F48000
G1 F3000
G1 X147.714 Y50.837 E1.1757
G1 X148.16 Y51.283 F48000
G1 F3000
G1 X118.514 Y51.283 E1.26589
G1 X116.849 Y51.73 F48000
G1 F3000
G1 X148.606 Y51.73 E1.35608
M73 P1 R78
G1 X149.053 Y52.176 F48000
G1 F3000
G1 X115.183 Y52.176 E1.44627
G1 X113.517 Y52.622 F48000
G1 F3000
G1 X149.499 Y52.622 E1.53646
G1 X149.945 Y53.069 F48000
G1 F3000
G1 X111.851 Y53.069 E1.62665
G1 X110.185 Y53.515 F48000
G1 F3000
G1 X150.392 Y53.515 E1.71684
G1 X150.838 Y53.961 F48000
G1 F3000
G1 X108.52 Y53.961 E1.80703
G1 X106.854 Y54.408 F48000
G1 F3000
G1 X151.284 Y54.408 E1.89723
G1 X151.731 Y54.854 F48000
G1 F3000
G1 X105.362 Y54.854 E1.97998
G1 X104.756 Y55.3 F48000
G1 F3000
G1 X152.177 Y55.3 E2.02494
G1 X152.623 Y55.747 F48000
G1 F3000
G1 X104.408 Y55.747 E2.05883
G1 X104.223 Y56.193 F48000
G1 F3000
G1 X153.07 Y56.193 E2.0858
G1 X153.516 Y56.64 F48000
G1 F3000
G1 X104.097 Y56.64 E2.11023
G1 X103.978 Y57.086 F48000
G1 F3000
G1 X153.962 Y57.086 E2.1344
G1 X154.409 Y57.532 F48000
G1 F3000
G1 X103.858 Y57.532 E2.15856
G1 X103.739 Y57.979 F48000
G1 F3000
G1 X154.855 Y57.979 E2.18273
G1 X155.301 Y58.425 F48000
G1 F3000
