
; ### Ellis' Pressure Advance / Linear Advance Calibration Tool ###
;
; Original Marlin linear advance calibration tool by Sineos [https://github.com/Sineos]
; Heavily modified/rewritten by Andrew Ellis [https://github.com/AndrewEllis93]
;
; -------------------------------------------
; Generated: Tue Apr 23 2024 00:04:18 GMT-0700 (Pacific Daylight Time)
; -------------------------------------------
;
; Advanced Mode: false
;
; Printer:
;  - Firmware: klipper
;  - Bed Shape: Rect
;  - Bed Size X: 300 mm
;  - Bed Size Y: 300 mm
;  - Origin Bed Center: false
;  - Travel Speed: 120 mm/s
;  - Nozzle Diameter: 0.4 mm
;  - Filament Diameter: 1.75 mm
;  - Extrusion Multiplier: 0.91
;
; Retraction / Z Hop:
;  - Retraction Distance: 0.8 mm
;  - Retract Speed: 60 mm/s
;  - Unretract Speed: 60 mm/s
;  - Z Hop Enable: true
;  - Z Hop Height: 0.1mm
;
; First Layer Settings:
;  - First Layer Height: 0.25 mm
;  - First Layer Printing Speed: 30 mm/s
;  - First Layer Fan Speed: 0%
;  - Anchor Option: anchor_frame
;
; Print Settings:
;  - Layer Height: 0.2 mm
;  - Print Speed: 150 mm/s
;  - Acceleration: 400 mm/s^2
;  - Fan Speed: 100%
;
; Pressure Advance Stepping:
;  - PA Start Value: 0
;  - PA End Value: 0.02
;  - PA Increment: 0.0005
;
; Start / End G-code:
;  - Hotend Temp: 260C
;  - Bed Temp: 110C
;  - Don't Add G28: false
;  - Don't Add Heating G-Codes: false
;  - Entered Start G-code: 
;       G28 ; Home all axes
;       M190 S110 ; Set & wait for bed temp
;       M109 S260 ; Set & wait for hotend temp
;       PRINT_START ; Start macro
;       ; START_PRINT ; Start macro (alternate / official start macro name)
;  - Entered End G-code: 
;       PRINT_END ; End macro. Change name to match yours
;
; Calculated Values:
;  - Print Size X: 171.15 mm

; external perimeters extrusion width = 0.45mm
; perimeters extrusion width = 0.45mm
; infill extrusion width = 0.45mm
; solid infill extrusion width = 0.45mm
; top infill extrusion width = 0.45mm
; first layer extrusion width = 0.45mm

; object:{"name":"Voron_Design_Cube_v7","id":"Voron_Design_Cube_v7 id:0 copy 0","object_center":[150.000000,150.000000,0.000000],"boundingbox_center":[150.000000,150.000000,2.500000],"boundingbox_size":[160.000000,160.000000,5.000000]}
EXCLUDE_OBJECT_DEFINE NAME=Voron_Design_Cube_v7_id_0_copy_0 CENTER=150.000000,150.000000 POLYGON=[[70.000000,70.000000],[230.000000,70.000000],[230.000000,230.000000],[70.000000,230.000000],[70.000000,70.000000]]
; plater:{"center":[150.000000,150.000000,0.000000],"boundingbox_center":[150.000000,150.000000,2.500000],"boundingbox_size":[160.000000,160.000000,5.000000]}

M73 P0 R146
;TYPE:Custom
; custom gcode: start_gcode
M190 S0
M104 S0
PRINT_START EXTRUDER_TEMP=260 BED_TEMP=110 FILAMENT=ABS SIZE=66.3371_66.3371_233.663_233.663 ENCLOSURE_TEMP=0
; custom gcode end: start_gcode
M107
G21 ; set units to millimeters
G90 ; use absolute coordinates
M83 ; use relative distances for extrusion
;_BEFORE_TOOLCHANGE 0
;_TOOLCHANGE 0
;LAYER_CHANGE
;Z:0.25
;HEIGHT:0.25
G1 E-0.6 F9600
G1 Z0.1 F27000
G1 Z0.25
; custom gcode: layer_gcode
;DISPLAY_PROGRESS TOTAL_LAYERS=25 CURRENT_LAYER=0
; custom gcode end: layer_gcode
;  Begin printing
;
M106 S0 ; Set fan speed
SET_VELOCITY_LIMIT ACCEL=400 ; Set printing acceleration
G1 E-0.8 F3600 ; Retract
G0 Z5 F7200 ; Z raise
G0 X64.4249 Y121.5068 F7200 ; Move to start position
G0 Z0.25 F7200 ; Move to start layer height
G1 E0.8 F3600 ; Un-retract
SET_PRESSURE_ADVANCE ADVANCE=0 ; Set pressure advance to start value
M117 PA 0
G1 X64.4249 Y163.9332 E2.0319 F1800 ; Draw perimeter (up)
G1 X235.5751 Y163.9332 E8.19677 F1800 ; Draw perimeter (right)
G1 X235.5751 Y121.5068 E2.0319 F1800 ; Draw perimeter (down)
G1 X64.4249 Y121.5068 E8.19677 F1800 ; Draw perimeter (left)
G0 X64.9313 Y122.0131 F7200 ; Step inwards to print next perimeter
G1 X64.9313 Y163.4269 E1.9834 F1800 ; Draw perimeter (up)
G1 X235.0687 Y163.4269 E8.14827 F1800 ; Draw perimeter (right)
G1 X235.0687 Y122.0131 E1.9834 F1800 ; Draw perimeter (down)
G1 X64.9313 Y122.0131 E8.14827 F1800 ; Draw perimeter (left)
G0 X65.4376 Y122.5195 F7200 ; Step inwards to print next perimeter
G1 X65.4376 Y162.9205 E1.9349 F1800 ; Draw perimeter (up)
G1 X234.5624 Y162.9205 E8.09977 F1800 ; Draw perimeter (right)
G1 X234.5624 Y122.5195 E1.9349 F1800 ; Draw perimeter (down)
G1 X65.4376 Y122.5195 E8.09977 F1800 ; Draw perimeter (left)
G0 X65.944 Y123.0258 F7200 ; Step inwards to print next perimeter
G1 X65.944 Y162.4142 E1.8864 F1800 ; Draw perimeter (up)
G1 X234.056 Y162.4142 E8.05127 F1800 ; Draw perimeter (right)
G1 X234.056 Y123.0258 E1.8864 F1800 ; Draw perimeter (down)
G1 X65.944 Y123.0258 E8.05127 F1800 ; Draw perimeter (left)
G1 E-0.8 F3600 ; Retract
G1 Z0.35 F7200 ; Z hop
G0 X64.4249 Y164.4396 F7200 ; Move to box start
G1 Z0.25 F7200 ; Z hop return
G1 E0.8 F3600 ; Un-retract
G1 X64.4249 Y178.9459 E0.69474 F1800 ; Draw perimeter (up)
G1 X215.1129 Y178.9459 E7.2168 F1800 ; Draw perimeter (right)
G1 X215.1129 Y164.4396 E0.69474 F1800 ; Draw perimeter (down)
G1 X64.4249 Y164.4396 E7.2168 F1800 ; Draw perimeter (left)
G0 X64.9313 Y164.9459 F7200 ; Step inwards to print next perimeter
G1 X64.9313 Y178.4396 E0.64624 F1800 ; Draw perimeter (up)
G1 X214.6066 Y178.4396 E7.16829 F1800 ; Draw perimeter (right)
G1 X214.6066 Y164.9459 E0.64624 F1800 ; Draw perimeter (down)
G1 X64.9313 Y164.9459 E7.16829 F1800 ; Draw perimeter (left)
G0 X65.4376 Y165.4523 F7200 ; Step inwards to print next perimeter
G1 X65.4376 Y177.9332 E0.59774 F1800 ; Draw perimeter (up)
G1 X214.1002 Y177.9332 E7.11979 F1800 ; Draw perimeter (right)
G1 X214.1002 Y165.4523 E0.59774 F1800 ; Draw perimeter (down)
G1 X65.4376 Y165.4523 E7.11979 F1800 ; Draw perimeter (left)
G0 X65.944 Y165.9586 F7200 ; Step inwards to print next perimeter
G1 X65.944 Y177.4269 E0.54924 F1800 ; Draw perimeter (up)
G1 X213.5939 Y177.4269 E7.07129 F1800 ; Draw perimeter (right)
G1 X213.5939 Y165.9586 E0.54924 F1800 ; Draw perimeter (down)
G1 X65.944 Y165.9586 E7.07129 F1800 ; Draw perimeter (left)
G0 X66.3173 Y166.3319 F7200 ; Move to fill start
G0 X67.0334 Y166.3319 F7200 ; Move
G1 X66.3173 Y167.048 E0.0485 F1800 ; Fill
G0 X66.3173 Y167.7641 F7200 ; Move
G1 X67.7495 Y166.3319 E0.097 F1800 ; Fill
G0 X68.4656 Y166.3319 F7200 ; Move
G1 X66.3173 Y168.4802 E0.1455 F1800 ; Fill
G0 X66.3173 Y169.1963 F7200 ; Move
G1 X69.1817 Y166.3319 E0.194 F1800 ; Fill
G0 X69.8978 Y166.3319 F7200 ; Move
G1 X66.3173 Y169.9124 E0.2425 F1800 ; Fill
G0 X66.3173 Y170.6285 F7200 ; Move
G1 X70.6138 Y166.3319 E0.291 F1800 ; Fill
G0 X71.3299 Y166.3319 F7200 ; Move
G1 X66.3173 Y171.3445 E0.3395 F1800 ; Fill
G0 X66.3173 Y172.0606 F7200 ; Move
G1 X72.046 Y166.3319 E0.388 F1800 ; Fill
G0 X72.7621 Y166.3319 F7200 ; Move
G1 X66.3173 Y172.7767 E0.4365 F1800 ; Fill
G0 X66.3173 Y173.4928 F7200 ; Move
G1 X73.4782 Y166.3319 E0.48501 F1800 ; Fill
G0 X74.1943 Y166.3319 F7200 ; Move
G1 X66.3173 Y174.2089 E0.53351 F1800 ; Fill
G0 X66.3173 Y174.925 F7200 ; Move
G1 X74.9104 Y166.3319 E0.58201 F1800 ; Fill
G0 X75.6265 Y166.3319 F7200 ; Move
G1 X66.3173 Y175.6411 E0.63051 F1800 ; Fill
G0 X66.3173 Y176.3571 F7200 ; Move
G1 X76.3425 Y166.3319 E0.67901 F1800 ; Fill
G0 X77.0586 Y166.3319 F7200 ; Move
G1 X66.337 Y177.0535 E0.72617 F1800 ; Fill
G0 X67.0531 Y177.0535 F7200 ; Move
G1 X77.7747 Y166.3319 E0.72617 F1800 ; Fill
G0 X78.4908 Y166.3319 F7200 ; Move
G1 X67.7692 Y177.0535 E0.72617 F1800 ; Fill
G0 X68.4853 Y177.0535 F7200 ; Move
G1 X79.2069 Y166.3319 E0.72617 F1800 ; Fill
G0 X79.923 Y166.3319 F7200 ; Move
G1 X69.2014 Y177.0535 E0.72617 F1800 ; Fill
G0 X69.9175 Y177.0535 F7200 ; Move
G1 X80.6391 Y166.3319 E0.72617 F1800 ; Fill
G0 X81.3551 Y166.3319 F7200 ; Move
G1 X70.6336 Y177.0535 E0.72617 F1800 ; Fill
G0 X71.3496 Y177.0535 F7200 ; Move
G1 X82.0712 Y166.3319 E0.72617 F1800 ; Fill
G0 X82.7873 Y166.3319 F7200 ; Move
G1 X72.0657 Y177.0535 E0.72617 F1800 ; Fill
G0 X72.7818 Y177.0535 F7200 ; Move
G1 X83.5034 Y166.3319 E0.72617 F1800 ; Fill
G0 X84.2195 Y166.3319 F7200 ; Move
G1 X73.4979 Y177.0535 E0.72617 F1800 ; Fill
G0 X74.214 Y177.0535 F7200 ; Move
G1 X84.9356 Y166.3319 E0.72617 F1800 ; Fill
G0 X85.6517 Y166.3319 F7200 ; Move
G1 X74.9301 Y177.0535 E0.72617 F1800 ; Fill
G0 X75.6462 Y177.0535 F7200 ; Move
G1 X86.3678 Y166.3319 E0.72617 F1800 ; Fill
G0 X87.0838 Y166.3319 F7200 ; Move
G1 X76.3623 Y177.0535 E0.72617 F1800 ; Fill
G0 X77.0783 Y177.0535 F7200 ; Move
G1 X87.7999 Y166.3319 E0.72617 F1800 ; Fill
G0 X88.516 Y166.3319 F7200 ; Move
G1 X77.7944 Y177.0535 E0.72617 F1800 ; Fill
G0 X78.5105 Y177.0535 F7200 ; Move
G1 X89.2321 Y166.3319 E0.72617 F1800 ; Fill
G0 X89.9482 Y166.3319 F7200 ; Move
G1 X79.2266 Y177.0535 E0.72617 F1800 ; Fill
G0 X79.9427 Y177.0535 F7200 ; Move
G1 X90.6643 Y166.3319 E0.72617 F1800 ; Fill
G0 X91.3804 Y166.3319 F7200 ; Move
G1 X80.6588 Y177.0535 E0.72617 F1800 ; Fill
G0 X81.3749 Y177.0535 F7200 ; Move
G1 X92.0964 Y166.3319 E0.72617 F1800 ; Fill
G0 X92.8125 Y166.3319 F7200 ; Move
G1 X82.0909 Y177.0535 E0.72617 F1800 ; Fill
G0 X82.807 Y177.0535 F7200 ; Move
G1 X93.5286 Y166.3319 E0.72617 F1800 ; Fill
G0 X94.2447 Y166.3319 F7200 ; Move
G1 X83.5231 Y177.0535 E0.72617 F1800 ; Fill
G0 X84.2392 Y177.0535 F7200 ; Move
G1 X94.9608 Y166.3319 E0.72617 F1800 ; Fill
G0 X95.6769 Y166.3319 F7200 ; Move
G1 X84.9553 Y177.0535 E0.72617 F1800 ; Fill
G0 X85.6714 Y177.0535 F7200 ; Move
G1 X96.393 Y166.3319 E0.72617 F1800 ; Fill
G0 X97.109 Y166.3319 F7200 ; Move
G1 X86.3875 Y177.0535 E0.72617 F1800 ; Fill
G0 X87.1035 Y177.0535 F7200 ; Move
G1 X97.8251 Y166.3319 E0.72617 F1800 ; Fill
G0 X98.5412 Y166.3319 F7200 ; Move
G1 X87.8196 Y177.0535 E0.72617 F1800 ; Fill
G0 X88.5357 Y177.0535 F7200 ; Move
G1 X99.2573 Y166.3319 E0.72617 F1800 ; Fill
G0 X99.9734 Y166.3319 F7200 ; Move
G1 X89.2518 Y177.0535 E0.72617 F1800 ; Fill
G0 X89.9679 Y177.0535 F7200 ; Move
G1 X100.6895 Y166.3319 E0.72617 F1800 ; Fill
G0 X101.4056 Y166.3319 F7200 ; Move
G1 X90.684 Y177.0535 E0.72617 F1800 ; Fill
G0 X91.4001 Y177.0535 F7200 ; Move
G1 X102.1217 Y166.3319 E0.72617 F1800 ; Fill
G0 X102.8377 Y166.3319 F7200 ; Move
G1 X92.1162 Y177.0535 E0.72617 F1800 ; Fill
G0 X92.8322 Y177.0535 F7200 ; Move
G1 X103.5538 Y166.3319 E0.72617 F1800 ; Fill
G0 X104.2699 Y166.3319 F7200 ; Move
G1 X93.5483 Y177.0535 E0.72617 F1800 ; Fill
G0 X94.2644 Y177.0535 F7200 ; Move
G1 X104.986 Y166.3319 E0.72617 F1800 ; Fill
G0 X105.7021 Y166.3319 F7200 ; Move
G1 X94.9805 Y177.0535 E0.72617 F1800 ; Fill
G0 X95.6966 Y177.0535 F7200 ; Move
G1 X106.4182 Y166.3319 E0.72617 F1800 ; Fill
G0 X107.1343 Y166.3319 F7200 ; Move
G1 X96.4127 Y177.0535 E0.72617 F1800 ; Fill
G0 X97.1288 Y177.0535 F7200 ; Move
G1 X107.8503 Y166.3319 E0.72617 F1800 ; Fill
G0 X108.5664 Y166.3319 F7200 ; Move
G1 X97.8448 Y177.0535 E0.72617 F1800 ; Fill
G0 X98.5609 Y177.0535 F7200 ; Move
G1 X109.2825 Y166.3319 E0.72617 F1800 ; Fill
G0 X109.9986 Y166.3319 F7200 ; Move
G1 X99.277 Y177.0535 E0.72617 F1800 ; Fill
G0 X99.9931 Y177.0535 F7200 ; Move
G1 X110.7147 Y166.3319 E0.72617 F1800 ; Fill
G0 X111.4308 Y166.3319 F7200 ; Move
G1 X100.7092 Y177.0535 E0.72617 F1800 ; Fill
G0 X101.4253 Y177.0535 F7200 ; Move
G1 X112.1469 Y166.3319 E0.72617 F1800 ; Fill
G0 X112.8629 Y166.3319 F7200 ; Move
G1 X102.1414 Y177.0535 E0.72617 F1800 ; Fill
G0 X102.8574 Y177.0535 F7200 ; Move
G1 X113.579 Y166.3319 E0.72617 F1800 ; Fill
G0 X114.2951 Y166.3319 F7200 ; Move
G1 X103.5735 Y177.0535 E0.72617 F1800 ; Fill
G0 X104.2896 Y177.0535 F7200 ; Move
G1 X115.0112 Y166.3319 E0.72617 F1800 ; Fill
G0 X115.7273 Y166.3319 F7200 ; Move
G1 X105.0057 Y177.0535 E0.72617 F1800 ; Fill
G0 X105.7218 Y177.0535 F7200 ; Move
G1 X116.4434 Y166.3319 E0.72617 F1800 ; Fill
G0 X117.1595 Y166.3319 F7200 ; Move
G1 X106.4379 Y177.0535 E0.72617 F1800 ; Fill
G0 X107.154 Y177.0535 F7200 ; Move
G1 X117.8756 Y166.3319 E0.72617 F1800 ; Fill
G0 X118.5916 Y166.3319 F7200 ; Move
G1 X107.8701 Y177.0535 E0.72617 F1800 ; Fill
G0 X108.5861 Y177.0535 F7200 ; Move
G1 X119.3077 Y166.3319 E0.72617 F1800 ; Fill
G0 X120.0238 Y166.3319 F7200 ; Move
G1 X109.3022 Y177.0535 E0.72617 F1800 ; Fill
G0 X110.0183 Y177.0535 F7200 ; Move
G1 X120.7399 Y166.3319 E0.72617 F1800 ; Fill
G0 X121.456 Y166.3319 F7200 ; Move
G1 X110.7344 Y177.0535 E0.72617 F1800 ; Fill
G0 X111.4505 Y177.0535 F7200 ; Move
G1 X122.1721 Y166.3319 E0.72617 F1800 ; Fill
G0 X122.8882 Y166.3319 F7200 ; Move
G1 X112.1666 Y177.0535 E0.72617 F1800 ; Fill
G0 X112.8827 Y177.0535 F7200 ; Move
G1 X123.6042 Y166.3319 E0.72617 F1800 ; Fill
G0 X124.3203 Y166.3319 F7200 ; Move
G1 X113.5987 Y177.0535 E0.72617 F1800 ; Fill
G0 X114.3148 Y177.0535 F7200 ; Move
G1 X125.0364 Y166.3319 E0.72617 F1800 ; Fill
G0 X125.7525 Y166.3319 F7200 ; Move
G1 X115.0309 Y177.0535 E0.72617 F1800 ; Fill
G0 X115.747 Y177.0535 F7200 ; Move
G1 X126.4686 Y166.3319 E0.72617 F1800 ; Fill
G0 X127.1847 Y166.3319 F7200 ; Move
G1 X116.4631 Y177.0535 E0.72617 F1800 ; Fill
G0 X117.1792 Y177.0535 F7200 ; Move
G1 X127.9008 Y166.3319 E0.72617 F1800 ; Fill
G0 X128.6168 Y166.3319 F7200 ; Move
G1 X117.8953 Y177.0535 E0.72617 F1800 ; Fill
G0 X118.6113 Y177.0535 F7200 ; Move
G1 X129.3329 Y166.3319 E0.72617 F1800 ; Fill
G0 X130.049 Y166.3319 F7200 ; Move
G1 X119.3274 Y177.0535 E0.72617 F1800 ; Fill
G0 X120.0435 Y177.0535 F7200 ; Move
G1 X130.7651 Y166.3319 E0.72617 F1800 ; Fill
G0 X131.4812 Y166.3319 F7200 ; Move
G1 X120.7596 Y177.0535 E0.72617 F1800 ; Fill
G0 X121.4757 Y177.0535 F7200 ; Move
G1 X132.1973 Y166.3319 E0.72617 F1800 ; Fill
G0 X132.9134 Y166.3319 F7200 ; Move
G1 X122.1918 Y177.0535 E0.72617 F1800 ; Fill
G0 X122.9079 Y177.0535 F7200 ; Move
G1 X133.6295 Y166.3319 E0.72617 F1800 ; Fill
G0 X134.3455 Y166.3319 F7200 ; Move
G1 X123.624 Y177.0535 E0.72617 F1800 ; Fill
G0 X124.34 Y177.0535 F7200 ; Move
G1 X135.0616 Y166.3319 E0.72617 F1800 ; Fill
G0 X135.7777 Y166.3319 F7200 ; Move
G1 X125.0561 Y177.0535 E0.72617 F1800 ; Fill
G0 X125.7722 Y177.0535 F7200 ; Move
G1 X136.4938 Y166.3319 E0.72617 F1800 ; Fill
G0 X137.2099 Y166.3319 F7200 ; Move
G1 X126.4883 Y177.0535 E0.72617 F1800 ; Fill
G0 X127.2044 Y177.0535 F7200 ; Move
G1 X137.926 Y166.3319 E0.72617 F1800 ; Fill
G0 X138.6421 Y166.3319 F7200 ; Move
G1 X127.9205 Y177.0535 E0.72617 F1800 ; Fill
G0 X128.6366 Y177.0535 F7200 ; Move
G1 X139.3581 Y166.3319 E0.72617 F1800 ; Fill
G0 X140.0742 Y166.3319 F7200 ; Move
G1 X129.3526 Y177.0535 E0.72617 F1800 ; Fill
G0 X130.0687 Y177.0535 F7200 ; Move
G1 X140.7903 Y166.3319 E0.72617 F1800 ; Fill
G0 X141.5064 Y166.3319 F7200 ; Move
G1 X130.7848 Y177.0535 E0.72617 F1800 ; Fill
G0 X131.5009 Y177.0535 F7200 ; Move
G1 X142.2225 Y166.3319 E0.72617 F1800 ; Fill
G0 X142.9386 Y166.3319 F7200 ; Move
G1 X132.217 Y177.0535 E0.72617 F1800 ; Fill
G0 X132.9331 Y177.0535 F7200 ; Move
G1 X143.6547 Y166.3319 E0.72617 F1800 ; Fill
G0 X144.3707 Y166.3319 F7200 ; Move
G1 X133.6492 Y177.0535 E0.72617 F1800 ; Fill
G0 X134.3652 Y177.0535 F7200 ; Move
G1 X145.0868 Y166.3319 E0.72617 F1800 ; Fill
G0 X145.8029 Y166.3319 F7200 ; Move
G1 X135.0813 Y177.0535 E0.72617 F1800 ; Fill
G0 X135.7974 Y177.0535 F7200 ; Move
G1 X146.519 Y166.3319 E0.72617 F1800 ; Fill
G0 X147.2351 Y166.3319 F7200 ; Move
G1 X136.5135 Y177.0535 E0.72617 F1800 ; Fill
G0 X137.2296 Y177.0535 F7200 ; Move
G1 X147.9512 Y166.3319 E0.72617 F1800 ; Fill
G0 X148.6673 Y166.3319 F7200 ; Move
G1 X137.9457 Y177.0535 E0.72617 F1800 ; Fill
G0 X138.6618 Y177.0535 F7200 ; Move
G1 X149.3834 Y166.3319 E0.72617 F1800 ; Fill
G0 X150.0994 Y166.3319 F7200 ; Move
G1 X139.3779 Y177.0535 E0.72617 F1800 ; Fill
G0 X140.0939 Y177.0535 F7200 ; Move
G1 X150.8155 Y166.3319 E0.72617 F1800 ; Fill
G0 X151.5316 Y166.3319 F7200 ; Move
G1 X140.81 Y177.0535 E0.72617 F1800 ; Fill
G0 X141.5261 Y177.0535 F7200 ; Move
G1 X152.2477 Y166.3319 E0.72617 F1800 ; Fill
G0 X152.9638 Y166.3319 F7200 ; Move
G1 X142.2422 Y177.0535 E0.72617 F1800 ; Fill
G0 X142.9583 Y177.0535 F7200 ; Move
G1 X153.6799 Y166.3319 E0.72617 F1800 ; Fill
G0 X154.396 Y166.3319 F7200 ; Move
G1 X143.6744 Y177.0535 E0.72617 F1800 ; Fill
G0 X144.3905 Y177.0535 F7200 ; Move
G1 X155.112 Y166.3319 E0.72617 F1800 ; Fill
G0 X155.8281 Y166.3319 F7200 ; Move
G1 X145.1065 Y177.0535 E0.72617 F1800 ; Fill
G0 X145.8226 Y177.0535 F7200 ; Move
G1 X156.5442 Y166.3319 E0.72617 F1800 ; Fill
G0 X157.2603 Y166.3319 F7200 ; Move
G1 X146.5387 Y177.0535 E0.72617 F1800 ; Fill
G0 X147.2548 Y177.0535 F7200 ; Move
G1 X157.9764 Y166.3319 E0.72617 F1800 ; Fill
G0 X158.6925 Y166.3319 F7200 ; Move
G1 X147.9709 Y177.0535 E0.72617 F1800 ; Fill
G0 X148.687 Y177.0535 F7200 ; Move
G1 X159.4086 Y166.3319 E0.72617 F1800 ; Fill
G0 X160.1246 Y166.3319 F7200 ; Move
G1 X149.4031 Y177.0535 E0.72617 F1800 ; Fill
G0 X150.1191 Y177.0535 F7200 ; Move
G1 X160.8407 Y166.3319 E0.72617 F1800 ; Fill
G0 X161.5568 Y166.3319 F7200 ; Move
G1 X150.8352 Y177.0535 E0.72617 F1800 ; Fill
G0 X151.5513 Y177.0535 F7200 ; Move
G1 X162.2729 Y166.3319 E0.72617 F1800 ; Fill
G0 X162.989 Y166.3319 F7200 ; Move
G1 X152.2674 Y177.0535 E0.72617 F1800 ; Fill
G0 X152.9835 Y177.0535 F7200 ; Move
G1 X163.7051 Y166.3319 E0.72617 F1800 ; Fill
G0 X164.4212 Y166.3319 F7200 ; Move
G1 X153.6996 Y177.0535 E0.72617 F1800 ; Fill
G0 X154.4157 Y177.0535 F7200 ; Move
G1 X165.1373 Y166.3319 E0.72617 F1800 ; Fill
G0 X165.8533 Y166.3319 F7200 ; Move
G1 X155.1318 Y177.0535 E0.72617 F1800 ; Fill
G0 X155.8478 Y177.0535 F7200 ; Move
G1 X166.5694 Y166.3319 E0.72617 F1800 ; Fill
G0 X167.2855 Y166.3319 F7200 ; Move
G1 X156.5639 Y177.0535 E0.72617 F1800 ; Fill
G0 X157.28 Y177.0535 F7200 ; Move
G1 X168.0016 Y166.3319 E0.72617 F1800 ; Fill
G0 X168.7177 Y166.3319 F7200 ; Move
G1 X157.9961 Y177.0535 E0.72617 F1800 ; Fill
G0 X158.7122 Y177.0535 F7200 ; Move
G1 X169.4338 Y166.3319 E0.72617 F1800 ; Fill
G0 X170.1499 Y166.3319 F7200 ; Move
G1 X159.4283 Y177.0535 E0.72617 F1800 ; Fill
G0 X160.1444 Y177.0535 F7200 ; Move
G1 X170.8659 Y166.3319 E0.72617 F1800 ; Fill
G0 X171.582 Y166.3319 F7200 ; Move
G1 X160.8604 Y177.0535 E0.72617 F1800 ; Fill
G0 X161.5765 Y177.0535 F7200 ; Move
G1 X172.2981 Y166.3319 E0.72617 F1800 ; Fill
G0 X173.0142 Y166.3319 F7200 ; Move
G1 X162.2926 Y177.0535 E0.72617 F1800 ; Fill
G0 X163.0087 Y177.0535 F7200 ; Move
G1 X173.7303 Y166.3319 E0.72617 F1800 ; Fill
G0 X174.4464 Y166.3319 F7200 ; Move
G1 X163.7248 Y177.0535 E0.72617 F1800 ; Fill
G0 X164.4409 Y177.0535 F7200 ; Move
G1 X175.1625 Y166.3319 E0.72617 F1800 ; Fill
G0 X175.8785 Y166.3319 F7200 ; Move
G1 X165.157 Y177.0535 E0.72617 F1800 ; Fill
G0 X165.873 Y177.0535 F7200 ; Move
G1 X176.5946 Y166.3319 E0.72617 F1800 ; Fill
G0 X177.3107 Y166.3319 F7200 ; Move
G1 X166.5891 Y177.0535 E0.72617 F1800 ; Fill
G0 X167.3052 Y177.0535 F7200 ; Move
G1 X178.0268 Y166.3319 E0.72617 F1800 ; Fill
G0 X178.7429 Y166.3319 F7200 ; Move
G1 X168.0213 Y177.0535 E0.72617 F1800 ; Fill
G0 X168.7374 Y177.0535 F7200 ; Move
G1 X179.459 Y166.3319 E0.72617 F1800 ; Fill
G0 X180.1751 Y166.3319 F7200 ; Move
G1 X169.4535 Y177.0535 E0.72617 F1800 ; Fill
G0 X170.1696 Y177.0535 F7200 ; Move
G1 X180.8912 Y166.3319 E0.72617 F1800 ; Fill
G0 X181.6072 Y166.3319 F7200 ; Move
G1 X170.8857 Y177.0535 E0.72617 F1800 ; Fill
G0 X171.6017 Y177.0535 F7200 ; Move
G1 X182.3233 Y166.3319 E0.72617 F1800 ; Fill
G0 X183.0394 Y166.3319 F7200 ; Move
G1 X172.3178 Y177.0535 E0.72617 F1800 ; Fill
G0 X173.0339 Y177.0535 F7200 ; Move
G1 X183.7555 Y166.3319 E0.72617 F1800 ; Fill
G0 X184.4716 Y166.3319 F7200 ; Move
G1 X173.75 Y177.0535 E0.72617 F1800 ; Fill
G0 X174.4661 Y177.0535 F7200 ; Move
G1 X185.1877 Y166.3319 E0.72617 F1800 ; Fill
G0 X185.9038 Y166.3319 F7200 ; Move
G1 X175.1822 Y177.0535 E0.72617 F1800 ; Fill
G0 X175.8983 Y177.0535 F7200 ; Move
G1 X186.6198 Y166.3319 E0.72617 F1800 ; Fill
G0 X187.3359 Y166.3319 F7200 ; Move
G1 X176.6143 Y177.0535 E0.72617 F1800 ; Fill
G0 X177.3304 Y177.0535 F7200 ; Move
G1 X188.052 Y166.3319 E0.72617 F1800 ; Fill
G0 X188.7681 Y166.3319 F7200 ; Move
G1 X178.0465 Y177.0535 E0.72617 F1800 ; Fill
G0 X178.7626 Y177.0535 F7200 ; Move
G1 X189.4842 Y166.3319 E0.72617 F1800 ; Fill
G0 X190.2003 Y166.3319 F7200 ; Move
G1 X179.4787 Y177.0535 E0.72617 F1800 ; Fill
G0 X180.1948 Y177.0535 F7200 ; Move
G1 X190.9164 Y166.3319 E0.72617 F1800 ; Fill
G0 X191.6324 Y166.3319 F7200 ; Move
G1 X180.9109 Y177.0535 E0.72617 F1800 ; Fill
G0 X181.627 Y177.0535 F7200 ; Move
G1 X192.3485 Y166.3319 E0.72617 F1800 ; Fill
G0 X193.0646 Y166.3319 F7200 ; Move
G1 X182.343 Y177.0535 E0.72617 F1800 ; Fill
G0 X183.0591 Y177.0535 F7200 ; Move
G1 X193.7807 Y166.3319 E0.72617 F1800 ; Fill
G0 X194.4968 Y166.3319 F7200 ; Move
G1 X183.7752 Y177.0535 E0.72617 F1800 ; Fill
G0 X184.4913 Y177.0535 F7200 ; Move
G1 X195.2129 Y166.3319 E0.72617 F1800 ; Fill
G0 X195.929 Y166.3319 F7200 ; Move
G1 X185.2074 Y177.0535 E0.72617 F1800 ; Fill
G0 X185.9235 Y177.0535 F7200 ; Move
G1 X196.6451 Y166.3319 E0.72617 F1800 ; Fill
G0 X197.3611 Y166.3319 F7200 ; Move
G1 X186.6396 Y177.0535 E0.72617 F1800 ; Fill
G0 X187.3556 Y177.0535 F7200 ; Move
G1 X198.0772 Y166.3319 E0.72617 F1800 ; Fill
G0 X198.7933 Y166.3319 F7200 ; Move
G1 X188.0717 Y177.0535 E0.72617 F1800 ; Fill
G0 X188.7878 Y177.0535 F7200 ; Move
G1 X199.5094 Y166.3319 E0.72617 F1800 ; Fill
G0 X200.2255 Y166.3319 F7200 ; Move
G1 X189.5039 Y177.0535 E0.72617 F1800 ; Fill
G0 X190.22 Y177.0535 F7200 ; Move
G1 X200.9416 Y166.3319 E0.72617 F1800 ; Fill
G0 X201.6577 Y166.3319 F7200 ; Move
G1 X190.9361 Y177.0535 E0.72617 F1800 ; Fill
G0 X191.6522 Y177.0535 F7200 ; Move
G1 X202.3737 Y166.3319 E0.72617 F1800 ; Fill
G0 X203.0898 Y166.3319 F7200 ; Move
G1 X192.3682 Y177.0535 E0.72617 F1800 ; Fill
G0 X193.0843 Y177.0535 F7200 ; Move
G1 X203.8059 Y166.3319 E0.72617 F1800 ; Fill
G0 X204.522 Y166.3319 F7200 ; Move
G1 X193.8004 Y177.0535 E0.72617 F1800 ; Fill
G0 X194.5165 Y177.0535 F7200 ; Move
G1 X205.2381 Y166.3319 E0.72617 F1800 ; Fill
G0 X205.9542 Y166.3319 F7200 ; Move
G1 X195.2326 Y177.0535 E0.72617 F1800 ; Fill
G0 X195.9487 Y177.0535 F7200 ; Move
G1 X206.6703 Y166.3319 E0.72617 F1800 ; Fill
G0 X207.3864 Y166.3319 F7200 ; Move
G1 X196.6648 Y177.0535 E0.72617 F1800 ; Fill
G0 X197.3809 Y177.0535 F7200 ; Move
G1 X208.1024 Y166.3319 E0.72617 F1800 ; Fill
G0 X208.8185 Y166.3319 F7200 ; Move
G1 X198.0969 Y177.0535 E0.72617 F1800 ; Fill
G0 X198.813 Y177.0535 F7200 ; Move
G1 X209.5346 Y166.3319 E0.72617 F1800 ; Fill
G0 X210.2507 Y166.3319 F7200 ; Move
G1 X199.5291 Y177.0535 E0.72617 F1800 ; Fill
G0 X200.2452 Y177.0535 F7200 ; Move
G1 X210.9668 Y166.3319 E0.72617 F1800 ; Fill
G0 X211.6829 Y166.3319 F7200 ; Move
G1 X200.9613 Y177.0535 E0.72617 F1800 ; Fill
G0 X201.6774 Y177.0535 F7200 ; Move
G1 X212.399 Y166.3319 E0.72617 F1800 ; Fill
G0 X213.115 Y166.3319 F7200 ; Move
G1 X202.3935 Y177.0535 E0.72617 F1800 ; Fill
G0 X203.1095 Y177.0535 F7200 ; Move
G1 X213.2205 Y166.9425 E0.68482 F1800 ; Fill
G0 X213.2205 Y167.6586 F7200 ; Move
G1 X203.8256 Y177.0535 E0.63632 F1800 ; Fill
G0 X204.5417 Y177.0535 F7200 ; Move
G1 X213.2205 Y168.3747 E0.58782 F1800 ; Fill
G0 X213.2205 Y169.0908 F7200 ; Move
G1 X205.2578 Y177.0535 E0.53931 F1800 ; Fill
G0 X205.9739 Y177.0535 F7200 ; Move
G1 X213.2205 Y169.8069 E0.49081 F1800 ; Fill
G0 X213.2205 Y170.523 F7200 ; Move
G1 X206.69 Y177.0535 E0.44231 F1800 ; Fill
G0 X207.4061 Y177.0535 F7200 ; Move
G1 X213.2205 Y171.2391 E0.39381 F1800 ; Fill
G0 X213.2205 Y171.9551 F7200 ; Move
G1 X208.1221 Y177.0535 E0.34531 F1800 ; Fill
G0 X208.8382 Y177.0535 F7200 ; Move
G1 X213.2205 Y172.6712 E0.29681 F1800 ; Fill
G0 X213.2205 Y173.3873 F7200 ; Move
G1 X209.5543 Y177.0535 E0.24831 F1800 ; Fill
G0 X210.2704 Y177.0535 F7200 ; Move
G1 X213.2205 Y174.1034 E0.19981 F1800 ; Fill
G0 X213.2205 Y174.8195 F7200 ; Move
G1 X210.9865 Y177.0535 E0.15131 F1800 ; Fill
G0 X211.7026 Y177.0535 F7200 ; Move
G1 X213.2205 Y175.5356 E0.10281 F1800 ; Fill
G0 X213.2205 Y176.2517 F7200 ; Move
G1 X212.4187 Y177.0535 E0.05431 F1800 ; Fill
G0 X213.1348 Y177.0535 F7200 ; Move
G1 X213.2205 Y176.9678 E0.00581 F1800 ; Fill
G0 Z0.25 F7200 ; Move to layer height
G1 E-0.8 F3600 ; Retract
G1 Z0.35 F7200 ; Z hop
G0 X69.0216 Y123.3992 F7200 ; Move to pattern start

G1 Z0.25 F7200 ; Z hop return
G1 E0.8 F3600 ; Un-retract
SET_PRESSURE_ADVANCE ADVANCE=0 ; Set pressure advance
M117 PA 0
G1 X88.3425 Y142.72 E1.02432 F1800 ; Print pattern wall
G1 X69.0216 Y162.0408 E1.02432 F1800 ; Print pattern wall
G1 E-0.8 F3600 ; Retract
G1 Z0.35 F7200 ; Z hop
G0 X69.5973 Y123.3992 F7200 ; Move to start next pattern wall
G1 Z0.25 F7200 ; Z hop return
G1 E0.8 F3600 ; Un-retract
G1 X88.9182 Y142.72 E1.02432 F1800 ; Print pattern wall
G1 X69.5973 Y162.0408 E1.02432 F1800 ; Print pattern wall
G1 E-0.8 F3600 ; Retract
G1 Z0.35 F7200 ; Z hop
G0 X70.173 Y123.3992 F7200 ; Move to start next pattern wall
G1 Z0.25 F7200 ; Z hop return
G1 E0.8 F3600 ; Un-retract
G1 X89.4939 Y142.72 E1.02432 F1800 ; Print pattern wall
G1 X70.173 Y162.0408 E1.02432 F1800 ; Print pattern wall
G1 E-0.8 F3600 ; Retract
G1 Z0.35 F7200 ; Z hop
G0 X72.623 Y123.3992 F7200 ; Move to next pattern
G1 Z0.25 F7200 ; Z hop return
G1 E0.8 F3600 ; Un-retract
SET_PRESSURE_ADVANCE ADVANCE=0.0005 ; Set pressure advance
M117 PA 0.0005
G1 X91.9439 Y142.72 E1.02432 F1800 ; Print pattern wall
G1 X72.623 Y162.0408 E1.02432 F1800 ; Print pattern wall
G1 E-0.8 F3600 ; Retract
G1 Z0.35 F7200 ; Z hop
G0 X73.1987 Y123.3992 F7200 ; Move to start next pattern wall
G1 Z0.25 F7200 ; Z hop return
G1 E0.8 F3600 ; Un-retract
G1 X92.5195 Y142.72 E1.02432 F1800 ; Print pattern wall
G1 X73.1987 Y162.0408 E1.02432 F1800 ; Print pattern wall
G1 E-0.8 F3600 ; Retract
G1 Z0.35 F7200 ; Z hop
G0 X73.7744 Y123.3992 F7200 ; Move to start next pattern wall
G1 Z0.25 F7200 ; Z hop return
G1 E0.8 F3600 ; Un-retract
G1 X93.0952 Y142.72 E1.02432 F1800 ; Print pattern wall
G1 X73.7744 Y162.0408 E1.02432 F1800 ; Print pattern wall
G1 E-0.8 F3600 ; Retract
G1 Z0.35 F7200 ; Z hop
G0 X76.2244 Y123.3992 F7200 ; Move to next pattern
G1 Z0.25 F7200 ; Z hop return
G1 E0.8 F3600 ; Un-retract
SET_PRESSURE_ADVANCE ADVANCE=0.001 ; Set pressure advance
M117 PA 0.001
G1 X95.5452 Y142.72 E1.02432 F1800 ; Print pattern wall
G1 X76.2244 Y162.0408 E1.02432 F1800 ; Print pattern wall
G1 E-0.8 F3600 ; Retract
G1 Z0.35 F7200 ; Z hop
G0 X76.8001 Y123.3992 F7200 ; Move to start next pattern wall
G1 Z0.25 F7200 ; Z hop return
G1 E0.8 F3600 ; Un-retract
G1 X96.1209 Y142.72 E1.02432 F1800 ; Print pattern wall
G1 X76.8001 Y162.0408 E1.02432 F1800 ; Print pattern wall
G1 E-0.8 F3600 ; Retract
G1 Z0.35 F7200 ; Z hop
G0 X77.3758 Y123.3992 F7200 ; Move to start next pattern wall
G1 Z0.25 F7200 ; Z hop return
G1 E0.8 F3600 ; Un-retract
G1 X96.6966 Y142.72 E1.02432 F1800 ; Print pattern wall
G1 X77.3758 Y162.0408 E1.02432 F1800 ; Print pattern wall
G1 E-0.8 F3600 ; Retract
G1 Z0.35 F7200 ; Z hop
G0 X79.8258 Y123.3992 F7200 ; Move to next pattern
G1 Z0.25 F7200 ; Z hop return
G1 E0.8 F3600 ; Un-retract
SET_PRESSURE_ADVANCE ADVANCE=0.0015 ; Set pressure advance
M117 PA 0.0015
G1 X99.1466 Y142.72 E1.02432 F1800 ; Print pattern wall
G1 X79.8258 Y162.0408 E1.02432 F1800 ; Print pattern wall
G1 E-0.8 F3600 ; Retract
G1 Z0.35 F7200 ; Z hop
G0 X80.4015 Y123.3992 F7200 ; Move to start next pattern wall
G1 Z0.25 F7200 ; Z hop return
G1 E0.8 F3600 ; Un-retract
G1 X99.7223 Y142.72 E1.02432 F1800 ; Print pattern wall
G1 X80.4015 Y162.0408 E1.02432 F1800 ; Print pattern wall
G1 E-0.8 F3600 ; Retract
G1 Z0.35 F7200 ; Z hop
G0 X80.9772 Y123.3992 F7200 ; Move to start next pattern wall
G1 Z0.25 F7200 ; Z hop return
G1 E0.8 F3600 ; Un-retract
G1 X100.298 Y142.72 E1.02432 F1800 ; Print pattern wall
G1 X80.9772 Y162.0408 E1.02432 F1800 ; Print pattern wall
G1 E-0.8 F3600 ; Retract
G1 Z0.35 F7200 ; Z hop
G0 X83.4272 Y123.3992 F7200 ; Move to next pattern
G1 Z0.25 F7200 ; Z hop return
G1 E0.8 F3600 ; Un-retract
SET_PRESSURE_ADVANCE ADVANCE=0.002 ; Set pressure advance
M117 PA 0.002
G1 X102.748 Y142.72 E1.02432 F1800 ; Print pattern wall
G1 X83.4272 Y162.0408 E1.02432 F1800 ; Print pattern wall
G1 E-0.8 F3600 ; Retract
G1 Z0.35 F7200 ; Z hop
G0 X84.0029 Y123.3992 F7200 ; Move to start next pattern wall
G1 Z0.25 F7200 ; Z hop return
G1 E0.8 F3600 ; Un-retract
G1 X103.3237 Y142.72 E1.02432 F1800 ; Print pattern wall
G1 X84.0029 Y162.0408 E1.02432 F1800 ; Print pattern wall
G1 E-0.8 F3600 ; Retract
G1 Z0.35 F7200 ; Z hop
G0 X84.5786 Y123.3992 F7200 ; Move to start next pattern wall
G1 Z0.25 F7200 ; Z hop return
G1 E0.8 F3600 ; Un-retract
G1 X103.8994 Y142.72 E1.02432 F1800 ; Print pattern wall
G1 X84.5786 Y162.0408 E1.02432 F1800 ; Print pattern wall
G1 E-0.8 F3600 ; Retract
G1 Z0.35 F7200 ; Z hop
G0 X87.0286 Y123.3992 F7200 ; Move to next pattern
G1 Z0.25 F7200 ; Z hop return
G1 E0.8 F3600 ; Un-retract
SET_PRESSURE_ADVANCE ADVANCE=0.0025 ; Set pressure advance
M117 PA 0.0025
G1 X106.3494 Y142.72 E1.02432 F1800 ; Print pattern wall
G1 X87.0286 Y162.0408 E1.02432 F1800 ; Print pattern wall
G1 E-0.8 F3600 ; Retract
G1 Z0.35 F7200 ; Z hop
G0 X87.6043 Y123.3992 F7200 ; Move to start next pattern wall
G1 Z0.25 F7200 ; Z hop return
G1 E0.8 F3600 ; Un-retract
G1 X106.9251 Y142.72 E1.02432 F1800 ; Print pattern wall
G1 X87.6043 Y162.0408 E1.02432 F1800 ; Print pattern wall
G1 E-0.8 F3600 ; Retract
G1 Z0.35 F7200 ; Z hop
G0 X88.18 Y123.3992 F7200 ; Move to start next pattern wall
G1 Z0.25 F7200 ; Z hop return
G1 E0.8 F3600 ; Un-retract
G1 X107.5008 Y142.72 E1.02432 F1800 ; Print pattern wall
G1 X88.18 Y162.0408 E1.02432 F1800 ; Print pattern wall
G1 E-0.8 F3600 ; Retract
G1 Z0.35 F7200 ; Z hop
G0 X90.63 Y123.3992 F7200 ; Move to next pattern
G1 Z0.25 F7200 ; Z hop return
G1 E0.8 F3600 ; Un-retract
SET_PRESSURE_ADVANCE ADVANCE=0.003 ; Set pressure advance
M117 PA 0.003
G1 X109.9508 Y142.72 E1.02432 F1800 ; Print pattern wall
G1 X90.63 Y162.0408 E1.02432 F1800 ; Print pattern wall
G1 E-0.8 F3600 ; Retract
G1 Z0.35 F7200 ; Z hop
G0 X91.2057 Y123.3992 F7200 ; Move to start next pattern wall
G1 Z0.25 F7200 ; Z hop return
G1 E0.8 F3600 ; Un-retract
G1 X110.5265 Y142.72 E1.02432 F1800 ; Print pattern wall
G1 X91.2057 Y162.0408 E1.02432 F1800 ; Print pattern wall
G1 E-0.8 F3600 ; Retract
G1 Z0.35 F7200 ; Z hop
G0 X91.7814 Y123.3992 F7200 ; Move to start next pattern wall
G1 Z0.25 F7200 ; Z hop return
G1 E0.8 F3600 ; Un-retract
G1 X111.1022 Y142.72 E1.02432 F1800 ; Print pattern wall
G1 X91.7814 Y162.0408 E1.02432 F1800 ; Print pattern wall
G1 E-0.8 F3600 ; Retract
G1 Z0.35 F7200 ; Z hop
G0 X94.2314 Y123.3992 F7200 ; Move to next pattern
G1 Z0.25 F7200 ; Z hop return
G1 E0.8 F3600 ; Un-retract
SET_PRESSURE_ADVANCE ADVANCE=0.0035 ; Set pressure advance
M117 PA 0.0035
G1 X113.5522 Y142.72 E1.02432 F1800 ; Print pattern wall
G1 X94.2314 Y162.0408 E1.02432 F1800 ; Print pattern wall
G1 E-0.8 F3600 ; Retract
G1 Z0.35 F7200 ; Z hop
G0 X94.8071 Y123.3992 F7200 ; Move to start next pattern wall
G1 Z0.25 F7200 ; Z hop return
G1 E0.8 F3600 ; Un-retract
G1 X114.1279 Y142.72 E1.02432 F1800 ; Print pattern wall
G1 X94.8071 Y162.0408 E1.02432 F1800 ; Print pattern wall
G1 E-0.8 F3600 ; Retract
G1 Z0.35 F7200 ; Z hop
G0 X95.3828 Y123.3992 F7200 ; Move to start next pattern wall
G1 Z0.25 F7200 ; Z hop return
G1 E0.8 F3600 ; Un-retract
G1 X114.7036 Y142.72 E1.02432 F1800 ; Print pattern wall
G1 X95.3828 Y162.0408 E1.02432 F1800 ; Print pattern wall
G1 E-0.8 F3600 ; Retract
G1 Z0.35 F7200 ; Z hop
G0 X97.8328 Y123.3992 F7200 ; Move to next pattern
G1 Z0.25 F7200 ; Z hop return
G1 E0.8 F3600 ; Un-retract
SET_PRESSURE_ADVANCE ADVANCE=0.004 ; Set pressure advance
M117 PA 0.004
G1 X117.1536 Y142.72 E1.02432 F1800 ; Print pattern wall
G1 X97.8328 Y162.0408 E1.02432 F1800 ; Print pattern wall
G1 E-0.8 F3600 ; Retract
G1 Z0.35 F7200 ; Z hop
G0 X98.4085 Y123.3992 F7200 ; Move to start next pattern wall
G1 Z0.25 F7200 ; Z hop return
G1 E0.8 F3600 ; Un-retract
G1 X117.7293 Y142.72 E1.02432 F1800 ; Print pattern wall
G1 X98.4085 Y162.0408 E1.02432 F1800 ; Print pattern wall
G1 E-0.8 F3600 ; Retract
G1 Z0.35 F7200 ; Z hop
G0 X98.9842 Y123.3992 F7200 ; Move to start next pattern wall
G1 Z0.25 F7200 ; Z hop return
G1 E0.8 F3600 ; Un-retract
G1 X118.305 Y142.72 E1.02432 F1800 ; Print pattern wall
G1 X98.9842 Y162.0408 E1.02432 F1800 ; Print pattern wall
G1 E-0.8 F3600 ; Retract
G1 Z0.35 F7200 ; Z hop
G0 X101.4342 Y123.3992 F7200 ; Move to next pattern
G1 Z0.25 F7200 ; Z hop return
G1 E0.8 F3600 ; Un-retract
SET_PRESSURE_ADVANCE ADVANCE=0.0045 ; Set pressure advance
M117 PA 0.0045
G1 X120.755 Y142.72 E1.02432 F1800 ; Print pattern wall
G1 X101.4342 Y162.0408 E1.02432 F1800 ; Print pattern wall
G1 E-0.8 F3600 ; Retract
G1 Z0.35 F7200 ; Z hop
G0 X102.0099 Y123.3992 F7200 ; Move to start next pattern wall
G1 Z0.25 F7200 ; Z hop return
G1 E0.8 F3600 ; Un-retract
G1 X121.3307 Y142.72 E1.02432 F1800 ; Print pattern wall
G1 X102.0099 Y162.0408 E1.02432 F1800 ; Print pattern wall
G1 E-0.8 F3600 ; Retract
G1 Z0.35 F7200 ; Z hop
G0 X102.5856 Y123.3992 F7200 ; Move to start next pattern wall
G1 Z0.25 F7200 ; Z hop return
G1 E0.8 F3600 ; Un-retract
G1 X121.9064 Y142.72 E1.02432 F1800 ; Print pattern wall
G1 X102.5856 Y162.0408 E1.02432 F1800 ; Print pattern wall
G1 E-0.8 F3600 ; Retract
G1 Z0.35 F7200 ; Z hop
G0 X105.0356 Y123.3992 F7200 ; Move to next pattern
G1 Z0.25 F7200 ; Z hop return
G1 E0.8 F3600 ; Un-retract
SET_PRESSURE_ADVANCE ADVANCE=0.005 ; Set pressure advance
M117 PA 0.005
G1 X124.3564 Y142.72 E1.02432 F1800 ; Print pattern wall
G1 X105.0356 Y162.0408 E1.02432 F1800 ; Print pattern wall
G1 E-0.8 F3600 ; Retract
G1 Z0.35 F7200 ; Z hop
G0 X105.6113 Y123.3992 F7200 ; Move to start next pattern wall
G1 Z0.25 F7200 ; Z hop return
G1 E0.8 F3600 ; Un-retract
G1 X124.9321 Y142.72 E1.02432 F1800 ; Print pattern wall
G1 X105.6113 Y162.0408 E1.02432 F1800 ; Print pattern wall
G1 E-0.8 F3600 ; Retract
G1 Z0.35 F7200 ; Z hop
G0 X106.187 Y123.3992 F7200 ; Move to start next pattern wall
G1 Z0.25 F7200 ; Z hop return
G1 E0.8 F3600 ; Un-retract
G1 X125.5078 Y142.72 E1.02432 F1800 ; Print pattern wall
G1 X106.187 Y162.0408 E1.02432 F1800 ; Print pattern wall
G1 E-0.8 F3600 ; Retract
G1 Z0.35 F7200 ; Z hop
G0 X108.637 Y123.3992 F7200 ; Move to next pattern
G1 Z0.25 F7200 ; Z hop return
G1 E0.8 F3600 ; Un-retract
SET_PRESSURE_ADVANCE ADVANCE=0.0055 ; Set pressure advance
M117 PA 0.0055
G1 X127.9578 Y142.72 E1.02432 F1800 ; Print pattern wall
G1 X108.637 Y162.0408 E1.02432 F1800 ; Print pattern wall
G1 E-0.8 F3600 ; Retract
G1 Z0.35 F7200 ; Z hop
G0 X109.2127 Y123.3992 F7200 ; Move to start next pattern wall
G1 Z0.25 F7200 ; Z hop return
G1 E0.8 F3600 ; Un-retract
G1 X128.5335 Y142.72 E1.02432 F1800 ; Print pattern wall
G1 X109.2127 Y162.0408 E1.02432 F1800 ; Print pattern wall
G1 E-0.8 F3600 ; Retract
G1 Z0.35 F7200 ; Z hop
G0 X109.7884 Y123.3992 F7200 ; Move to start next pattern wall
G1 Z0.25 F7200 ; Z hop return
G1 E0.8 F3600 ; Un-retract
G1 X129.1092 Y142.72 E1.02432 F1800 ; Print pattern wall
G1 X109.7884 Y162.0408 E1.02432 F1800 ; Print pattern wall
G1 E-0.8 F3600 ; Retract
G1 Z0.35 F7200 ; Z hop
G0 X112.2384 Y123.3992 F7200 ; Move to next pattern
G1 Z0.25 F7200 ; Z hop return
G1 E0.8 F3600 ; Un-retract
SET_PRESSURE_ADVANCE ADVANCE=0.006 ; Set pressure advance
M117 PA 0.006
G1 X131.5592 Y142.72 E1.02432 F1800 ; Print pattern wall
G1 X112.2384 Y162.0408 E1.02432 F1800 ; Print pattern wall
G1 E-0.8 F3600 ; Retract
G1 Z0.35 F7200 ; Z hop
G0 X112.8141 Y123.3992 F7200 ; Move to start next pattern wall
G1 Z0.25 F7200 ; Z hop return
G1 E0.8 F3600 ; Un-retract
G1 X132.1349 Y142.72 E1.02432 F1800 ; Print pattern wall
G1 X112.8141 Y162.0408 E1.02432 F1800 ; Print pattern wall
G1 E-0.8 F3600 ; Retract
G1 Z0.35 F7200 ; Z hop
G0 X113.3898 Y123.3992 F7200 ; Move to start next pattern wall
G1 Z0.25 F7200 ; Z hop return
G1 E0.8 F3600 ; Un-retract
G1 X132.7106 Y142.72 E1.02432 F1800 ; Print pattern wall
G1 X113.3898 Y162.0408 E1.02432 F1800 ; Print pattern wall
G1 E-0.8 F3600 ; Retract
G1 Z0.35 F7200 ; Z hop
G0 X115.8398 Y123.3992 F7200 ; Move to next pattern
G1 Z0.25 F7200 ; Z hop return
G1 E0.8 F3600 ; Un-retract
SET_PRESSURE_ADVANCE ADVANCE=0.0065 ; Set pressure advance
M117 PA 0.0065
G1 X135.1606 Y142.72 E1.02432 F1800 ; Print pattern wall
G1 X115.8398 Y162.0408 E1.02432 F1800 ; Print pattern wall
G1 E-0.8 F3600 ; Retract
G1 Z0.35 F7200 ; Z hop
G0 X116.4155 Y123.3992 F7200 ; Move to start next pattern wall
G1 Z0.25 F7200 ; Z hop return
G1 E0.8 F3600 ; Un-retract
G1 X135.7363 Y142.72 E1.02432 F1800 ; Print pattern wall
G1 X116.4155 Y162.0408 E1.02432 F1800 ; Print pattern wall
G1 E-0.8 F3600 ; Retract
G1 Z0.35 F7200 ; Z hop
G0 X116.9912 Y123.3992 F7200 ; Move to start next pattern wall
G1 Z0.25 F7200 ; Z hop return
G1 E0.8 F3600 ; Un-retract
G1 X136.312 Y142.72 E1.02432 F1800 ; Print pattern wall
G1 X116.9912 Y162.0408 E1.02432 F1800 ; Print pattern wall
G1 E-0.8 F3600 ; Retract
G1 Z0.35 F7200 ; Z hop
G0 X119.4412 Y123.3992 F7200 ; Move to next pattern
G1 Z0.25 F7200 ; Z hop return
G1 E0.8 F3600 ; Un-retract
SET_PRESSURE_ADVANCE ADVANCE=0.007 ; Set pressure advance
M117 PA 0.007
G1 X138.762 Y142.72 E1.02432 F1800 ; Print pattern wall
G1 X119.4412 Y162.0408 E1.02432 F1800 ; Print pattern wall
G1 E-0.8 F3600 ; Retract
G1 Z0.35 F7200 ; Z hop
G0 X120.0169 Y123.3992 F7200 ; Move to start next pattern wall
G1 Z0.25 F7200 ; Z hop return
G1 E0.8 F3600 ; Un-retract
G1 X139.3377 Y142.72 E1.02432 F1800 ; Print pattern wall
G1 X120.0169 Y162.0408 E1.02432 F1800 ; Print pattern wall
G1 E-0.8 F3600 ; Retract
G1 Z0.35 F7200 ; Z hop
G0 X120.5926 Y123.3992 F7200 ; Move to start next pattern wall
G1 Z0.25 F7200 ; Z hop return
G1 E0.8 F3600 ; Un-retract
G1 X139.9134 Y142.72 E1.02432 F1800 ; Print pattern wall
G1 X120.5926 Y162.0408 E1.02432 F1800 ; Print pattern wall
G1 E-0.8 F3600 ; Retract
G1 Z0.35 F7200 ; Z hop
G0 X123.0426 Y123.3992 F7200 ; Move to next pattern
G1 Z0.25 F7200 ; Z hop return
G1 E0.8 F3600 ; Un-retract
SET_PRESSURE_ADVANCE ADVANCE=0.0075 ; Set pressure advance
M117 PA 0.0075
G1 X142.3634 Y142.72 E1.02432 F1800 ; Print pattern wall
G1 X123.0426 Y162.0408 E1.02432 F1800 ; Print pattern wall
G1 E-0.8 F3600 ; Retract
G1 Z0.35 F7200 ; Z hop
G0 X123.6183 Y123.3992 F7200 ; Move to start next pattern wall
G1 Z0.25 F7200 ; Z hop return
G1 E0.8 F3600 ; Un-retract
G1 X142.9391 Y142.72 E1.02432 F1800 ; Print pattern wall
G1 X123.6183 Y162.0408 E1.02432 F1800 ; Print pattern wall
G1 E-0.8 F3600 ; Retract
G1 Z0.35 F7200 ; Z hop
G0 X124.194 Y123.3992 F7200 ; Move to start next pattern wall
G1 Z0.25 F7200 ; Z hop return
G1 E0.8 F3600 ; Un-retract
G1 X143.5148 Y142.72 E1.02432 F1800 ; Print pattern wall
G1 X124.194 Y162.0408 E1.02432 F1800 ; Print pattern wall
G1 E-0.8 F3600 ; Retract
G1 Z0.35 F7200 ; Z hop
G0 X126.644 Y123.3992 F7200 ; Move to next pattern
G1 Z0.25 F7200 ; Z hop return
G1 E0.8 F3600 ; Un-retract
SET_PRESSURE_ADVANCE ADVANCE=0.008 ; Set pressure advance
M117 PA 0.008
G1 X145.9648 Y142.72 E1.02432 F1800 ; Print pattern wall
G1 X126.644 Y162.0408 E1.02432 F1800 ; Print pattern wall
G1 E-0.8 F3600 ; Retract
G1 Z0.35 F7200 ; Z hop
G0 X127.2197 Y123.3992 F7200 ; Move to start next pattern wall
G1 Z0.25 F7200 ; Z hop return
G1 E0.8 F3600 ; Un-retract
G1 X146.5405 Y142.72 E1.02432 F1800 ; Print pattern wall
G1 X127.2197 Y162.0408 E1.02432 F1800 ; Print pattern wall
G1 E-0.8 F3600 ; Retract
G1 Z0.35 F7200 ; Z hop
G0 X127.7954 Y123.3992 F7200 ; Move to start next pattern wall
G1 Z0.25 F7200 ; Z hop return
G1 E0.8 F3600 ; Un-retract
G1 X147.1162 Y142.72 E1.02432 F1800 ; Print pattern wall
G1 X127.7954 Y162.0408 E1.02432 F1800 ; Print pattern wall
G1 E-0.8 F3600 ; Retract
G1 Z0.35 F7200 ; Z hop
G0 X130.2454 Y123.3992 F7200 ; Move to next pattern
G1 Z0.25 F7200 ; Z hop return
G1 E0.8 F3600 ; Un-retract
SET_PRESSURE_ADVANCE ADVANCE=0.0085 ; Set pressure advance
M117 PA 0.0085
G1 X149.5662 Y142.72 E1.02432 F1800 ; Print pattern wall
G1 X130.2454 Y162.0408 E1.02432 F1800 ; Print pattern wall
G1 E-0.8 F3600 ; Retract
G1 Z0.35 F7200 ; Z hop
G0 X130.821 Y123.3992 F7200 ; Move to start next pattern wall
G1 Z0.25 F7200 ; Z hop return
G1 E0.8 F3600 ; Un-retract
G1 X150.1419 Y142.72 E1.02432 F1800 ; Print pattern wall
G1 X130.821 Y162.0408 E1.02432 F1800 ; Print pattern wall
G1 E-0.8 F3600 ; Retract
G1 Z0.35 F7200 ; Z hop
G0 X131.3967 Y123.3992 F7200 ; Move to start next pattern wall
G1 Z0.25 F7200 ; Z hop return
G1 E0.8 F3600 ; Un-retract
G1 X150.7176 Y142.72 E1.02432 F1800 ; Print pattern wall
G1 X131.3967 Y162.0408 E1.02432 F1800 ; Print pattern wall
G1 E-0.8 F3600 ; Retract
G1 Z0.35 F7200 ; Z hop
G0 X133.8467 Y123.3992 F7200 ; Move to next pattern
G1 Z0.25 F7200 ; Z hop return
G1 E0.8 F3600 ; Un-retract
SET_PRESSURE_ADVANCE ADVANCE=0.009 ; Set pressure advance
M117 PA 0.009
G1 X153.1676 Y142.72 E1.02432 F1800 ; Print pattern wall
G1 X133.8467 Y162.0408 E1.02432 F1800 ; Print pattern wall
G1 E-0.8 F3600 ; Retract
G1 Z0.35 F7200 ; Z hop
G0 X134.4224 Y123.3992 F7200 ; Move to start next pattern wall
G1 Z0.25 F7200 ; Z hop return
G1 E0.8 F3600 ; Un-retract
G1 X153.7433 Y142.72 E1.02432 F1800 ; Print pattern wall
G1 X134.4224 Y162.0408 E1.02432 F1800 ; Print pattern wall
G1 E-0.8 F3600 ; Retract
G1 Z0.35 F7200 ; Z hop
G0 X134.9981 Y123.3992 F7200 ; Move to start next pattern wall
G1 Z0.25 F7200 ; Z hop return
G1 E0.8 F3600 ; Un-retract
G1 X154.319 Y142.72 E1.02432 F1800 ; Print pattern wall
G1 X134.9981 Y162.0408 E1.02432 F1800 ; Print pattern wall
G1 E-0.8 F3600 ; Retract
G1 Z0.35 F7200 ; Z hop
G0 X137.4481 Y123.3992 F7200 ; Move to next pattern
G1 Z0.25 F7200 ; Z hop return
G1 E0.8 F3600 ; Un-retract
SET_PRESSURE_ADVANCE ADVANCE=0.0095 ; Set pressure advance
M117 PA 0.0095
G1 X156.769 Y142.72 E1.02432 F1800 ; Print pattern wall
G1 X137.4481 Y162.0408 E1.02432 F1800 ; Print pattern wall
G1 E-0.8 F3600 ; Retract
G1 Z0.35 F7200 ; Z hop
G0 X138.0238 Y123.3992 F7200 ; Move to start next pattern wall
G1 Z0.25 F7200 ; Z hop return
G1 E0.8 F3600 ; Un-retract
G1 X157.3447 Y142.72 E1.02432 F1800 ; Print pattern wall
G1 X138.0238 Y162.0408 E1.02432 F1800 ; Print pattern wall
G1 E-0.8 F3600 ; Retract
G1 Z0.35 F7200 ; Z hop
G0 X138.5995 Y123.3992 F7200 ; Move to start next pattern wall
G1 Z0.25 F7200 ; Z hop return
G1 E0.8 F3600 ; Un-retract
G1 X157.9204 Y142.72 E1.02432 F1800 ; Print pattern wall
G1 X138.5995 Y162.0408 E1.02432 F1800 ; Print pattern wall
G1 E-0.8 F3600 ; Retract
G1 Z0.35 F7200 ; Z hop
G0 X141.0495 Y123.3992 F7200 ; Move to next pattern
G1 Z0.25 F7200 ; Z hop return
G1 E0.8 F3600 ; Un-retract
SET_PRESSURE_ADVANCE ADVANCE=0.01 ; Set pressure advance
M117 PA 0.01
G1 X160.3704 Y142.72 E1.02432 F1800 ; Print pattern wall
G1 X141.0495 Y162.0408 E1.02432 F1800 ; Print pattern wall
G1 E-0.8 F3600 ; Retract
G1 Z0.35 F7200 ; Z hop
G0 X141.6252 Y123.3992 F7200 ; Move to start next pattern wall
G1 Z0.25 F7200 ; Z hop return
G1 E0.8 F3600 ; Un-retract
G1 X160.9461 Y142.72 E1.02432 F1800 ; Print pattern wall
G1 X141.6252 Y162.0408 E1.02432 F1800 ; Print pattern wall
G1 E-0.8 F3600 ; Retract
G1 Z0.35 F7200 ; Z hop
G0 X142.2009 Y123.3992 F7200 ; Move to start next pattern wall
G1 Z0.25 F7200 ; Z hop return
G1 E0.8 F3600 ; Un-retract
G1 X161.5218 Y142.72 E1.02432 F1800 ; Print pattern wall
G1 X142.2009 Y162.0408 E1.02432 F1800 ; Print pattern wall
G1 E-0.8 F3600 ; Retract
G1 Z0.35 F7200 ; Z hop
G0 X144.6509 Y123.3992 F7200 ; Move to next pattern
G1 Z0.25 F7200 ; Z hop return
G1 E0.8 F3600 ; Un-retract
SET_PRESSURE_ADVANCE ADVANCE=0.0105 ; Set pressure advance
M117 PA 0.0105
G1 X163.9718 Y142.72 E1.02432 F1800 ; Print pattern wall
G1 X144.6509 Y162.0408 E1.02432 F1800 ; Print pattern wall
G1 E-0.8 F3600 ; Retract
G1 Z0.35 F7200 ; Z hop
G0 X145.2266 Y123.3992 F7200 ; Move to start next pattern wall
G1 Z0.25 F7200 ; Z hop return
G1 E0.8 F3600 ; Un-retract
G1 X164.5474 Y142.72 E1.02432 F1800 ; Print pattern wall
G1 X145.2266 Y162.0408 E1.02432 F1800 ; Print pattern wall
G1 E-0.8 F3600 ; Retract
G1 Z0.35 F7200 ; Z hop
G0 X145.8023 Y123.3992 F7200 ; Move to start next pattern wall
G1 Z0.25 F7200 ; Z hop return
G1 E0.8 F3600 ; Un-retract
G1 X165.1231 Y142.72 E1.02432 F1800 ; Print pattern wall
G1 X145.8023 Y162.0408 E1.02432 F1800 ; Print pattern wall
G1 E-0.8 F3600 ; Retract
G1 Z0.35 F7200 ; Z hop
G0 X148.2523 Y123.3992 F7200 ; Move to next pattern
G1 Z0.25 F7200 ; Z hop return
G1 E0.8 F3600 ; Un-retract
SET_PRESSURE_ADVANCE ADVANCE=0.011 ; Set pressure advance
M117 PA 0.011
G1 X167.5731 Y142.72 E1.02432 F1800 ; Print pattern wall
G1 X148.2523 Y162.0408 E1.02432 F1800 ; Print pattern wall
G1 E-0.8 F3600 ; Retract
G1 Z0.35 F7200 ; Z hop
G0 X148.828 Y123.3992 F7200 ; Move to start next pattern wall
G1 Z0.25 F7200 ; Z hop return
G1 E0.8 F3600 ; Un-retract
G1 X168.1488 Y142.72 E1.02432 F1800 ; Print pattern wall
G1 X148.828 Y162.0408 E1.02432 F1800 ; Print pattern wall
G1 E-0.8 F3600 ; Retract
G1 Z0.35 F7200 ; Z hop
G0 X149.4037 Y123.3992 F7200 ; Move to start next pattern wall
G1 Z0.25 F7200 ; Z hop return
G1 E0.8 F3600 ; Un-retract
G1 X168.7245 Y142.72 E1.02432 F1800 ; Print pattern wall
G1 X149.4037 Y162.0408 E1.02432 F1800 ; Print pattern wall
G1 E-0.8 F3600 ; Retract
G1 Z0.35 F7200 ; Z hop
G0 X151.8537 Y123.3992 F7200 ; Move to next pattern
G1 Z0.25 F7200 ; Z hop return
G1 E0.8 F3600 ; Un-retract
SET_PRESSURE_ADVANCE ADVANCE=0.0115 ; Set pressure advance
M117 PA 0.0115
G1 X171.1745 Y142.72 E1.02432 F1800 ; Print pattern wall
G1 X151.8537 Y162.0408 E1.02432 F1800 ; Print pattern wall
G1 E-0.8 F3600 ; Retract
G1 Z0.35 F7200 ; Z hop
G0 X152.4294 Y123.3992 F7200 ; Move to start next pattern wall
G1 Z0.25 F7200 ; Z hop return
G1 E0.8 F3600 ; Un-retract
G1 X171.7502 Y142.72 E1.02432 F1800 ; Print pattern wall
G1 X152.4294 Y162.0408 E1.02432 F1800 ; Print pattern wall
G1 E-0.8 F3600 ; Retract
G1 Z0.35 F7200 ; Z hop
G0 X153.0051 Y123.3992 F7200 ; Move to start next pattern wall
G1 Z0.25 F7200 ; Z hop return
G1 E0.8 F3600 ; Un-retract
G1 X172.3259 Y142.72 E1.02432 F1800 ; Print pattern wall
G1 X153.0051 Y162.0408 E1.02432 F1800 ; Print pattern wall
G1 E-0.8 F3600 ; Retract
G1 Z0.35 F7200 ; Z hop
G0 X155.4551 Y123.3992 F7200 ; Move to next pattern
G1 Z0.25 F7200 ; Z hop return
G1 E0.8 F3600 ; Un-retract
SET_PRESSURE_ADVANCE ADVANCE=0.012 ; Set pressure advance
M117 PA 0.012
G1 X174.7759 Y142.72 E1.02432 F1800 ; Print pattern wall
G1 X155.4551 Y162.0408 E1.02432 F1800 ; Print pattern wall
G1 E-0.8 F3600 ; Retract
G1 Z0.35 F7200 ; Z hop
G0 X156.0308 Y123.3992 F7200 ; Move to start next pattern wall
G1 Z0.25 F7200 ; Z hop return
G1 E0.8 F3600 ; Un-retract
G1 X175.3516 Y142.72 E1.02432 F1800 ; Print pattern wall
G1 X156.0308 Y162.0408 E1.02432 F1800 ; Print pattern wall
G1 E-0.8 F3600 ; Retract
G1 Z0.35 F7200 ; Z hop
G0 X156.6065 Y123.3992 F7200 ; Move to start next pattern wall
G1 Z0.25 F7200 ; Z hop return
G1 E0.8 F3600 ; Un-retract
G1 X175.9273 Y142.72 E1.02432 F1800 ; Print pattern wall
G1 X156.6065 Y162.0408 E1.02432 F1800 ; Print pattern wall
G1 E-0.8 F3600 ; Retract
G1 Z0.35 F7200 ; Z hop
G0 X159.0565 Y123.3992 F7200 ; Move to next pattern
G1 Z0.25 F7200 ; Z hop return
G1 E0.8 F3600 ; Un-retract
SET_PRESSURE_ADVANCE ADVANCE=0.0125 ; Set pressure advance
M117 PA 0.0125
G1 X178.3773 Y142.72 E1.02432 F1800 ; Print pattern wall
G1 X159.0565 Y162.0408 E1.02432 F1800 ; Print pattern wall
G1 E-0.8 F3600 ; Retract
G1 Z0.35 F7200 ; Z hop
G0 X159.6322 Y123.3992 F7200 ; Move to start next pattern wall
G1 Z0.25 F7200 ; Z hop return
G1 E0.8 F3600 ; Un-retract
G1 X178.953 Y142.72 E1.02432 F1800 ; Print pattern wall
G1 X159.6322 Y162.0408 E1.02432 F1800 ; Print pattern wall
G1 E-0.8 F3600 ; Retract
G1 Z0.35 F7200 ; Z hop
G0 X160.2079 Y123.3992 F7200 ; Move to start next pattern wall
G1 Z0.25 F7200 ; Z hop return
G1 E0.8 F3600 ; Un-retract
G1 X179.5287 Y142.72 E1.02432 F1800 ; Print pattern wall
G1 X160.2079 Y162.0408 E1.02432 F1800 ; Print pattern wall
G1 E-0.8 F3600 ; Retract
G1 Z0.35 F7200 ; Z hop
G0 X162.6579 Y123.3992 F7200 ; Move to next pattern
G1 Z0.25 F7200 ; Z hop return
G1 E0.8 F3600 ; Un-retract
SET_PRESSURE_ADVANCE ADVANCE=0.013 ; Set pressure advance
M117 PA 0.013
G1 X181.9787 Y142.72 E1.02432 F1800 ; Print pattern wall
G1 X162.6579 Y162.0408 E1.02432 F1800 ; Print pattern wall
G1 E-0.8 F3600 ; Retract
G1 Z0.35 F7200 ; Z hop
G0 X163.2336 Y123.3992 F7200 ; Move to start next pattern wall
G1 Z0.25 F7200 ; Z hop return
G1 E0.8 F3600 ; Un-retract
G1 X182.5544 Y142.72 E1.02432 F1800 ; Print pattern wall
G1 X163.2336 Y162.0408 E1.02432 F1800 ; Print pattern wall
G1 E-0.8 F3600 ; Retract
G1 Z0.35 F7200 ; Z hop
G0 X163.8093 Y123.3992 F7200 ; Move to start next pattern wall
G1 Z0.25 F7200 ; Z hop return
G1 E0.8 F3600 ; Un-retract
G1 X183.1301 Y142.72 E1.02432 F1800 ; Print pattern wall
G1 X163.8093 Y162.0408 E1.02432 F1800 ; Print pattern wall
G1 E-0.8 F3600 ; Retract
G1 Z0.35 F7200 ; Z hop
G0 X166.2593 Y123.3992 F7200 ; Move to next pattern
G1 Z0.25 F7200 ; Z hop return
G1 E0.8 F3600 ; Un-retract
SET_PRESSURE_ADVANCE ADVANCE=0.0135 ; Set pressure advance
M117 PA 0.0135
G1 X185.5801 Y142.72 E1.02432 F1800 ; Print pattern wall
G1 X166.2593 Y162.0408 E1.02432 F1800 ; Print pattern wall
G1 E-0.8 F3600 ; Retract
G1 Z0.35 F7200 ; Z hop
G0 X166.835 Y123.3992 F7200 ; Move to start next pattern wall
G1 Z0.25 F7200 ; Z hop return
G1 E0.8 F3600 ; Un-retract
G1 X186.1558 Y142.72 E1.02432 F1800 ; Print pattern wall
G1 X166.835 Y162.0408 E1.02432 F1800 ; Print pattern wall
G1 E-0.8 F3600 ; Retract
G1 Z0.35 F7200 ; Z hop
G0 X167.4107 Y123.3992 F7200 ; Move to start next pattern wall
G1 Z0.25 F7200 ; Z hop return
G1 E0.8 F3600 ; Un-retract
G1 X186.7315 Y142.72 E1.02432 F1800 ; Print pattern wall
G1 X167.4107 Y162.0408 E1.02432 F1800 ; Print pattern wall
G1 E-0.8 F3600 ; Retract
G1 Z0.35 F7200 ; Z hop
G0 X169.8607 Y123.3992 F7200 ; Move to next pattern
G1 Z0.25 F7200 ; Z hop return
G1 E0.8 F3600 ; Un-retract
SET_PRESSURE_ADVANCE ADVANCE=0.014 ; Set pressure advance
M117 PA 0.014
G1 X189.1815 Y142.72 E1.02432 F1800 ; Print pattern wall
G1 X169.8607 Y162.0408 E1.02432 F1800 ; Print pattern wall
G1 E-0.8 F3600 ; Retract
G1 Z0.35 F7200 ; Z hop
G0 X170.4364 Y123.3992 F7200 ; Move to start next pattern wall
G1 Z0.25 F7200 ; Z hop return
G1 E0.8 F3600 ; Un-retract
G1 X189.7572 Y142.72 E1.02432 F1800 ; Print pattern wall
G1 X170.4364 Y162.0408 E1.02432 F1800 ; Print pattern wall
G1 E-0.8 F3600 ; Retract
G1 Z0.35 F7200 ; Z hop
G0 X171.0121 Y123.3992 F7200 ; Move to start next pattern wall
G1 Z0.25 F7200 ; Z hop return
G1 E0.8 F3600 ; Un-retract
G1 X190.3329 Y142.72 E1.02432 F1800 ; Print pattern wall
G1 X171.0121 Y162.0408 E1.02432 F1800 ; Print pattern wall
G1 E-0.8 F3600 ; Retract
G1 Z0.35 F7200 ; Z hop
G0 X173.4621 Y123.3992 F7200 ; Move to next pattern
G1 Z0.25 F7200 ; Z hop return
G1 E0.8 F3600 ; Un-retract
SET_PRESSURE_ADVANCE ADVANCE=0.0145 ; Set pressure advance
M117 PA 0.0145
G1 X192.7829 Y142.72 E1.02432 F1800 ; Print pattern wall
G1 X173.4621 Y162.0408 E1.02432 F1800 ; Print pattern wall
G1 E-0.8 F3600 ; Retract
G1 Z0.35 F7200 ; Z hop
G0 X174.0378 Y123.3992 F7200 ; Move to start next pattern wall
G1 Z0.25 F7200 ; Z hop return
G1 E0.8 F3600 ; Un-retract
G1 X193.3586 Y142.72 E1.02432 F1800 ; Print pattern wall
G1 X174.0378 Y162.0408 E1.02432 F1800 ; Print pattern wall
G1 E-0.8 F3600 ; Retract
G1 Z0.35 F7200 ; Z hop
G0 X174.6135 Y123.3992 F7200 ; Move to start next pattern wall
G1 Z0.25 F7200 ; Z hop return
G1 E0.8 F3600 ; Un-retract
G1 X193.9343 Y142.72 E1.02432 F1800 ; Print pattern wall
G1 X174.6135 Y162.0408 E1.02432 F1800 ; Print pattern wall
G1 E-0.8 F3600 ; Retract
G1 Z0.35 F7200 ; Z hop
G0 X177.0635 Y123.3992 F7200 ; Move to next pattern
G1 Z0.25 F7200 ; Z hop return
G1 E0.8 F3600 ; Un-retract
SET_PRESSURE_ADVANCE ADVANCE=0.015 ; Set pressure advance
M117 PA 0.015
G1 X196.3843 Y142.72 E1.02432 F1800 ; Print pattern wall
G1 X177.0635 Y162.0408 E1.02432 F1800 ; Print pattern wall
G1 E-0.8 F3600 ; Retract
G1 Z0.35 F7200 ; Z hop
G0 X177.6392 Y123.3992 F7200 ; Move to start next pattern wall
G1 Z0.25 F7200 ; Z hop return
G1 E0.8 F3600 ; Un-retract
G1 X196.96 Y142.72 E1.02432 F1800 ; Print pattern wall
G1 X177.6392 Y162.0408 E1.02432 F1800 ; Print pattern wall
G1 E-0.8 F3600 ; Retract
G1 Z0.35 F7200 ; Z hop
G0 X178.2149 Y123.3992 F7200 ; Move to start next pattern wall
G1 Z0.25 F7200 ; Z hop return
G1 E0.8 F3600 ; Un-retract
G1 X197.5357 Y142.72 E1.02432 F1800 ; Print pattern wall
G1 X178.2149 Y162.0408 E1.02432 F1800 ; Print pattern wall
G1 E-0.8 F3600 ; Retract
G1 Z0.35 F7200 ; Z hop
G0 X180.6649 Y123.3992 F7200 ; Move to next pattern
G1 Z0.25 F7200 ; Z hop return
G1 E0.8 F3600 ; Un-retract
SET_PRESSURE_ADVANCE ADVANCE=0.0155 ; Set pressure advance
M117 PA 0.0155
G1 X199.9857 Y142.72 E1.02432 F1800 ; Print pattern wall
G1 X180.6649 Y162.0408 E1.02432 F1800 ; Print pattern wall
G1 E-0.8 F3600 ; Retract
G1 Z0.35 F7200 ; Z hop
G0 X181.2406 Y123.3992 F7200 ; Move to start next pattern wall
G1 Z0.25 F7200 ; Z hop return
G1 E0.8 F3600 ; Un-retract
G1 X200.5614 Y142.72 E1.02432 F1800 ; Print pattern wall
G1 X181.2406 Y162.0408 E1.02432 F1800 ; Print pattern wall
G1 E-0.8 F3600 ; Retract
G1 Z0.35 F7200 ; Z hop
G0 X181.8163 Y123.3992 F7200 ; Move to start next pattern wall
G1 Z0.25 F7200 ; Z hop return
G1 E0.8 F3600 ; Un-retract
G1 X201.1371 Y142.72 E1.02432 F1800 ; Print pattern wall
G1 X181.8163 Y162.0408 E1.02432 F1800 ; Print pattern wall
G1 E-0.8 F3600 ; Retract
G1 Z0.35 F7200 ; Z hop
G0 X184.2663 Y123.3992 F7200 ; Move to next pattern
G1 Z0.25 F7200 ; Z hop return
G1 E0.8 F3600 ; Un-retract
SET_PRESSURE_ADVANCE ADVANCE=0.016 ; Set pressure advance
M117 PA 0.016
G1 X203.5871 Y142.72 E1.02432 F1800 ; Print pattern wall
G1 X184.2663 Y162.0408 E1.02432 F1800 ; Print pattern wall
G1 E-0.8 F3600 ; Retract
G1 Z0.35 F7200 ; Z hop
G0 X184.842 Y123.3992 F7200 ; Move to start next pattern wall
G1 Z0.25 F7200 ; Z hop return
G1 E0.8 F3600 ; Un-retract
G1 X204.1628 Y142.72 E1.02432 F1800 ; Print pattern wall
G1 X184.842 Y162.0408 E1.02432 F1800 ; Print pattern wall
G1 E-0.8 F3600 ; Retract
G1 Z0.35 F7200 ; Z hop
G0 X185.4177 Y123.3992 F7200 ; Move to start next pattern wall
G1 Z0.25 F7200 ; Z hop return
G1 E0.8 F3600 ; Un-retract
G1 X204.7385 Y142.72 E1.02432 F1800 ; Print pattern wall
G1 X185.4177 Y162.0408 E1.02432 F1800 ; Print pattern wall
G1 E-0.8 F3600 ; Retract
G1 Z0.35 F7200 ; Z hop
G0 X187.8677 Y123.3992 F7200 ; Move to next pattern
G1 Z0.25 F7200 ; Z hop return
G1 E0.8 F3600 ; Un-retract
SET_PRESSURE_ADVANCE ADVANCE=0.0165 ; Set pressure advance
M117 PA 0.0165
G1 X207.1885 Y142.72 E1.02432 F1800 ; Print pattern wall
G1 X187.8677 Y162.0408 E1.02432 F1800 ; Print pattern wall
G1 E-0.8 F3600 ; Retract
G1 Z0.35 F7200 ; Z hop
G0 X188.4434 Y123.3992 F7200 ; Move to start next pattern wall
G1 Z0.25 F7200 ; Z hop return
G1 E0.8 F3600 ; Un-retract
G1 X207.7642 Y142.72 E1.02432 F1800 ; Print pattern wall
G1 X188.4434 Y162.0408 E1.02432 F1800 ; Print pattern wall
G1 E-0.8 F3600 ; Retract
G1 Z0.35 F7200 ; Z hop
G0 X189.0191 Y123.3992 F7200 ; Move to start next pattern wall
G1 Z0.25 F7200 ; Z hop return
G1 E0.8 F3600 ; Un-retract
G1 X208.3399 Y142.72 E1.02432 F1800 ; Print pattern wall
G1 X189.0191 Y162.0408 E1.02432 F1800 ; Print pattern wall
G1 E-0.8 F3600 ; Retract
G1 Z0.35 F7200 ; Z hop
G0 X191.4691 Y123.3992 F7200 ; Move to next pattern
G1 Z0.25 F7200 ; Z hop return
G1 E0.8 F3600 ; Un-retract
SET_PRESSURE_ADVANCE ADVANCE=0.017 ; Set pressure advance
M117 PA 0.017
G1 X210.7899 Y142.72 E1.02432 F1800 ; Print pattern wall
G1 X191.4691 Y162.0408 E1.02432 F1800 ; Print pattern wall
G1 E-0.8 F3600 ; Retract
G1 Z0.35 F7200 ; Z hop
G0 X192.0448 Y123.3992 F7200 ; Move to start next pattern wall
G1 Z0.25 F7200 ; Z hop return
G1 E0.8 F3600 ; Un-retract
G1 X211.3656 Y142.72 E1.02432 F1800 ; Print pattern wall
G1 X192.0448 Y162.0408 E1.02432 F1800 ; Print pattern wall
G1 E-0.8 F3600 ; Retract
G1 Z0.35 F7200 ; Z hop
G0 X192.6205 Y123.3992 F7200 ; Move to start next pattern wall
G1 Z0.25 F7200 ; Z hop return
G1 E0.8 F3600 ; Un-retract
G1 X211.9413 Y142.72 E1.02432 F1800 ; Print pattern wall
G1 X192.6205 Y162.0408 E1.02432 F1800 ; Print pattern wall
G1 E-0.8 F3600 ; Retract
G1 Z0.35 F7200 ; Z hop
G0 X195.0705 Y123.3992 F7200 ; Move to next pattern
G1 Z0.25 F7200 ; Z hop return
G1 E0.8 F3600 ; Un-retract
SET_PRESSURE_ADVANCE ADVANCE=0.0175 ; Set pressure advance
M117 PA 0.0175
G1 X214.3913 Y142.72 E1.02432 F1800 ; Print pattern wall
G1 X195.0705 Y162.0408 E1.02432 F1800 ; Print pattern wall
G1 E-0.8 F3600 ; Retract
G1 Z0.35 F7200 ; Z hop
G0 X195.6462 Y123.3992 F7200 ; Move to start next pattern wall
G1 Z0.25 F7200 ; Z hop return
G1 E0.8 F3600 ; Un-retract
G1 X214.967 Y142.72 E1.02432 F1800 ; Print pattern wall
G1 X195.6462 Y162.0408 E1.02432 F1800 ; Print pattern wall
G1 E-0.8 F3600 ; Retract
G1 Z0.35 F7200 ; Z hop
G0 X196.2219 Y123.3992 F7200 ; Move to start next pattern wall
G1 Z0.25 F7200 ; Z hop return
G1 E0.8 F3600 ; Un-retract
G1 X215.5427 Y142.72 E1.02432 F1800 ; Print pattern wall
G1 X196.2219 Y162.0408 E1.02432 F1800 ; Print pattern wall
G1 E-0.8 F3600 ; Retract
G1 Z0.35 F7200 ; Z hop
G0 X198.6719 Y123.3992 F7200 ; Move to next pattern
G1 Z0.25 F7200 ; Z hop return
G1 E0.8 F3600 ; Un-retract
SET_PRESSURE_ADVANCE ADVANCE=0.018 ; Set pressure advance
M117 PA 0.018
G1 X217.9927 Y142.72 E1.02432 F1800 ; Print pattern wall
G1 X198.6719 Y162.0408 E1.02432 F1800 ; Print pattern wall
G1 E-0.8 F3600 ; Retract
G1 Z0.35 F7200 ; Z hop
G0 X199.2476 Y123.3992 F7200 ; Move to start next pattern wall
G1 Z0.25 F7200 ; Z hop return
G1 E0.8 F3600 ; Un-retract
G1 X218.5684 Y142.72 E1.02432 F1800 ; Print pattern wall
G1 X199.2476 Y162.0408 E1.02432 F1800 ; Print pattern wall
G1 E-0.8 F3600 ; Retract
G1 Z0.35 F7200 ; Z hop
G0 X199.8233 Y123.3992 F7200 ; Move to start next pattern wall
G1 Z0.25 F7200 ; Z hop return
G1 E0.8 F3600 ; Un-retract
G1 X219.1441 Y142.72 E1.02432 F1800 ; Print pattern wall
G1 X199.8233 Y162.0408 E1.02432 F1800 ; Print pattern wall
G1 E-0.8 F3600 ; Retract
G1 Z0.35 F7200 ; Z hop
G0 X202.2733 Y123.3992 F7200 ; Move to next pattern
G1 Z0.25 F7200 ; Z hop return
G1 E0.8 F3600 ; Un-retract
SET_PRESSURE_ADVANCE ADVANCE=0.0185 ; Set pressure advance
M117 PA 0.0185
G1 X221.5941 Y142.72 E1.02432 F1800 ; Print pattern wall
G1 X202.2733 Y162.0408 E1.02432 F1800 ; Print pattern wall
G1 E-0.8 F3600 ; Retract
G1 Z0.35 F7200 ; Z hop
G0 X202.8489 Y123.3992 F7200 ; Move to start next pattern wall
G1 Z0.25 F7200 ; Z hop return
G1 E0.8 F3600 ; Un-retract
G1 X222.1698 Y142.72 E1.02432 F1800 ; Print pattern wall
G1 X202.8489 Y162.0408 E1.02432 F1800 ; Print pattern wall
G1 E-0.8 F3600 ; Retract
G1 Z0.35 F7200 ; Z hop
G0 X203.4246 Y123.3992 F7200 ; Move to start next pattern wall
G1 Z0.25 F7200 ; Z hop return
G1 E0.8 F3600 ; Un-retract
G1 X222.7455 Y142.72 E1.02432 F1800 ; Print pattern wall
G1 X203.4246 Y162.0408 E1.02432 F1800 ; Print pattern wall
G1 E-0.8 F3600 ; Retract
G1 Z0.35 F7200 ; Z hop
G0 X205.8746 Y123.3992 F7200 ; Move to next pattern
G1 Z0.25 F7200 ; Z hop return
G1 E0.8 F3600 ; Un-retract
SET_PRESSURE_ADVANCE ADVANCE=0.019 ; Set pressure advance
M117 PA 0.019
G1 X225.1955 Y142.72 E1.02432 F1800 ; Print pattern wall
G1 X205.8746 Y162.0408 E1.02432 F1800 ; Print pattern wall
G1 E-0.8 F3600 ; Retract
G1 Z0.35 F7200 ; Z hop
G0 X206.4503 Y123.3992 F7200 ; Move to start next pattern wall
G1 Z0.25 F7200 ; Z hop return
G1 E0.8 F3600 ; Un-retract
G1 X225.7712 Y142.72 E1.02432 F1800 ; Print pattern wall
G1 X206.4503 Y162.0408 E1.02432 F1800 ; Print pattern wall
G1 E-0.8 F3600 ; Retract
G1 Z0.35 F7200 ; Z hop
G0 X207.026 Y123.3992 F7200 ; Move to start next pattern wall
G1 Z0.25 F7200 ; Z hop return
G1 E0.8 F3600 ; Un-retract
G1 X226.3469 Y142.72 E1.02432 F1800 ; Print pattern wall
G1 X207.026 Y162.0408 E1.02432 F1800 ; Print pattern wall
G1 E-0.8 F3600 ; Retract
G1 Z0.35 F7200 ; Z hop
G0 X209.476 Y123.3992 F7200 ; Move to next pattern
G1 Z0.25 F7200 ; Z hop return
G1 E0.8 F3600 ; Un-retract
SET_PRESSURE_ADVANCE ADVANCE=0.0195 ; Set pressure advance
M117 PA 0.0195
G1 X228.7969 Y142.72 E1.02432 F1800 ; Print pattern wall
G1 X209.476 Y162.0408 E1.02432 F1800 ; Print pattern wall
G1 E-0.8 F3600 ; Retract
G1 Z0.35 F7200 ; Z hop
G0 X210.0517 Y123.3992 F7200 ; Move to start next pattern wall
G1 Z0.25 F7200 ; Z hop return
G1 E0.8 F3600 ; Un-retract
G1 X229.3726 Y142.72 E1.02432 F1800 ; Print pattern wall
G1 X210.0517 Y162.0408 E1.02432 F1800 ; Print pattern wall
G1 E-0.8 F3600 ; Retract
G1 Z0.35 F7200 ; Z hop
G0 X210.6274 Y123.3992 F7200 ; Move to start next pattern wall
G1 Z0.25 F7200 ; Z hop return
G1 E0.8 F3600 ; Un-retract
G1 X229.9483 Y142.72 E1.02432 F1800 ; Print pattern wall
G1 X210.6274 Y162.0408 E1.02432 F1800 ; Print pattern wall
G1 E-0.8 F3600 ; Retract
G1 Z0.35 F7200 ; Z hop
G0 X213.0774 Y123.3992 F7200 ; Move to next pattern
G1 Z0.25 F7200 ; Z hop return
G1 E0.8 F3600 ; Un-retract
SET_PRESSURE_ADVANCE ADVANCE=0.02 ; Set pressure advance
M117 PA 0.02
G1 X232.3983 Y142.72 E1.02432 F1800 ; Print pattern wall
G1 X213.0774 Y162.0408 E1.02432 F1800 ; Print pattern wall
G1 E-0.8 F3600 ; Retract
G1 Z0.35 F7200 ; Z hop
G0 X213.6531 Y123.3992 F7200 ; Move to start next pattern wall
G1 Z0.25 F7200 ; Z hop return
G1 E0.8 F3600 ; Un-retract
G1 X232.974 Y142.72 E1.02432 F1800 ; Print pattern wall
G1 X213.6531 Y162.0408 E1.02432 F1800 ; Print pattern wall
G1 E-0.8 F3600 ; Retract
G1 Z0.35 F7200 ; Z hop
G0 X214.2288 Y123.3992 F7200 ; Move to start next pattern wall
G1 Z0.25 F7200 ; Z hop return
G1 E0.8 F3600 ; Un-retract
G1 X233.5497 Y142.72 E1.02432 F1800 ; Print pattern wall
G1 X214.2288 Y162.0408 E1.02432 F1800 ; Print pattern wall
G1 E-0.8 F3600 ; Retract
G1 Z0.35 F7200 ; Z hop
G0 X69.0216 Y123.3992 F7200 ; Move back to start position
G1 Z0.25 F7200 ; Z hop return
G1 E0.8 F3600 ; Un-retract
M106 S255 ; Set fan speed
G0 Z0.45 F7200 ; Move to layer height
SET_PRESSURE_ADVANCE ADVANCE=0 ; Set pressure advance to start value for numbering
M117 PA 0
G1 E-0.8 F3600 ; Retract
G1 Z0.55 F7200 ; Z hop
G0 X65.7049 Y165.3832 F7200 ; Move
G1 Z0.45 F7200 ; Z hop return
G1 E0.8 F3600 ; Un-retract
G1 X67.7049 Y165.3832 E0.0616 F1800 ; Glyph: 0
G1 X69.7049 Y165.3832 E0.0616 F1800 ; Glyph: 0
G1 X69.7049 Y167.3832 E0.0616 F1800 ; Glyph: 0
G1 X67.7049 Y167.3832 E0.0616 F1800 ; Glyph: 0
G1 X65.7049 Y167.3832 E0.0616 F1800 ; Glyph: 0
G1 X65.7049 Y165.3832 E0.0616 F1800 ; Glyph: 0
G1 E-0.8 F3600 ; Retract
G1 Z0.55 F7200 ; Z hop
G0 X72.9077 Y165.3832 F7200 ; Move
G1 Z0.45 F7200 ; Z hop return
G1 E0.8 F3600 ; Un-retract
G1 X74.9077 Y165.3832 E0.0616 F1800 ; Glyph: 0
G1 X76.9077 Y165.3832 E0.0616 F1800 ; Glyph: 0
G1 X76.9077 Y167.3832 E0.0616 F1800 ; Glyph: 0
G1 X74.9077 Y167.3832 E0.0616 F1800 ; Glyph: 0
G1 X72.9077 Y167.3832 E0.0616 F1800 ; Glyph: 0
G1 X72.9077 Y165.3832 E0.0616 F1800 ; Glyph: 0
G1 E-0.8 F3600 ; Retract
G1 Z0.55 F7200 ; Z hop
G0 X76.9077 Y168.3832 F7200 ; Move
G1 Z0.45 F7200 ; Z hop return
G1 E0.8 F3600 ; Un-retract
G1 X76.1577 Y168.3832 E0.0231 F1800 ; Glyph: .
G1 E-0.8 F3600 ; Retract
G1 Z0.55 F7200 ; Z hop
G0 X72.9077 Y169.3832 F7200 ; Move
G1 Z0.45 F7200 ; Z hop return
G1 E0.8 F3600 ; Un-retract
G1 X74.9077 Y169.3832 E0.0616 F1800 ; Glyph: 0
G1 X76.9077 Y169.3832 E0.0616 F1800 ; Glyph: 0
G1 X76.9077 Y171.3832 E0.0616 F1800 ; Glyph: 0
G1 X74.9077 Y171.3832 E0.0616 F1800 ; Glyph: 0
G1 X72.9077 Y171.3832 E0.0616 F1800 ; Glyph: 0
G1 X72.9077 Y169.3832 E0.0616 F1800 ; Glyph: 0
G1 E-0.8 F3600 ; Retract
G1 Z0.55 F7200 ; Z hop
G0 X72.9077 Y172.3832 F7200 ; Move
G1 Z0.45 F7200 ; Z hop return
G1 E0.8 F3600 ; Un-retract
G1 X74.9077 Y172.3832 E0.0616 F1800 ; Glyph: 0
G1 X76.9077 Y172.3832 E0.0616 F1800 ; Glyph: 0
G1 X76.9077 Y174.3832 E0.0616 F1800 ; Glyph: 0
G1 X74.9077 Y174.3832 E0.0616 F1800 ; Glyph: 0
G1 X72.9077 Y174.3832 E0.0616 F1800 ; Glyph: 0
G1 X72.9077 Y172.3832 E0.0616 F1800 ; Glyph: 0
G1 E-0.8 F3600 ; Retract
G1 Z0.55 F7200 ; Z hop
G0 X72.9077 Y175.3832 F7200 ; Move
G1 Z0.45 F7200 ; Z hop return
G1 E0.8 F3600 ; Un-retract
G1 X74.9077 Y175.3832 E0.0616 F1800 ; Glyph: 1
G1 X76.9077 Y175.3832 E0.0616 F1800 ; Glyph: 1
G1 E-0.8 F3600 ; Retract
G1 Z0.55 F7200 ; Z hop
G0 X80.1105 Y165.3832 F7200 ; Move
G1 Z0.45 F7200 ; Z hop return
G1 E0.8 F3600 ; Un-retract
G1 X82.1105 Y165.3832 E0.0616 F1800 ; Glyph: 0
G1 X84.1105 Y165.3832 E0.0616 F1800 ; Glyph: 0
G1 X84.1105 Y167.3832 E0.0616 F1800 ; Glyph: 0
G1 X82.1105 Y167.3832 E0.0616 F1800 ; Glyph: 0
G1 X80.1105 Y167.3832 E0.0616 F1800 ; Glyph: 0
G1 X80.1105 Y165.3832 E0.0616 F1800 ; Glyph: 0
G1 E-0.8 F3600 ; Retract
G1 Z0.55 F7200 ; Z hop
G0 X84.1105 Y168.3832 F7200 ; Move
G1 Z0.45 F7200 ; Z hop return
G1 E0.8 F3600 ; Un-retract
G1 X83.3605 Y168.3832 E0.0231 F1800 ; Glyph: .
G1 E-0.8 F3600 ; Retract
G1 Z0.55 F7200 ; Z hop
G0 X80.1105 Y169.3832 F7200 ; Move
G1 Z0.45 F7200 ; Z hop return
G1 E0.8 F3600 ; Un-retract
G1 X82.1105 Y169.3832 E0.0616 F1800 ; Glyph: 0
G1 X84.1105 Y169.3832 E0.0616 F1800 ; Glyph: 0
G1 X84.1105 Y171.3832 E0.0616 F1800 ; Glyph: 0
G1 X82.1105 Y171.3832 E0.0616 F1800 ; Glyph: 0
G1 X80.1105 Y171.3832 E0.0616 F1800 ; Glyph: 0
G1 X80.1105 Y169.3832 E0.0616 F1800 ; Glyph: 0
G1 E-0.8 F3600 ; Retract
G1 Z0.55 F7200 ; Z hop
G0 X80.1105 Y172.3832 F7200 ; Move
G1 Z0.45 F7200 ; Z hop return
G1 E0.8 F3600 ; Un-retract
G1 X82.1105 Y172.3832 E0.0616 F1800 ; Glyph: 0
G1 X84.1105 Y172.3832 E0.0616 F1800 ; Glyph: 0
G1 X84.1105 Y174.3832 E0.0616 F1800 ; Glyph: 0
G1 X82.1105 Y174.3832 E0.0616 F1800 ; Glyph: 0
G1 X80.1105 Y174.3832 E0.0616 F1800 ; Glyph: 0
G1 X80.1105 Y172.3832 E0.0616 F1800 ; Glyph: 0
G1 E-0.8 F3600 ; Retract
G1 Z0.55 F7200 ; Z hop
G0 X80.1105 Y175.3832 F7200 ; Move
G1 Z0.45 F7200 ; Z hop return
G1 E0.8 F3600 ; Un-retract
G1 X80.1105 Y177.3832 E0.0616 F1800 ; Glyph: 2
G1 X82.1105 Y177.3832 E0.0616 F1800 ; Glyph: 2
G1 X82.1105 Y175.3832 E0.0616 F1800 ; Glyph: 2
G1 X84.1105 Y175.3832 E0.0616 F1800 ; Glyph: 2
G1 X84.1105 Y177.3832 E0.0616 F1800 ; Glyph: 2
G1 E-0.8 F3600 ; Retract
G1 Z0.55 F7200 ; Z hop
G0 X87.3133 Y165.3832 F7200 ; Move
G1 Z0.45 F7200 ; Z hop return
G1 E0.8 F3600 ; Un-retract
G1 X89.3133 Y165.3832 E0.0616 F1800 ; Glyph: 0
G1 X91.3133 Y165.3832 E0.0616 F1800 ; Glyph: 0
G1 X91.3133 Y167.3832 E0.0616 F1800 ; Glyph: 0
G1 X89.3133 Y167.3832 E0.0616 F1800 ; Glyph: 0
G1 X87.3133 Y167.3832 E0.0616 F1800 ; Glyph: 0
G1 X87.3133 Y165.3832 E0.0616 F1800 ; Glyph: 0
G1 E-0.8 F3600 ; Retract
G1 Z0.55 F7200 ; Z hop
G0 X91.3133 Y168.3832 F7200 ; Move
G1 Z0.45 F7200 ; Z hop return
G1 E0.8 F3600 ; Un-retract
G1 X90.5633 Y168.3832 E0.0231 F1800 ; Glyph: .
G1 E-0.8 F3600 ; Retract
G1 Z0.55 F7200 ; Z hop
G0 X87.3133 Y169.3832 F7200 ; Move
G1 Z0.45 F7200 ; Z hop return
G1 E0.8 F3600 ; Un-retract
G1 X89.3133 Y169.3832 E0.0616 F1800 ; Glyph: 0
G1 X91.3133 Y169.3832 E0.0616 F1800 ; Glyph: 0
G1 X91.3133 Y171.3832 E0.0616 F1800 ; Glyph: 0
G1 X89.3133 Y171.3832 E0.0616 F1800 ; Glyph: 0
G1 X87.3133 Y171.3832 E0.0616 F1800 ; Glyph: 0
G1 X87.3133 Y169.3832 E0.0616 F1800 ; Glyph: 0
G1 E-0.8 F3600 ; Retract
G1 Z0.55 F7200 ; Z hop
G0 X87.3133 Y172.3832 F7200 ; Move
G1 Z0.45 F7200 ; Z hop return
G1 E0.8 F3600 ; Un-retract
G1 X89.3133 Y172.3832 E0.0616 F1800 ; Glyph: 0
G1 X91.3133 Y172.3832 E0.0616 F1800 ; Glyph: 0
G1 X91.3133 Y174.3832 E0.0616 F1800 ; Glyph: 0
G1 X89.3133 Y174.3832 E0.0616 F1800 ; Glyph: 0
G1 X87.3133 Y174.3832 E0.0616 F1800 ; Glyph: 0
G1 X87.3133 Y172.3832 E0.0616 F1800 ; Glyph: 0
G1 E-0.8 F3600 ; Retract
G1 Z0.55 F7200 ; Z hop
G0 X87.3133 Y175.3832 F7200 ; Move
G1 Z0.45 F7200 ; Z hop return
G1 E0.8 F3600 ; Un-retract
G1 X87.3133 Y177.3832 E0.0616 F1800 ; Glyph: 3
G1 X89.3133 Y177.3832 E0.0616 F1800 ; Glyph: 3
G1 X89.3133 Y175.3832 E0.0616 F1800 ; Glyph: 3
G0 X89.3133 Y177.3832 F7200 ; Move
G1 X91.3133 Y177.3832 E0.0616 F1800 ; Glyph: 3
G1 X91.3133 Y175.3832 E0.0616 F1800 ; Glyph: 3
G1 E-0.8 F3600 ; Retract
G1 Z0.55 F7200 ; Z hop
G0 X94.5161 Y165.3832 F7200 ; Move
G1 Z0.45 F7200 ; Z hop return
G1 E0.8 F3600 ; Un-retract
G1 X96.5161 Y165.3832 E0.0616 F1800 ; Glyph: 0
G1 X98.5161 Y165.3832 E0.0616 F1800 ; Glyph: 0
G1 X98.5161 Y167.3832 E0.0616 F1800 ; Glyph: 0
G1 X96.5161 Y167.3832 E0.0616 F1800 ; Glyph: 0
G1 X94.5161 Y167.3832 E0.0616 F1800 ; Glyph: 0
G1 X94.5161 Y165.3832 E0.0616 F1800 ; Glyph: 0
G1 E-0.8 F3600 ; Retract
G1 Z0.55 F7200 ; Z hop
G0 X98.5161 Y168.3832 F7200 ; Move
G1 Z0.45 F7200 ; Z hop return
G1 E0.8 F3600 ; Un-retract
G1 X97.7661 Y168.3832 E0.0231 F1800 ; Glyph: .
G1 E-0.8 F3600 ; Retract
G1 Z0.55 F7200 ; Z hop
G0 X94.5161 Y169.3832 F7200 ; Move
G1 Z0.45 F7200 ; Z hop return
G1 E0.8 F3600 ; Un-retract
G1 X96.5161 Y169.3832 E0.0616 F1800 ; Glyph: 0
G1 X98.5161 Y169.3832 E0.0616 F1800 ; Glyph: 0
G1 X98.5161 Y171.3832 E0.0616 F1800 ; Glyph: 0
G1 X96.5161 Y171.3832 E0.0616 F1800 ; Glyph: 0
G1 X94.5161 Y171.3832 E0.0616 F1800 ; Glyph: 0
G1 X94.5161 Y169.3832 E0.0616 F1800 ; Glyph: 0
G1 E-0.8 F3600 ; Retract
G1 Z0.55 F7200 ; Z hop
G0 X94.5161 Y172.3832 F7200 ; Move
G1 Z0.45 F7200 ; Z hop return
G1 E0.8 F3600 ; Un-retract
G1 X96.5161 Y172.3832 E0.0616 F1800 ; Glyph: 0
G1 X98.5161 Y172.3832 E0.0616 F1800 ; Glyph: 0
G1 X98.5161 Y174.3832 E0.0616 F1800 ; Glyph: 0
G1 X96.5161 Y174.3832 E0.0616 F1800 ; Glyph: 0
G1 X94.5161 Y174.3832 E0.0616 F1800 ; Glyph: 0
G1 X94.5161 Y172.3832 E0.0616 F1800 ; Glyph: 0
G1 E-0.8 F3600 ; Retract
G1 Z0.55 F7200 ; Z hop
G0 X94.5161 Y177.3832 F7200 ; Move
G1 Z0.45 F7200 ; Z hop return
G1 E0.8 F3600 ; Un-retract
G1 X96.5161 Y177.3832 E0.0616 F1800 ; Glyph: 4
G1 X98.5161 Y177.3832 E0.0616 F1800 ; Glyph: 4
G0 X96.5161 Y177.3832 F7200 ; Move
G1 X96.5161 Y175.3832 E0.0616 F1800 ; Glyph: 4
G1 X94.5161 Y175.3832 E0.0616 F1800 ; Glyph: 4
G1 E-0.8 F3600 ; Retract
G1 Z0.55 F7200 ; Z hop
G0 X101.7189 Y165.3832 F7200 ; Move
G1 Z0.45 F7200 ; Z hop return
G1 E0.8 F3600 ; Un-retract
G1 X103.7189 Y165.3832 E0.0616 F1800 ; Glyph: 0
G1 X105.7189 Y165.3832 E0.0616 F1800 ; Glyph: 0
G1 X105.7189 Y167.3832 E0.0616 F1800 ; Glyph: 0
G1 X103.7189 Y167.3832 E0.0616 F1800 ; Glyph: 0
G1 X101.7189 Y167.3832 E0.0616 F1800 ; Glyph: 0
G1 X101.7189 Y165.3832 E0.0616 F1800 ; Glyph: 0
G1 E-0.8 F3600 ; Retract
G1 Z0.55 F7200 ; Z hop
G0 X105.7189 Y168.3832 F7200 ; Move
G1 Z0.45 F7200 ; Z hop return
G1 E0.8 F3600 ; Un-retract
G1 X104.9689 Y168.3832 E0.0231 F1800 ; Glyph: .
G1 E-0.8 F3600 ; Retract
G1 Z0.55 F7200 ; Z hop
G0 X101.7189 Y169.3832 F7200 ; Move
G1 Z0.45 F7200 ; Z hop return
G1 E0.8 F3600 ; Un-retract
G1 X103.7189 Y169.3832 E0.0616 F1800 ; Glyph: 0
G1 X105.7189 Y169.3832 E0.0616 F1800 ; Glyph: 0
G1 X105.7189 Y171.3832 E0.0616 F1800 ; Glyph: 0
G1 X103.7189 Y171.3832 E0.0616 F1800 ; Glyph: 0
G1 X101.7189 Y171.3832 E0.0616 F1800 ; Glyph: 0
G1 X101.7189 Y169.3832 E0.0616 F1800 ; Glyph: 0
G1 E-0.8 F3600 ; Retract
G1 Z0.55 F7200 ; Z hop
G0 X101.7189 Y172.3832 F7200 ; Move
G1 Z0.45 F7200 ; Z hop return
G1 E0.8 F3600 ; Un-retract
G1 X103.7189 Y172.3832 E0.0616 F1800 ; Glyph: 0
G1 X105.7189 Y172.3832 E0.0616 F1800 ; Glyph: 0
G1 X105.7189 Y174.3832 E0.0616 F1800 ; Glyph: 0
G1 X103.7189 Y174.3832 E0.0616 F1800 ; Glyph: 0
G1 X101.7189 Y174.3832 E0.0616 F1800 ; Glyph: 0
G1 X101.7189 Y172.3832 E0.0616 F1800 ; Glyph: 0
G1 E-0.8 F3600 ; Retract
G1 Z0.55 F7200 ; Z hop
G0 X101.7189 Y177.3832 F7200 ; Move
G1 Z0.45 F7200 ; Z hop return
G1 E0.8 F3600 ; Un-retract
G1 X101.7189 Y175.3832 E0.0616 F1800 ; Glyph: 5
G1 X103.7189 Y175.3832 E0.0616 F1800 ; Glyph: 5
G1 X103.7189 Y177.3832 E0.0616 F1800 ; Glyph: 5
G1 X105.7189 Y177.3832 E0.0616 F1800 ; Glyph: 5
G1 X105.7189 Y175.3832 E0.0616 F1800 ; Glyph: 5
G1 E-0.8 F3600 ; Retract
G1 Z0.55 F7200 ; Z hop
G0 X108.9217 Y165.3832 F7200 ; Move
G1 Z0.45 F7200 ; Z hop return
G1 E0.8 F3600 ; Un-retract
G1 X110.9217 Y165.3832 E0.0616 F1800 ; Glyph: 0
G1 X112.9217 Y165.3832 E0.0616 F1800 ; Glyph: 0
G1 X112.9217 Y167.3832 E0.0616 F1800 ; Glyph: 0
G1 X110.9217 Y167.3832 E0.0616 F1800 ; Glyph: 0
G1 X108.9217 Y167.3832 E0.0616 F1800 ; Glyph: 0
G1 X108.9217 Y165.3832 E0.0616 F1800 ; Glyph: 0
G1 E-0.8 F3600 ; Retract
G1 Z0.55 F7200 ; Z hop
G0 X112.9217 Y168.3832 F7200 ; Move
G1 Z0.45 F7200 ; Z hop return
G1 E0.8 F3600 ; Un-retract
G1 X112.1717 Y168.3832 E0.0231 F1800 ; Glyph: .
G1 E-0.8 F3600 ; Retract
G1 Z0.55 F7200 ; Z hop
G0 X108.9217 Y169.3832 F7200 ; Move
G1 Z0.45 F7200 ; Z hop return
G1 E0.8 F3600 ; Un-retract
G1 X110.9217 Y169.3832 E0.0616 F1800 ; Glyph: 0
G1 X112.9217 Y169.3832 E0.0616 F1800 ; Glyph: 0
G1 X112.9217 Y171.3832 E0.0616 F1800 ; Glyph: 0
G1 X110.9217 Y171.3832 E0.0616 F1800 ; Glyph: 0
G1 X108.9217 Y171.3832 E0.0616 F1800 ; Glyph: 0
G1 X108.9217 Y169.3832 E0.0616 F1800 ; Glyph: 0
G1 E-0.8 F3600 ; Retract
G1 Z0.55 F7200 ; Z hop
G0 X108.9217 Y172.3832 F7200 ; Move
G1 Z0.45 F7200 ; Z hop return
G1 E0.8 F3600 ; Un-retract
G1 X110.9217 Y172.3832 E0.0616 F1800 ; Glyph: 0
G1 X112.9217 Y172.3832 E0.0616 F1800 ; Glyph: 0
G1 X112.9217 Y174.3832 E0.0616 F1800 ; Glyph: 0
G1 X110.9217 Y174.3832 E0.0616 F1800 ; Glyph: 0
G1 X108.9217 Y174.3832 E0.0616 F1800 ; Glyph: 0
G1 X108.9217 Y172.3832 E0.0616 F1800 ; Glyph: 0
G1 E-0.8 F3600 ; Retract
G1 Z0.55 F7200 ; Z hop
G0 X108.9217 Y177.3832 F7200 ; Move
G1 Z0.45 F7200 ; Z hop return
G1 E0.8 F3600 ; Un-retract
G1 X108.9217 Y175.3832 E0.0616 F1800 ; Glyph: 6
G1 X110.9217 Y175.3832 E0.0616 F1800 ; Glyph: 6
G1 X112.9217 Y175.3832 E0.0616 F1800 ; Glyph: 6
G1 X112.9217 Y177.3832 E0.0616 F1800 ; Glyph: 6
G1 X110.9217 Y177.3832 E0.0616 F1800 ; Glyph: 6
G1 X110.9217 Y175.3832 E0.0616 F1800 ; Glyph: 6
G1 E-0.8 F3600 ; Retract
G1 Z0.55 F7200 ; Z hop
G0 X116.1245 Y165.3832 F7200 ; Move
G1 Z0.45 F7200 ; Z hop return
G1 E0.8 F3600 ; Un-retract
G1 X118.1245 Y165.3832 E0.0616 F1800 ; Glyph: 0
G1 X120.1245 Y165.3832 E0.0616 F1800 ; Glyph: 0
G1 X120.1245 Y167.3832 E0.0616 F1800 ; Glyph: 0
G1 X118.1245 Y167.3832 E0.0616 F1800 ; Glyph: 0
G1 X116.1245 Y167.3832 E0.0616 F1800 ; Glyph: 0
G1 X116.1245 Y165.3832 E0.0616 F1800 ; Glyph: 0
G1 E-0.8 F3600 ; Retract
G1 Z0.55 F7200 ; Z hop
G0 X120.1245 Y168.3832 F7200 ; Move
G1 Z0.45 F7200 ; Z hop return
G1 E0.8 F3600 ; Un-retract
G1 X119.3745 Y168.3832 E0.0231 F1800 ; Glyph: .
G1 E-0.8 F3600 ; Retract
G1 Z0.55 F7200 ; Z hop
G0 X116.1245 Y169.3832 F7200 ; Move
G1 Z0.45 F7200 ; Z hop return
G1 E0.8 F3600 ; Un-retract
G1 X118.1245 Y169.3832 E0.0616 F1800 ; Glyph: 0
G1 X120.1245 Y169.3832 E0.0616 F1800 ; Glyph: 0
G1 X120.1245 Y171.3832 E0.0616 F1800 ; Glyph: 0
G1 X118.1245 Y171.3832 E0.0616 F1800 ; Glyph: 0
G1 X116.1245 Y171.3832 E0.0616 F1800 ; Glyph: 0
G1 X116.1245 Y169.3832 E0.0616 F1800 ; Glyph: 0
G1 E-0.8 F3600 ; Retract
G1 Z0.55 F7200 ; Z hop
G0 X116.1245 Y172.3832 F7200 ; Move
G1 Z0.45 F7200 ; Z hop return
G1 E0.8 F3600 ; Un-retract
G1 X118.1245 Y172.3832 E0.0616 F1800 ; Glyph: 0
G1 X120.1245 Y172.3832 E0.0616 F1800 ; Glyph: 0
G1 X120.1245 Y174.3832 E0.0616 F1800 ; Glyph: 0
G1 X118.1245 Y174.3832 E0.0616 F1800 ; Glyph: 0
G1 X116.1245 Y174.3832 E0.0616 F1800 ; Glyph: 0
G1 X116.1245 Y172.3832 E0.0616 F1800 ; Glyph: 0
G1 E-0.8 F3600 ; Retract
G1 Z0.55 F7200 ; Z hop
G0 X116.1245 Y175.3832 F7200 ; Move
G1 Z0.45 F7200 ; Z hop return
G1 E0.8 F3600 ; Un-retract
G1 X116.1245 Y177.3832 E0.0616 F1800 ; Glyph: 7
G1 X118.1245 Y177.3832 E0.0616 F1800 ; Glyph: 7
G1 X120.1245 Y177.3832 E0.0616 F1800 ; Glyph: 7
G1 E-0.8 F3600 ; Retract
G1 Z0.55 F7200 ; Z hop
G0 X123.3273 Y165.3832 F7200 ; Move
G1 Z0.45 F7200 ; Z hop return
G1 E0.8 F3600 ; Un-retract
G1 X125.3273 Y165.3832 E0.0616 F1800 ; Glyph: 0
G1 X127.3273 Y165.3832 E0.0616 F1800 ; Glyph: 0
G1 X127.3273 Y167.3832 E0.0616 F1800 ; Glyph: 0
G1 X125.3273 Y167.3832 E0.0616 F1800 ; Glyph: 0
G1 X123.3273 Y167.3832 E0.0616 F1800 ; Glyph: 0
G1 X123.3273 Y165.3832 E0.0616 F1800 ; Glyph: 0
G1 E-0.8 F3600 ; Retract
G1 Z0.55 F7200 ; Z hop
G0 X127.3273 Y168.3832 F7200 ; Move
G1 Z0.45 F7200 ; Z hop return
G1 E0.8 F3600 ; Un-retract
G1 X126.5773 Y168.3832 E0.0231 F1800 ; Glyph: .
G1 E-0.8 F3600 ; Retract
G1 Z0.55 F7200 ; Z hop
G0 X123.3273 Y169.3832 F7200 ; Move
G1 Z0.45 F7200 ; Z hop return
G1 E0.8 F3600 ; Un-retract
G1 X125.3273 Y169.3832 E0.0616 F1800 ; Glyph: 0
G1 X127.3273 Y169.3832 E0.0616 F1800 ; Glyph: 0
G1 X127.3273 Y171.3832 E0.0616 F1800 ; Glyph: 0
G1 X125.3273 Y171.3832 E0.0616 F1800 ; Glyph: 0
G1 X123.3273 Y171.3832 E0.0616 F1800 ; Glyph: 0
G1 X123.3273 Y169.3832 E0.0616 F1800 ; Glyph: 0
G1 E-0.8 F3600 ; Retract
G1 Z0.55 F7200 ; Z hop
G0 X123.3273 Y172.3832 F7200 ; Move
G1 Z0.45 F7200 ; Z hop return
G1 E0.8 F3600 ; Un-retract
G1 X125.3273 Y172.3832 E0.0616 F1800 ; Glyph: 0
G1 X127.3273 Y172.3832 E0.0616 F1800 ; Glyph: 0
G1 X127.3273 Y174.3832 E0.0616 F1800 ; Glyph: 0
G1 X125.3273 Y174.3832 E0.0616 F1800 ; Glyph: 0
G1 X123.3273 Y174.3832 E0.0616 F1800 ; Glyph: 0
G1 X123.3273 Y172.3832 E0.0616 F1800 ; Glyph: 0
G1 E-0.8 F3600 ; Retract
G1 Z0.55 F7200 ; Z hop
G0 X123.3273 Y175.3832 F7200 ; Move
G1 Z0.45 F7200 ; Z hop return
G1 E0.8 F3600 ; Un-retract
G1 X125.3273 Y175.3832 E0.0616 F1800 ; Glyph: 8
G1 X127.3273 Y175.3832 E0.0616 F1800 ; Glyph: 8
G1 X127.3273 Y177.3832 E0.0616 F1800 ; Glyph: 8
G1 X125.3273 Y177.3832 E0.0616 F1800 ; Glyph: 8
G1 X123.3273 Y177.3832 E0.0616 F1800 ; Glyph: 8
G1 X123.3273 Y175.3832 E0.0616 F1800 ; Glyph: 8
G0 X125.3273 Y175.3832 F7200 ; Move
G1 X125.3273 Y177.3832 E0.0616 F1800 ; Glyph: 8
G1 E-0.8 F3600 ; Retract
G1 Z0.55 F7200 ; Z hop
G0 X130.5301 Y165.3832 F7200 ; Move
G1 Z0.45 F7200 ; Z hop return
G1 E0.8 F3600 ; Un-retract
G1 X132.5301 Y165.3832 E0.0616 F1800 ; Glyph: 0
G1 X134.5301 Y165.3832 E0.0616 F1800 ; Glyph: 0
G1 X134.5301 Y167.3832 E0.0616 F1800 ; Glyph: 0
G1 X132.5301 Y167.3832 E0.0616 F1800 ; Glyph: 0
G1 X130.5301 Y167.3832 E0.0616 F1800 ; Glyph: 0
G1 X130.5301 Y165.3832 E0.0616 F1800 ; Glyph: 0
G1 E-0.8 F3600 ; Retract
G1 Z0.55 F7200 ; Z hop
G0 X134.5301 Y168.3832 F7200 ; Move
G1 Z0.45 F7200 ; Z hop return
G1 E0.8 F3600 ; Un-retract
G1 X133.7801 Y168.3832 E0.0231 F1800 ; Glyph: .
G1 E-0.8 F3600 ; Retract
G1 Z0.55 F7200 ; Z hop
G0 X130.5301 Y169.3832 F7200 ; Move
G1 Z0.45 F7200 ; Z hop return
G1 E0.8 F3600 ; Un-retract
G1 X132.5301 Y169.3832 E0.0616 F1800 ; Glyph: 0
G1 X134.5301 Y169.3832 E0.0616 F1800 ; Glyph: 0
G1 X134.5301 Y171.3832 E0.0616 F1800 ; Glyph: 0
G1 X132.5301 Y171.3832 E0.0616 F1800 ; Glyph: 0
G1 X130.5301 Y171.3832 E0.0616 F1800 ; Glyph: 0
G1 X130.5301 Y169.3832 E0.0616 F1800 ; Glyph: 0
G1 E-0.8 F3600 ; Retract
G1 Z0.55 F7200 ; Z hop
G0 X130.5301 Y172.3832 F7200 ; Move
G1 Z0.45 F7200 ; Z hop return
G1 E0.8 F3600 ; Un-retract
G1 X132.5301 Y172.3832 E0.0616 F1800 ; Glyph: 0
G1 X134.5301 Y172.3832 E0.0616 F1800 ; Glyph: 0
G1 X134.5301 Y174.3832 E0.0616 F1800 ; Glyph: 0
G1 X132.5301 Y174.3832 E0.0616 F1800 ; Glyph: 0
G1 X130.5301 Y174.3832 E0.0616 F1800 ; Glyph: 0
G1 X130.5301 Y172.3832 E0.0616 F1800 ; Glyph: 0
G1 E-0.8 F3600 ; Retract
G1 Z0.55 F7200 ; Z hop
G0 X134.5301 Y175.3832 F7200 ; Move
G1 Z0.45 F7200 ; Z hop return
G1 E0.8 F3600 ; Un-retract
G1 X134.5301 Y177.3832 E0.0616 F1800 ; Glyph: 9
G1 X132.5301 Y177.3832 E0.0616 F1800 ; Glyph: 9
G1 X130.5301 Y177.3832 E0.0616 F1800 ; Glyph: 9
G1 X130.5301 Y175.3832 E0.0616 F1800 ; Glyph: 9
G1 X132.5301 Y175.3832 E0.0616 F1800 ; Glyph: 9
G1 X132.5301 Y177.3832 E0.0616 F1800 ; Glyph: 9
G1 E-0.8 F3600 ; Retract
G1 Z0.55 F7200 ; Z hop
G0 X137.7329 Y165.3832 F7200 ; Move
G1 Z0.45 F7200 ; Z hop return
G1 E0.8 F3600 ; Un-retract
G1 X139.7329 Y165.3832 E0.0616 F1800 ; Glyph: 0
G1 X141.7329 Y165.3832 E0.0616 F1800 ; Glyph: 0
G1 X141.7329 Y167.3832 E0.0616 F1800 ; Glyph: 0
G1 X139.7329 Y167.3832 E0.0616 F1800 ; Glyph: 0
G1 X137.7329 Y167.3832 E0.0616 F1800 ; Glyph: 0
G1 X137.7329 Y165.3832 E0.0616 F1800 ; Glyph: 0
G1 E-0.8 F3600 ; Retract
G1 Z0.55 F7200 ; Z hop
G0 X141.7329 Y168.3832 F7200 ; Move
G1 Z0.45 F7200 ; Z hop return
G1 E0.8 F3600 ; Un-retract
G1 X140.9829 Y168.3832 E0.0231 F1800 ; Glyph: .
G1 E-0.8 F3600 ; Retract
G1 Z0.55 F7200 ; Z hop
G0 X137.7329 Y169.3832 F7200 ; Move
G1 Z0.45 F7200 ; Z hop return
G1 E0.8 F3600 ; Un-retract
G1 X139.7329 Y169.3832 E0.0616 F1800 ; Glyph: 0
G1 X141.7329 Y169.3832 E0.0616 F1800 ; Glyph: 0
G1 X141.7329 Y171.3832 E0.0616 F1800 ; Glyph: 0
G1 X139.7329 Y171.3832 E0.0616 F1800 ; Glyph: 0
G1 X137.7329 Y171.3832 E0.0616 F1800 ; Glyph: 0
G1 X137.7329 Y169.3832 E0.0616 F1800 ; Glyph: 0
G1 E-0.8 F3600 ; Retract
G1 Z0.55 F7200 ; Z hop
G0 X137.7329 Y172.3832 F7200 ; Move
G1 Z0.45 F7200 ; Z hop return
G1 E0.8 F3600 ; Un-retract
G1 X139.7329 Y172.3832 E0.0616 F1800 ; Glyph: 1
G1 X141.7329 Y172.3832 E0.0616 F1800 ; Glyph: 1
G1 E-0.8 F3600 ; Retract
G1 Z0.55 F7200 ; Z hop
G0 X144.9356 Y165.3832 F7200 ; Move
G1 Z0.45 F7200 ; Z hop return
G1 E0.8 F3600 ; Un-retract
G1 X146.9356 Y165.3832 E0.0616 F1800 ; Glyph: 0
G1 X148.9356 Y165.3832 E0.0616 F1800 ; Glyph: 0
G1 X148.9356 Y167.3832 E0.0616 F1800 ; Glyph: 0
G1 X146.9356 Y167.3832 E0.0616 F1800 ; Glyph: 0
G1 X144.9356 Y167.3832 E0.0616 F1800 ; Glyph: 0
G1 X144.9356 Y165.3832 E0.0616 F1800 ; Glyph: 0
G1 E-0.8 F3600 ; Retract
G1 Z0.55 F7200 ; Z hop
G0 X148.9356 Y168.3832 F7200 ; Move
G1 Z0.45 F7200 ; Z hop return
G1 E0.8 F3600 ; Un-retract
G1 X148.1856 Y168.3832 E0.0231 F1800 ; Glyph: .
G1 E-0.8 F3600 ; Retract
G1 Z0.55 F7200 ; Z hop
G0 X144.9356 Y169.3832 F7200 ; Move
G1 Z0.45 F7200 ; Z hop return
G1 E0.8 F3600 ; Un-retract
G1 X146.9356 Y169.3832 E0.0616 F1800 ; Glyph: 0
G1 X148.9356 Y169.3832 E0.0616 F1800 ; Glyph: 0
G1 X148.9356 Y171.3832 E0.0616 F1800 ; Glyph: 0
G1 X146.9356 Y171.3832 E0.0616 F1800 ; Glyph: 0
G1 X144.9356 Y171.3832 E0.0616 F1800 ; Glyph: 0
G1 X144.9356 Y169.3832 E0.0616 F1800 ; Glyph: 0
G1 E-0.8 F3600 ; Retract
G1 Z0.55 F7200 ; Z hop
G0 X144.9356 Y172.3832 F7200 ; Move
G1 Z0.45 F7200 ; Z hop return
G1 E0.8 F3600 ; Un-retract
G1 X146.9356 Y172.3832 E0.0616 F1800 ; Glyph: 1
G1 X148.9356 Y172.3832 E0.0616 F1800 ; Glyph: 1
G1 E-0.8 F3600 ; Retract
G1 Z0.55 F7200 ; Z hop
G0 X144.9356 Y173.3832 F7200 ; Move
G1 Z0.45 F7200 ; Z hop return
G1 E0.8 F3600 ; Un-retract
G1 X146.9356 Y173.3832 E0.0616 F1800 ; Glyph: 1
G1 X148.9356 Y173.3832 E0.0616 F1800 ; Glyph: 1
G1 E-0.8 F3600 ; Retract
G1 Z0.55 F7200 ; Z hop
G0 X152.1384 Y165.3832 F7200 ; Move
G1 Z0.45 F7200 ; Z hop return
G1 E0.8 F3600 ; Un-retract
G1 X154.1384 Y165.3832 E0.0616 F1800 ; Glyph: 0
G1 X156.1384 Y165.3832 E0.0616 F1800 ; Glyph: 0
G1 X156.1384 Y167.3832 E0.0616 F1800 ; Glyph: 0
G1 X154.1384 Y167.3832 E0.0616 F1800 ; Glyph: 0
G1 X152.1384 Y167.3832 E0.0616 F1800 ; Glyph: 0
G1 X152.1384 Y165.3832 E0.0616 F1800 ; Glyph: 0
G1 E-0.8 F3600 ; Retract
G1 Z0.55 F7200 ; Z hop
G0 X156.1384 Y168.3832 F7200 ; Move
G1 Z0.45 F7200 ; Z hop return
G1 E0.8 F3600 ; Un-retract
G1 X155.3884 Y168.3832 E0.0231 F1800 ; Glyph: .
G1 E-0.8 F3600 ; Retract
G1 Z0.55 F7200 ; Z hop
G0 X152.1384 Y169.3832 F7200 ; Move
G1 Z0.45 F7200 ; Z hop return
G1 E0.8 F3600 ; Un-retract
G1 X154.1384 Y169.3832 E0.0616 F1800 ; Glyph: 0
G1 X156.1384 Y169.3832 E0.0616 F1800 ; Glyph: 0
G1 X156.1384 Y171.3832 E0.0616 F1800 ; Glyph: 0
G1 X154.1384 Y171.3832 E0.0616 F1800 ; Glyph: 0
G1 X152.1384 Y171.3832 E0.0616 F1800 ; Glyph: 0
G1 X152.1384 Y169.3832 E0.0616 F1800 ; Glyph: 0
G1 E-0.8 F3600 ; Retract
G1 Z0.55 F7200 ; Z hop
G0 X152.1384 Y172.3832 F7200 ; Move
G1 Z0.45 F7200 ; Z hop return
G1 E0.8 F3600 ; Un-retract
G1 X154.1384 Y172.3832 E0.0616 F1800 ; Glyph: 1
G1 X156.1384 Y172.3832 E0.0616 F1800 ; Glyph: 1
G1 E-0.8 F3600 ; Retract
G1 Z0.55 F7200 ; Z hop
G0 X152.1384 Y173.3832 F7200 ; Move
G1 Z0.45 F7200 ; Z hop return
G1 E0.8 F3600 ; Un-retract
G1 X152.1384 Y175.3832 E0.0616 F1800 ; Glyph: 2
G1 X154.1384 Y175.3832 E0.0616 F1800 ; Glyph: 2
G1 X154.1384 Y173.3832 E0.0616 F1800 ; Glyph: 2
G1 X156.1384 Y173.3832 E0.0616 F1800 ; Glyph: 2
G1 X156.1384 Y175.3832 E0.0616 F1800 ; Glyph: 2
G1 E-0.8 F3600 ; Retract
G1 Z0.55 F7200 ; Z hop
G0 X159.3412 Y165.3832 F7200 ; Move
G1 Z0.45 F7200 ; Z hop return
G1 E0.8 F3600 ; Un-retract
G1 X161.3412 Y165.3832 E0.0616 F1800 ; Glyph: 0
G1 X163.3412 Y165.3832 E0.0616 F1800 ; Glyph: 0
G1 X163.3412 Y167.3832 E0.0616 F1800 ; Glyph: 0
G1 X161.3412 Y167.3832 E0.0616 F1800 ; Glyph: 0
G1 X159.3412 Y167.3832 E0.0616 F1800 ; Glyph: 0
G1 X159.3412 Y165.3832 E0.0616 F1800 ; Glyph: 0
G1 E-0.8 F3600 ; Retract
G1 Z0.55 F7200 ; Z hop
G0 X163.3412 Y168.3832 F7200 ; Move
G1 Z0.45 F7200 ; Z hop return
G1 E0.8 F3600 ; Un-retract
G1 X162.5912 Y168.3832 E0.0231 F1800 ; Glyph: .
G1 E-0.8 F3600 ; Retract
G1 Z0.55 F7200 ; Z hop
G0 X159.3412 Y169.3832 F7200 ; Move
G1 Z0.45 F7200 ; Z hop return
G1 E0.8 F3600 ; Un-retract
G1 X161.3412 Y169.3832 E0.0616 F1800 ; Glyph: 0
G1 X163.3412 Y169.3832 E0.0616 F1800 ; Glyph: 0
G1 X163.3412 Y171.3832 E0.0616 F1800 ; Glyph: 0
G1 X161.3412 Y171.3832 E0.0616 F1800 ; Glyph: 0
G1 X159.3412 Y171.3832 E0.0616 F1800 ; Glyph: 0
G1 X159.3412 Y169.3832 E0.0616 F1800 ; Glyph: 0
G1 E-0.8 F3600 ; Retract
G1 Z0.55 F7200 ; Z hop
G0 X159.3412 Y172.3832 F7200 ; Move
G1 Z0.45 F7200 ; Z hop return
G1 E0.8 F3600 ; Un-retract
G1 X161.3412 Y172.3832 E0.0616 F1800 ; Glyph: 1
G1 X163.3412 Y172.3832 E0.0616 F1800 ; Glyph: 1
G1 E-0.8 F3600 ; Retract
G1 Z0.55 F7200 ; Z hop
G0 X159.3412 Y173.3832 F7200 ; Move
G1 Z0.45 F7200 ; Z hop return
G1 E0.8 F3600 ; Un-retract
G1 X159.3412 Y175.3832 E0.0616 F1800 ; Glyph: 3
G1 X161.3412 Y175.3832 E0.0616 F1800 ; Glyph: 3
G1 X161.3412 Y173.3832 E0.0616 F1800 ; Glyph: 3
G0 X161.3412 Y175.3832 F7200 ; Move
G1 X163.3412 Y175.3832 E0.0616 F1800 ; Glyph: 3
G1 X163.3412 Y173.3832 E0.0616 F1800 ; Glyph: 3
G1 E-0.8 F3600 ; Retract
G1 Z0.55 F7200 ; Z hop
G0 X166.544 Y165.3832 F7200 ; Move
G1 Z0.45 F7200 ; Z hop return
G1 E0.8 F3600 ; Un-retract
G1 X168.544 Y165.3832 E0.0616 F1800 ; Glyph: 0
G1 X170.544 Y165.3832 E0.0616 F1800 ; Glyph: 0
G1 X170.544 Y167.3832 E0.0616 F1800 ; Glyph: 0
G1 X168.544 Y167.3832 E0.0616 F1800 ; Glyph: 0
G1 X166.544 Y167.3832 E0.0616 F1800 ; Glyph: 0
G1 X166.544 Y165.3832 E0.0616 F1800 ; Glyph: 0
G1 E-0.8 F3600 ; Retract
G1 Z0.55 F7200 ; Z hop
G0 X170.544 Y168.3832 F7200 ; Move
G1 Z0.45 F7200 ; Z hop return
G1 E0.8 F3600 ; Un-retract
G1 X169.794 Y168.3832 E0.0231 F1800 ; Glyph: .
G1 E-0.8 F3600 ; Retract
G1 Z0.55 F7200 ; Z hop
G0 X166.544 Y169.3832 F7200 ; Move
G1 Z0.45 F7200 ; Z hop return
G1 E0.8 F3600 ; Un-retract
G1 X168.544 Y169.3832 E0.0616 F1800 ; Glyph: 0
G1 X170.544 Y169.3832 E0.0616 F1800 ; Glyph: 0
G1 X170.544 Y171.3832 E0.0616 F1800 ; Glyph: 0
G1 X168.544 Y171.3832 E0.0616 F1800 ; Glyph: 0
G1 X166.544 Y171.3832 E0.0616 F1800 ; Glyph: 0
G1 X166.544 Y169.3832 E0.0616 F1800 ; Glyph: 0
G1 E-0.8 F3600 ; Retract
G1 Z0.55 F7200 ; Z hop
G0 X166.544 Y172.3832 F7200 ; Move
G1 Z0.45 F7200 ; Z hop return
G1 E0.8 F3600 ; Un-retract
G1 X168.544 Y172.3832 E0.0616 F1800 ; Glyph: 1
G1 X170.544 Y172.3832 E0.0616 F1800 ; Glyph: 1
G1 E-0.8 F3600 ; Retract
G1 Z0.55 F7200 ; Z hop
G0 X166.544 Y175.3832 F7200 ; Move
G1 Z0.45 F7200 ; Z hop return
G1 E0.8 F3600 ; Un-retract
G1 X168.544 Y175.3832 E0.0616 F1800 ; Glyph: 4
G1 X170.544 Y175.3832 E0.0616 F1800 ; Glyph: 4
G0 X168.544 Y175.3832 F7200 ; Move
G1 X168.544 Y173.3832 E0.0616 F1800 ; Glyph: 4
G1 X166.544 Y173.3832 E0.0616 F1800 ; Glyph: 4
G1 E-0.8 F3600 ; Retract
G1 Z0.55 F7200 ; Z hop
G0 X173.7468 Y165.3832 F7200 ; Move
G1 Z0.45 F7200 ; Z hop return
G1 E0.8 F3600 ; Un-retract
G1 X175.7468 Y165.3832 E0.0616 F1800 ; Glyph: 0
G1 X177.7468 Y165.3832 E0.0616 F1800 ; Glyph: 0
G1 X177.7468 Y167.3832 E0.0616 F1800 ; Glyph: 0
G1 X175.7468 Y167.3832 E0.0616 F1800 ; Glyph: 0
G1 X173.7468 Y167.3832 E0.0616 F1800 ; Glyph: 0
G1 X173.7468 Y165.3832 E0.0616 F1800 ; Glyph: 0
G1 E-0.8 F3600 ; Retract
G1 Z0.55 F7200 ; Z hop
G0 X177.7468 Y168.3832 F7200 ; Move
G1 Z0.45 F7200 ; Z hop return
G1 E0.8 F3600 ; Un-retract
G1 X176.9968 Y168.3832 E0.0231 F1800 ; Glyph: .
G1 E-0.8 F3600 ; Retract
G1 Z0.55 F7200 ; Z hop
G0 X173.7468 Y169.3832 F7200 ; Move
G1 Z0.45 F7200 ; Z hop return
G1 E0.8 F3600 ; Un-retract
G1 X175.7468 Y169.3832 E0.0616 F1800 ; Glyph: 0
G1 X177.7468 Y169.3832 E0.0616 F1800 ; Glyph: 0
G1 X177.7468 Y171.3832 E0.0616 F1800 ; Glyph: 0
G1 X175.7468 Y171.3832 E0.0616 F1800 ; Glyph: 0
G1 X173.7468 Y171.3832 E0.0616 F1800 ; Glyph: 0
G1 X173.7468 Y169.3832 E0.0616 F1800 ; Glyph: 0
G1 E-0.8 F3600 ; Retract
G1 Z0.55 F7200 ; Z hop
G0 X173.7468 Y172.3832 F7200 ; Move
G1 Z0.45 F7200 ; Z hop return
G1 E0.8 F3600 ; Un-retract
G1 X175.7468 Y172.3832 E0.0616 F1800 ; Glyph: 1
G1 X177.7468 Y172.3832 E0.0616 F1800 ; Glyph: 1
G1 E-0.8 F3600 ; Retract
G1 Z0.55 F7200 ; Z hop
G0 X173.7468 Y175.3832 F7200 ; Move
G1 Z0.45 F7200 ; Z hop return
G1 E0.8 F3600 ; Un-retract
G1 X173.7468 Y173.3832 E0.0616 F1800 ; Glyph: 5
G1 X175.7468 Y173.3832 E0.0616 F1800 ; Glyph: 5
G1 X175.7468 Y175.3832 E0.0616 F1800 ; Glyph: 5
G1 X177.7468 Y175.3832 E0.0616 F1800 ; Glyph: 5
G1 X177.7468 Y173.3832 E0.0616 F1800 ; Glyph: 5
G1 E-0.8 F3600 ; Retract
G1 Z0.55 F7200 ; Z hop
G0 X180.9496 Y165.3832 F7200 ; Move
G1 Z0.45 F7200 ; Z hop return
G1 E0.8 F3600 ; Un-retract
G1 X182.9496 Y165.3832 E0.0616 F1800 ; Glyph: 0
G1 X184.9496 Y165.3832 E0.0616 F1800 ; Glyph: 0
G1 X184.9496 Y167.3832 E0.0616 F1800 ; Glyph: 0
G1 X182.9496 Y167.3832 E0.0616 F1800 ; Glyph: 0
G1 X180.9496 Y167.3832 E0.0616 F1800 ; Glyph: 0
G1 X180.9496 Y165.3832 E0.0616 F1800 ; Glyph: 0
G1 E-0.8 F3600 ; Retract
G1 Z0.55 F7200 ; Z hop
G0 X184.9496 Y168.3832 F7200 ; Move
G1 Z0.45 F7200 ; Z hop return
G1 E0.8 F3600 ; Un-retract
G1 X184.1996 Y168.3832 E0.0231 F1800 ; Glyph: .
G1 E-0.8 F3600 ; Retract
G1 Z0.55 F7200 ; Z hop
G0 X180.9496 Y169.3832 F7200 ; Move
G1 Z0.45 F7200 ; Z hop return
G1 E0.8 F3600 ; Un-retract
G1 X182.9496 Y169.3832 E0.0616 F1800 ; Glyph: 0
G1 X184.9496 Y169.3832 E0.0616 F1800 ; Glyph: 0
G1 X184.9496 Y171.3832 E0.0616 F1800 ; Glyph: 0
G1 X182.9496 Y171.3832 E0.0616 F1800 ; Glyph: 0
G1 X180.9496 Y171.3832 E0.0616 F1800 ; Glyph: 0
G1 X180.9496 Y169.3832 E0.0616 F1800 ; Glyph: 0
G1 E-0.8 F3600 ; Retract
G1 Z0.55 F7200 ; Z hop
G0 X180.9496 Y172.3832 F7200 ; Move
G1 Z0.45 F7200 ; Z hop return
G1 E0.8 F3600 ; Un-retract
G1 X182.9496 Y172.3832 E0.0616 F1800 ; Glyph: 1
G1 X184.9496 Y172.3832 E0.0616 F1800 ; Glyph: 1
G1 E-0.8 F3600 ; Retract
G1 Z0.55 F7200 ; Z hop
G0 X180.9496 Y175.3832 F7200 ; Move
G1 Z0.45 F7200 ; Z hop return
G1 E0.8 F3600 ; Un-retract
G1 X180.9496 Y173.3832 E0.0616 F1800 ; Glyph: 6
G1 X182.9496 Y173.3832 E0.0616 F1800 ; Glyph: 6
G1 X184.9496 Y173.3832 E0.0616 F1800 ; Glyph: 6
G1 X184.9496 Y175.3832 E0.0616 F1800 ; Glyph: 6
G1 X182.9496 Y175.3832 E0.0616 F1800 ; Glyph: 6
G1 X182.9496 Y173.3832 E0.0616 F1800 ; Glyph: 6
G1 E-0.8 F3600 ; Retract
G1 Z0.55 F7200 ; Z hop
G0 X188.1524 Y165.3832 F7200 ; Move
G1 Z0.45 F7200 ; Z hop return
G1 E0.8 F3600 ; Un-retract
G1 X190.1524 Y165.3832 E0.0616 F1800 ; Glyph: 0
G1 X192.1524 Y165.3832 E0.0616 F1800 ; Glyph: 0
G1 X192.1524 Y167.3832 E0.0616 F1800 ; Glyph: 0
G1 X190.1524 Y167.3832 E0.0616 F1800 ; Glyph: 0
G1 X188.1524 Y167.3832 E0.0616 F1800 ; Glyph: 0
G1 X188.1524 Y165.3832 E0.0616 F1800 ; Glyph: 0
G1 E-0.8 F3600 ; Retract
G1 Z0.55 F7200 ; Z hop
G0 X192.1524 Y168.3832 F7200 ; Move
G1 Z0.45 F7200 ; Z hop return
G1 E0.8 F3600 ; Un-retract
G1 X191.4024 Y168.3832 E0.0231 F1800 ; Glyph: .
G1 E-0.8 F3600 ; Retract
G1 Z0.55 F7200 ; Z hop
G0 X188.1524 Y169.3832 F7200 ; Move
G1 Z0.45 F7200 ; Z hop return
G1 E0.8 F3600 ; Un-retract
G1 X190.1524 Y169.3832 E0.0616 F1800 ; Glyph: 0
G1 X192.1524 Y169.3832 E0.0616 F1800 ; Glyph: 0
G1 X192.1524 Y171.3832 E0.0616 F1800 ; Glyph: 0
G1 X190.1524 Y171.3832 E0.0616 F1800 ; Glyph: 0
G1 X188.1524 Y171.3832 E0.0616 F1800 ; Glyph: 0
G1 X188.1524 Y169.3832 E0.0616 F1800 ; Glyph: 0
G1 E-0.8 F3600 ; Retract
G1 Z0.55 F7200 ; Z hop
G0 X188.1524 Y172.3832 F7200 ; Move
G1 Z0.45 F7200 ; Z hop return
G1 E0.8 F3600 ; Un-retract
G1 X190.1524 Y172.3832 E0.0616 F1800 ; Glyph: 1
G1 X192.1524 Y172.3832 E0.0616 F1800 ; Glyph: 1
G1 E-0.8 F3600 ; Retract
G1 Z0.55 F7200 ; Z hop
G0 X188.1524 Y173.3832 F7200 ; Move
G1 Z0.45 F7200 ; Z hop return
G1 E0.8 F3600 ; Un-retract
G1 X188.1524 Y175.3832 E0.0616 F1800 ; Glyph: 7
G1 X190.1524 Y175.3832 E0.0616 F1800 ; Glyph: 7
G1 X192.1524 Y175.3832 E0.0616 F1800 ; Glyph: 7
G1 E-0.8 F3600 ; Retract
G1 Z0.55 F7200 ; Z hop
G0 X195.3552 Y165.3832 F7200 ; Move
G1 Z0.45 F7200 ; Z hop return
G1 E0.8 F3600 ; Un-retract
G1 X197.3552 Y165.3832 E0.0616 F1800 ; Glyph: 0
G1 X199.3552 Y165.3832 E0.0616 F1800 ; Glyph: 0
G1 X199.3552 Y167.3832 E0.0616 F1800 ; Glyph: 0
G1 X197.3552 Y167.3832 E0.0616 F1800 ; Glyph: 0
G1 X195.3552 Y167.3832 E0.0616 F1800 ; Glyph: 0
G1 X195.3552 Y165.3832 E0.0616 F1800 ; Glyph: 0
G1 E-0.8 F3600 ; Retract
G1 Z0.55 F7200 ; Z hop
G0 X199.3552 Y168.3832 F7200 ; Move
G1 Z0.45 F7200 ; Z hop return
G1 E0.8 F3600 ; Un-retract
G1 X198.6052 Y168.3832 E0.0231 F1800 ; Glyph: .
G1 E-0.8 F3600 ; Retract
G1 Z0.55 F7200 ; Z hop
G0 X195.3552 Y169.3832 F7200 ; Move
G1 Z0.45 F7200 ; Z hop return
G1 E0.8 F3600 ; Un-retract
G1 X197.3552 Y169.3832 E0.0616 F1800 ; Glyph: 0
G1 X199.3552 Y169.3832 E0.0616 F1800 ; Glyph: 0
G1 X199.3552 Y171.3832 E0.0616 F1800 ; Glyph: 0
G1 X197.3552 Y171.3832 E0.0616 F1800 ; Glyph: 0
G1 X195.3552 Y171.3832 E0.0616 F1800 ; Glyph: 0
G1 X195.3552 Y169.3832 E0.0616 F1800 ; Glyph: 0
G1 E-0.8 F3600 ; Retract
G1 Z0.55 F7200 ; Z hop
G0 X195.3552 Y172.3832 F7200 ; Move
G1 Z0.45 F7200 ; Z hop return
G1 E0.8 F3600 ; Un-retract
G1 X197.3552 Y172.3832 E0.0616 F1800 ; Glyph: 1
G1 X199.3552 Y172.3832 E0.0616 F1800 ; Glyph: 1
G1 E-0.8 F3600 ; Retract
G1 Z0.55 F7200 ; Z hop
G0 X195.3552 Y173.3832 F7200 ; Move
G1 Z0.45 F7200 ; Z hop return
G1 E0.8 F3600 ; Un-retract
G1 X197.3552 Y173.3832 E0.0616 F1800 ; Glyph: 8
G1 X199.3552 Y173.3832 E0.0616 F1800 ; Glyph: 8
G1 X199.3552 Y175.3832 E0.0616 F1800 ; Glyph: 8
G1 X197.3552 Y175.3832 E0.0616 F1800 ; Glyph: 8
G1 X195.3552 Y175.3832 E0.0616 F1800 ; Glyph: 8
G1 X195.3552 Y173.3832 E0.0616 F1800 ; Glyph: 8
G0 X197.3552 Y173.3832 F7200 ; Move
G1 X197.3552 Y175.3832 E0.0616 F1800 ; Glyph: 8
G1 E-0.8 F3600 ; Retract
G1 Z0.55 F7200 ; Z hop
G0 X202.558 Y165.3832 F7200 ; Move
G1 Z0.45 F7200 ; Z hop return
G1 E0.8 F3600 ; Un-retract
G1 X204.558 Y165.3832 E0.0616 F1800 ; Glyph: 0
G1 X206.558 Y165.3832 E0.0616 F1800 ; Glyph: 0
G1 X206.558 Y167.3832 E0.0616 F1800 ; Glyph: 0
G1 X204.558 Y167.3832 E0.0616 F1800 ; Glyph: 0
G1 X202.558 Y167.3832 E0.0616 F1800 ; Glyph: 0
G1 X202.558 Y165.3832 E0.0616 F1800 ; Glyph: 0
G1 E-0.8 F3600 ; Retract
G1 Z0.55 F7200 ; Z hop
G0 X206.558 Y168.3832 F7200 ; Move
G1 Z0.45 F7200 ; Z hop return
G1 E0.8 F3600 ; Un-retract
G1 X205.808 Y168.3832 E0.0231 F1800 ; Glyph: .
G1 E-0.8 F3600 ; Retract
G1 Z0.55 F7200 ; Z hop
G0 X202.558 Y169.3832 F7200 ; Move
G1 Z0.45 F7200 ; Z hop return
G1 E0.8 F3600 ; Un-retract
G1 X204.558 Y169.3832 E0.0616 F1800 ; Glyph: 0
G1 X206.558 Y169.3832 E0.0616 F1800 ; Glyph: 0
G1 X206.558 Y171.3832 E0.0616 F1800 ; Glyph: 0
G1 X204.558 Y171.3832 E0.0616 F1800 ; Glyph: 0
G1 X202.558 Y171.3832 E0.0616 F1800 ; Glyph: 0
G1 X202.558 Y169.3832 E0.0616 F1800 ; Glyph: 0
G1 E-0.8 F3600 ; Retract
G1 Z0.55 F7200 ; Z hop
G0 X202.558 Y172.3832 F7200 ; Move
G1 Z0.45 F7200 ; Z hop return
G1 E0.8 F3600 ; Un-retract
G1 X204.558 Y172.3832 E0.0616 F1800 ; Glyph: 1
G1 X206.558 Y172.3832 E0.0616 F1800 ; Glyph: 1
G0 X206.558 Y173.3832 F7200 ; Move
G1 X206.558 Y175.3832 E0.0616 F1800 ; Glyph: 9
G1 X204.558 Y175.3832 E0.0616 F1800 ; Glyph: 9
G1 X202.558 Y175.3832 E0.0616 F1800 ; Glyph: 9
G1 X202.558 Y173.3832 E0.0616 F1800 ; Glyph: 9
G1 X204.558 Y173.3832 E0.0616 F1800 ; Glyph: 9
G1 X204.558 Y175.3832 E0.0616 F1800 ; Glyph: 9
G1 E-0.8 F3600 ; Retract
G1 Z0.55 F7200 ; Z hop
G0 X209.7608 Y165.3832 F7200 ; Move
G1 Z0.45 F7200 ; Z hop return
G1 E0.8 F3600 ; Un-retract
G1 X211.7608 Y165.3832 E0.0616 F1800 ; Glyph: 0
G1 X213.7608 Y165.3832 E0.0616 F1800 ; Glyph: 0
G1 X213.7608 Y167.3832 E0.0616 F1800 ; Glyph: 0
G1 X211.7608 Y167.3832 E0.0616 F1800 ; Glyph: 0
G1 X209.7608 Y167.3832 E0.0616 F1800 ; Glyph: 0
G1 X209.7608 Y165.3832 E0.0616 F1800 ; Glyph: 0
G1 E-0.8 F3600 ; Retract
G1 Z0.55 F7200 ; Z hop
G0 X213.7608 Y168.3832 F7200 ; Move
G1 Z0.45 F7200 ; Z hop return
G1 E0.8 F3600 ; Un-retract
G1 X213.0108 Y168.3832 E0.0231 F1800 ; Glyph: .
G1 E-0.8 F3600 ; Retract
G1 Z0.55 F7200 ; Z hop
G0 X209.7608 Y169.3832 F7200 ; Move
G1 Z0.45 F7200 ; Z hop return
G1 E0.8 F3600 ; Un-retract
G1 X211.7608 Y169.3832 E0.0616 F1800 ; Glyph: 0
G1 X213.7608 Y169.3832 E0.0616 F1800 ; Glyph: 0
G1 X213.7608 Y171.3832 E0.0616 F1800 ; Glyph: 0
G1 X211.7608 Y171.3832 E0.0616 F1800 ; Glyph: 0
G1 X209.7608 Y171.3832 E0.0616 F1800 ; Glyph: 0
G1 X209.7608 Y169.3832 E0.0616 F1800 ; Glyph: 0
G1 E-0.8 F3600 ; Retract
G1 Z0.55 F7200 ; Z hop
G0 X209.7608 Y172.3832 F7200 ; Move
G1 Z0.45 F7200 ; Z hop return
G1 E0.8 F3600 ; Un-retract
G1 X209.7608 Y174.3832 E0.0616 F1800 ; Glyph: 2
G1 X211.7608 Y174.3832 E0.0616 F1800 ; Glyph: 2
G1 X211.7608 Y172.3832 E0.0616 F1800 ; Glyph: 2
G1 X213.7608 Y172.3832 E0.0616 F1800 ; Glyph: 2
G1 X213.7608 Y174.3832 E0.0616 F1800 ; Glyph: 2
G1 E-0.8 F3600 ; Retract
G1 Z0.55 F7200 ; Z hop
G0 X67.1293 Y121.5068 F7200 ; Move to pattern start

G1 Z0.45 F7200 ; Z hop return
G1 E0.8 F3600 ; Un-retract
SET_PRESSURE_ADVANCE ADVANCE=0 ; Set pressure advance
M117 PA 0
G1 X88.3425 Y142.72 E0.92407 F9000 ; Print pattern wall
G1 X67.1293 Y163.9332 E0.92407 F9000 ; Print pattern wall
G1 E-0.8 F3600 ; Retract
G1 Z0.55 F7200 ; Z hop
G0 X67.7049 Y121.5068 F7200 ; Move to start next pattern wall
G1 Z0.45 F7200 ; Z hop return
G1 E0.8 F3600 ; Un-retract
G1 X88.9182 Y142.72 E0.92407 F9000 ; Print pattern wall
G1 X67.7049 Y163.9332 E0.92407 F9000 ; Print pattern wall
G1 E-0.8 F3600 ; Retract
G1 Z0.55 F7200 ; Z hop
G0 X68.2806 Y121.5068 F7200 ; Move to start next pattern wall
G1 Z0.45 F7200 ; Z hop return
G1 E0.8 F3600 ; Un-retract
G1 X89.4939 Y142.72 E0.92407 F9000 ; Print pattern wall
G1 X68.2806 Y163.9332 E0.92407 F9000 ; Print pattern wall
G1 E-0.8 F3600 ; Retract
G1 Z0.55 F7200 ; Z hop
G0 X70.7306 Y121.5068 F7200 ; Move to next pattern
G1 Z0.45 F7200 ; Z hop return
G1 E0.8 F3600 ; Un-retract
SET_PRESSURE_ADVANCE ADVANCE=0.0005 ; Set pressure advance
M117 PA 0.0005
G1 X91.9439 Y142.72 E0.92407 F9000 ; Print pattern wall
G1 X70.7306 Y163.9332 E0.92407 F9000 ; Print pattern wall
G1 E-0.8 F3600 ; Retract
G1 Z0.55 F7200 ; Z hop
G0 X71.3063 Y121.5068 F7200 ; Move to start next pattern wall
G1 Z0.45 F7200 ; Z hop return
G1 E0.8 F3600 ; Un-retract
G1 X92.5195 Y142.72 E0.92407 F9000 ; Print pattern wall
G1 X71.3063 Y163.9332 E0.92407 F9000 ; Print pattern wall
G1 E-0.8 F3600 ; Retract
G1 Z0.55 F7200 ; Z hop
G0 X71.882 Y121.5068 F7200 ; Move to start next pattern wall
G1 Z0.45 F7200 ; Z hop return
G1 E0.8 F3600 ; Un-retract
G1 X93.0952 Y142.72 E0.92407 F9000 ; Print pattern wall
G1 X71.882 Y163.9332 E0.92407 F9000 ; Print pattern wall
G1 E-0.8 F3600 ; Retract
G1 Z0.55 F7200 ; Z hop
G0 X74.332 Y121.5068 F7200 ; Move to next pattern
G1 Z0.45 F7200 ; Z hop return
G1 E0.8 F3600 ; Un-retract
SET_PRESSURE_ADVANCE ADVANCE=0.001 ; Set pressure advance
M117 PA 0.001
G1 X95.5452 Y142.72 E0.92407 F9000 ; Print pattern wall
G1 X74.332 Y163.9332 E0.92407 F9000 ; Print pattern wall
G1 E-0.8 F3600 ; Retract
G1 Z0.55 F7200 ; Z hop
G0 X74.9077 Y121.5068 F7200 ; Move to start next pattern wall
G1 Z0.45 F7200 ; Z hop return
G1 E0.8 F3600 ; Un-retract
G1 X96.1209 Y142.72 E0.92407 F9000 ; Print pattern wall
G1 X74.9077 Y163.9332 E0.92407 F9000 ; Print pattern wall
G1 E-0.8 F3600 ; Retract
G1 Z0.55 F7200 ; Z hop
G0 X75.4834 Y121.5068 F7200 ; Move to start next pattern wall
G1 Z0.45 F7200 ; Z hop return
G1 E0.8 F3600 ; Un-retract
G1 X96.6966 Y142.72 E0.92407 F9000 ; Print pattern wall
G1 X75.4834 Y163.9332 E0.92407 F9000 ; Print pattern wall
G1 E-0.8 F3600 ; Retract
G1 Z0.55 F7200 ; Z hop
G0 X77.9334 Y121.5068 F7200 ; Move to next pattern
G1 Z0.45 F7200 ; Z hop return
G1 E0.8 F3600 ; Un-retract
SET_PRESSURE_ADVANCE ADVANCE=0.0015 ; Set pressure advance
M117 PA 0.0015
G1 X99.1466 Y142.72 E0.92407 F9000 ; Print pattern wall
G1 X77.9334 Y163.9332 E0.92407 F9000 ; Print pattern wall
G1 E-0.8 F3600 ; Retract
G1 Z0.55 F7200 ; Z hop
G0 X78.5091 Y121.5068 F7200 ; Move to start next pattern wall
G1 Z0.45 F7200 ; Z hop return
G1 E0.8 F3600 ; Un-retract
G1 X99.7223 Y142.72 E0.92407 F9000 ; Print pattern wall
G1 X78.5091 Y163.9332 E0.92407 F9000 ; Print pattern wall
G1 E-0.8 F3600 ; Retract
G1 Z0.55 F7200 ; Z hop
G0 X79.0848 Y121.5068 F7200 ; Move to start next pattern wall
G1 Z0.45 F7200 ; Z hop return
G1 E0.8 F3600 ; Un-retract
G1 X100.298 Y142.72 E0.92407 F9000 ; Print pattern wall
G1 X79.0848 Y163.9332 E0.92407 F9000 ; Print pattern wall
G1 E-0.8 F3600 ; Retract
G1 Z0.55 F7200 ; Z hop
G0 X81.5348 Y121.5068 F7200 ; Move to next pattern
G1 Z0.45 F7200 ; Z hop return
G1 E0.8 F3600 ; Un-retract
SET_PRESSURE_ADVANCE ADVANCE=0.002 ; Set pressure advance
M117 PA 0.002
G1 X102.748 Y142.72 E0.92407 F9000 ; Print pattern wall
G1 X81.5348 Y163.9332 E0.92407 F9000 ; Print pattern wall
G1 E-0.8 F3600 ; Retract
G1 Z0.55 F7200 ; Z hop
