; generated by A3dp-Slicer 2.5 on 2024-04-24 at 04:55:36 UTC


;
;

;
;
; 

; external perimeters extrusion width = 0.45mm
; perimeters extrusion width = 0.45mm
; infill extrusion width = 0.45mm
; solid infill extrusion width = 0.45mm
; top infill extrusion width = 0.45mm
; first layer extrusion width = 0.45mm

; object:{"name":"Voron_Design_Cube_v7","id":"Voron_Design_Cube_v7 id:0 copy 0","object_center":[149.999994,149.999994,0.000000],"boundingbox_center":[149.999994,149.999994,11.047136],"boundingbox_size":[22.094272,22.094272,22.094272]}
EXCLUDE_OBJECT_DEFINE NAME=Voron_Design_Cube_v7_id_0_copy_0 CENTER=149.999994,149.999994 POLYGON=[[138.952864,138.952864],[161.047136,138.952864],[161.047136,161.047136],[138.952864,161.047136],[138.952864,138.952864]]
; plater:{"center":[149.999994,149.999994,0.000000],"boundingbox_center":[149.999994,149.999994,11.047136],"boundingbox_size":[22.094272,22.094272,22.094272]}

M73 P0 R18
;TYPE:Custom
; custom gcode: start_gcode
M190 S0
M104 S0
PRINT_START EXTRUDER_TEMP=260 BED_TEMP=110 FILAMENT=ABS SIZE=133.476_133.476_166.524_166.524 ENCLOSURE_TEMP=0
; custom gcode end: start_gcode
M107
G21 ; set units to millimeters
G90 ; use absolute coordinates
M83 ; use relative distances for extrusion
;_BEFORE_TOOLCHANGE 0
;_TOOLCHANGE 0
;LAYER_CHANGE
;Z:0.25
;HEIGHT:0.25
G1 E-0.6 F9600
M73 P1 R18
G1 Z0.1 F27000
G1 Z0.25
; custom gcode: layer_gcode
;DISPLAY_PROGRESS TOTAL_LAYERS=110 CURRENT_LAYER=0
; custom gcode end: layer_gcode

G92 E0
SET_PRESSURE_ADVANCE ADVANCE=0.00525
G1 Z0.35
M204 S2000
G1 X137.489 Y137.489
G1 Z0.25
G1 E0.6 F3600
; custom gcode: feature_gcode
; External perimeter
;Skirt
SET_VELOCITY_LIMIT ACCEL=7000 ACCEL_TO_DECEL=7000 SQUARE_CORNER_VELOCITY=8

; Support material
; custom gcode end: feature_gcode

;TYPE:Skirt
;WIDTH:0.45
G1 F1800
G1 X135.389 Y139.589 E0.11132
G1 X134.268 Y141.265 E0.07559
G1 X133.872 Y143.252 E0.07594
G1 X133.872 Y156.748 E0.50597
G1 X134.264 Y158.726 E0.07559
G1 X135.389 Y160.411 E0.07594
G1 X139.589 Y164.611 E0.22265
G1 X141.265 Y165.732 E0.07559
G1 X143.252 Y166.128 E0.07594
G1 X156.748 Y166.128 E0.50597
G1 X158.726 Y165.735 E0.07559
G1 X160.411 Y164.611 E0.07594
G1 X164.611 Y160.411 E0.22265
M73 P2 R18
G1 X165.732 Y158.735 E0.07559
G1 X166.128 Y156.748 E0.07594
G1 X166.128 Y143.252 E0.50597
G1 X165.735 Y141.274 E0.07559
G1 X164.611 Y139.589 E0.07594
G1 X160.411 Y135.389 E0.22265
G1 X158.735 Y134.268 E0.07559
G1 X156.748 Y133.872 E0.07594
G1 X143.252 Y133.872 E0.50597
G1 X141.274 Y134.264 E0.07559
G1 X139.589 Y135.389 E0.07594
G1 X137.531 Y137.447 E0.10907
G1 X137.812 Y137.727 F27000
G1 F1800
G1 X135.669 Y139.869 E0.11357
G1 X134.664 Y141.346 E0.06698
G1 X134.268 Y143.252 E0.07295
G1 X134.268 Y156.748 E0.50597
G1 X134.602 Y158.504 E0.06698
G1 X135.669 Y160.131 E0.07295
G1 X139.869 Y164.331 E0.22265
G1 X141.346 Y165.336 E0.06698
G1 X143.252 Y165.732 E0.07295
G1 X156.748 Y165.732 E0.50597
G1 X158.504 Y165.398 E0.06698
G1 X160.131 Y164.331 E0.07295
G1 X164.331 Y160.131 E0.22265
G1 X165.336 Y158.654 E0.06698
G1 X165.732 Y156.748 E0.07295
G1 X165.732 Y143.252 E0.50597
G1 X165.398 Y141.496 E0.06698
G1 X164.331 Y139.869 E0.07295
G1 X160.131 Y135.669 E0.22265
G1 X158.654 Y134.664 E0.06698
G1 X156.748 Y134.268 E0.07295
G1 X143.252 Y134.268 E0.50597
G1 X141.496 Y134.602 E0.06698
G1 X139.869 Y135.669 E0.07295
G1 X137.854 Y137.684 E0.10683
G1 X138.134 Y137.965 F27000
G1 F1800
G1 X135.95 Y140.149 E0.11582
G1 X135.06 Y141.431 E0.05849
G1 X134.665 Y143.252 E0.06983
G1 X134.665 Y156.748 E0.50597
G1 X134.942 Y158.284 E0.05849
G1 X135.95 Y159.851 E0.06983
G1 X140.149 Y164.05 E0.22265
G1 X141.431 Y164.94 E0.05849
G1 X143.252 Y165.335 E0.06983
G1 X156.748 Y165.335 E0.50597
G1 X158.284 Y165.058 E0.05849
G1 X159.851 Y164.05 E0.06983
G1 X164.05 Y159.851 E0.22265
G1 X164.94 Y158.569 E0.05849
G1 X165.335 Y156.748 E0.06983
G1 X165.335 Y143.252 E0.50597
G1 X165.058 Y141.716 E0.05849
G1 X164.05 Y140.149 E0.06983
G1 X159.851 Y135.95 E0.22265
G1 X158.569 Y135.06 E0.05849
G1 X156.748 Y134.665 E0.06983
G1 X143.252 Y134.665 E0.50597
G1 X141.716 Y134.942 E0.05849
G1 X140.149 Y135.95 E0.06983
G1 X138.177 Y137.922 E0.10458
G1 X138.457 Y138.203 F27000
G1 F1800
G1 X136.23 Y140.43 E0.11807
G1 X135.456 Y141.52 E0.05014
G1 X135.061 Y143.252 E0.06656
G1 X135.061 Y156.748 E0.50597
G1 X135.285 Y158.067 E0.05014
G1 X136.23 Y159.57 E0.06656
G1 X140.43 Y163.77 E0.22265
G1 X141.52 Y164.544 E0.05014
G1 X143.252 Y164.939 E0.06656
G1 X156.748 Y164.939 E0.50597
G1 X158.067 Y164.715 E0.05014
G1 X159.57 Y163.77 E0.06656
G1 X163.77 Y159.57 E0.22265
G1 X164.544 Y158.479 E0.05014
G1 X164.939 Y156.748 E0.06656
G1 X164.939 Y143.252 E0.50597
M73 P3 R18
G1 X164.715 Y141.933 E0.05014
G1 X163.77 Y140.43 E0.06656
G1 X159.57 Y136.23 E0.22265
G1 X158.479 Y135.456 E0.05014
G1 X156.748 Y135.061 E0.06656
G1 X143.252 Y135.061 E0.50597
G1 X141.933 Y135.285 E0.05014
G1 X140.43 Y136.23 E0.06656
G1 X138.5 Y138.16 E0.10233
G1 X138.78 Y138.44 F27000
G1 F1800
G1 X136.51 Y140.71 E0.12032
G1 X135.852 Y141.614 E0.04194
G1 X135.457 Y143.252 E0.06313
G1 X135.457 Y156.748 E0.50597
G1 X135.632 Y157.854 E0.04194
G1 X136.51 Y159.29 E0.06313
G1 X140.71 Y163.49 E0.22265
G1 X141.614 Y164.148 E0.04194
G1 X143.252 Y164.543 E0.06313
G1 X156.748 Y164.543 E0.50597
G1 X157.854 Y164.368 E0.04194
G1 X159.29 Y163.49 E0.06313
G1 X163.49 Y159.29 E0.22265
G1 X164.148 Y158.385 E0.04194
G1 X164.543 Y156.748 E0.06313
G1 X164.543 Y143.252 E0.50597
G1 X164.368 Y142.146 E0.04194
G1 X163.49 Y140.71 E0.06313
G1 X159.29 Y136.51 E0.22265
G1 X158.385 Y135.852 E0.04194
G1 X156.748 Y135.457 E0.06313
G1 X143.252 Y135.457 E0.50597
G1 X142.146 Y135.632 E0.04194
G1 X140.71 Y136.51 E0.06313
G1 X138.822 Y138.398 E0.10008
G1 X139.102 Y138.678 F27000
G1 F1800
G1 X136.791 Y140.99 E0.12257
G1 X136.248 Y141.714 E0.03393
G1 X135.854 Y143.252 E0.05949
G1 X135.854 Y156.748 E0.50597
G1 X135.982 Y157.644 E0.03393
G1 X136.791 Y159.01 E0.05949
G1 X140.99 Y163.209 E0.22265
G1 X141.714 Y163.752 E0.03393
G1 X143.252 Y164.146 E0.05949
G1 X156.748 Y164.146 E0.50597
G1 X157.644 Y164.018 E0.03393
G1 X159.01 Y163.209 E0.05949
G1 X163.209 Y159.01 E0.22265
G1 X163.752 Y158.286 E0.03393
G1 X164.146 Y156.748 E0.05949
G1 X164.146 Y143.252 E0.50597
G1 X164.018 Y142.356 E0.03393
G1 X163.209 Y140.99 E0.05949
G1 X159.01 Y136.791 E0.22265
G1 X158.286 Y136.248 E0.03393
G1 X156.748 Y135.854 E0.05949
G1 X143.252 Y135.854 E0.50597
G1 X142.356 Y135.982 E0.03393
G1 X140.99 Y136.791 E0.05949
G1 X139.145 Y138.636 E0.09783
M104 S260 ; set temperature
SET_PRESSURE_ADVANCE ADVANCE=0.005
G1 E-0.6 F9600
M204 S6000
G1 Z0.35 F27000
; printing object Voron_Design_Cube_v7 id:0 copy 0
EXCLUDE_OBJECT_START NAME=Voron_Design_Cube_v7_id_0_copy_0
; acceleration to travel
M204 S10000
G1 X143.048 Y150.455
; decel to extrusion
M204 S2000
G1 X143.829 Y152.819
; end travel
G1 Z0.25
G1 E0.6 F3600
; custom gcode: feature_gcode
; External perimeter
;Perimeter
SET_VELOCITY_LIMIT ACCEL=2000 ACCEL_TO_DECEL=2000 SQUARE_CORNER_VELOCITY=8

; Overhang perimeter
; custom gcode end: feature_gcode

;TYPE:Internal perimeter
G1 F1800
G1 X144.106 Y153.365 E0.02296
G1 X144.485 Y153.957 E0.02633
G1 X144.924 Y154.506 E0.02638
G1 X145.418 Y155.008 E0.02638
G1 X145.961 Y155.455 E0.02638
G1 X146.548 Y155.844 E0.02638
G1 X147.161 Y156.165 E0.02596
G1 X147.556 Y156.331 E0.01603
G1 X148.163 Y156.534 E0.02403
G1 X148.848 Y156.689 E0.02632
G1 X149.547 Y156.772 E0.02638
G1 X150.25 Y156.783 E0.02638
G1 X150.951 Y156.72 E0.02638
G1 X151.642 Y156.586 E0.02638
G1 X152.304 Y156.384 E0.02595
G1 X152.701 Y156.225 E0.01604
G1 X153.277 Y155.944 E0.02404
G1 X153.874 Y155.573 E0.02631
G1 X154.43 Y155.142 E0.02638
G1 X154.938 Y154.656 E0.02638
G1 X155.394 Y154.12 E0.02638
G1 X155.792 Y153.539 E0.02638
G1 X156.127 Y152.92 E0.02638
G1 X156.396 Y152.27 E0.02638
G1 X156.597 Y151.596 E0.02638
G1 X156.727 Y150.904 E0.02638
G1 X156.783 Y150.215 E0.02592
G1 X156.783 Y149.785 E0.01614
G1 X156.727 Y149.096 E0.02592
G1 X156.597 Y148.404 E0.02638
G1 X156.397 Y147.732 E0.0263
G1 X156.153 Y147.138 E0.02405
G1 X155.961 Y146.756 E0.01605
G1 X155.6 Y146.165 E0.02593
G1 X155.173 Y145.606 E0.02638
G1 X154.691 Y145.094 E0.02638
G1 X154.157 Y144.635 E0.02638
G1 X153.58 Y144.233 E0.02638
G1 X152.965 Y143.895 E0.02631
G1 X152.375 Y143.643 E0.02404
G1 X151.97 Y143.505 E0.01604
G1 X151.298 Y143.338 E0.02595
G1 X150.602 Y143.239 E0.02638
G1 X149.898 Y143.213 E0.02638
G1 X149.547 Y143.237 E0.01319
G1 X149.196 Y143.26 E0.01319
G1 X148.503 Y143.38 E0.02638
G1 X147.825 Y143.57 E0.02638
G1 X147.172 Y143.83 E0.02638
G1 X146.548 Y144.156 E0.02638
G1 X145.961 Y144.545 E0.02638
G1 X145.419 Y144.991 E0.02633
G1 X144.969 Y145.447 E0.02401
G1 X144.691 Y145.772 E0.01603
G1 X144.287 Y146.335 E0.02597
G1 X143.939 Y146.946 E0.02638
G1 X143.655 Y147.59 E0.02638
G1 X143.439 Y148.26 E0.02638
G1 X143.295 Y148.948 E0.02638
G1 X143.222 Y149.648 E0.02638
G1 X143.222 Y150.352 E0.02638
G1 X143.295 Y151.052 E0.02638
G1 X143.439 Y151.74 E0.02638
G1 X143.652 Y152.4 E0.02597
G1 X143.804 Y152.765 E0.01481
G1 X144.183 Y152.641 F27000
G1 F1800
G1 X144.45 Y153.168 E0.02218
G1 X144.808 Y153.725 E0.02481
G1 X145.221 Y154.243 E0.02484
G1 X145.686 Y154.715 E0.02484
G1 X146.198 Y155.136 E0.02484
G1 X146.75 Y155.502 E0.02484
G1 X147.33 Y155.806 E0.02456
G1 X147.696 Y155.959 E0.01485
G1 X148.27 Y156.152 E0.02272
G1 X148.915 Y156.298 E0.0248
G1 X149.573 Y156.376 E0.02484
G1 X150.236 Y156.386 E0.02484
G1 X150.896 Y156.327 E0.02484
G1 X151.546 Y156.201 E0.02484
G1 X152.173 Y156.009 E0.02456
G1 X152.541 Y155.863 E0.01486
G1 X153.085 Y155.596 E0.02273
G1 X153.647 Y155.247 E0.02479
G1 X154.171 Y154.842 E0.02484
G1 X154.65 Y154.384 E0.02484
G1 X155.079 Y153.879 E0.02484
G1 X155.453 Y153.332 E0.02484
G1 X155.769 Y152.75 E0.02483
G1 X156.022 Y152.138 E0.02484
G1 X156.211 Y151.503 E0.02484
G1 X156.333 Y150.851 E0.02484
G1 X156.387 Y150.199 E0.02454
G1 X156.387 Y149.801 E0.01492
G1 X156.333 Y149.149 E0.02454
G1 X156.211 Y148.497 E0.02484
G1 X156.023 Y147.864 E0.02479
G1 X155.792 Y147.303 E0.02274
G1 X155.614 Y146.948 E0.01486
G1 X155.273 Y146.39 E0.02455
G1 X154.871 Y145.863 E0.02484
G1 X154.416 Y145.381 E0.02484
G1 X153.914 Y144.949 E0.02484
G1 X153.37 Y144.571 E0.02484
G1 X152.791 Y144.251 E0.02479
G1 X152.233 Y144.013 E0.02273
G1 X151.858 Y143.886 E0.01486
G1 X151.223 Y143.728 E0.02456
G1 X150.567 Y143.635 E0.02484
G1 X149.904 Y143.61 E0.02484
G1 X149.574 Y143.632 E0.01242
G1 X149.243 Y143.654 E0.01242
G1 X148.59 Y143.767 E0.02484
G1 X147.953 Y143.946 E0.02484
G1 X147.337 Y144.191 E0.02484
G1 X146.75 Y144.498 E0.02484
G1 X146.197 Y144.864 E0.02484
G1 X145.687 Y145.285 E0.0248
G1 X145.261 Y145.715 E0.02271
G1 X145.004 Y146.016 E0.01485
G1 X144.621 Y146.549 E0.02457
G1 X144.293 Y147.124 E0.02484
G1 X144.026 Y147.731 E0.02484
G1 X143.823 Y148.361 E0.02484
G1 X143.687 Y149.01 E0.02484
G1 X143.618 Y149.669 E0.02484
G1 X143.618 Y150.331 E0.02484
G1 X143.687 Y150.99 E0.02484
G1 X143.823 Y151.639 E0.02484
G1 X144.024 Y152.263 E0.02458
G1 X144.159 Y152.586 E0.01312
M204 S1000
SET_PRESSURE_ADVANCE ADVANCE=0.0075
G1 X144.537 Y152.462 F27000
; custom gcode: feature_gcode
; External perimeter
;ExternalPerimeter
SET_VELOCITY_LIMIT ACCEL=1000 ACCEL_TO_DECEL=1000 SQUARE_CORNER_VELOCITY=8

; Perimeter
; custom gcode end: feature_gcode

;TYPE:External perimeter
G1 F1800
G1 X144.795 Y152.971 E0.0214
G1 X145.13 Y153.494 E0.02328
G1 X145.518 Y153.979 E0.02329
G1 X145.954 Y154.422 E0.0233
G1 X146.434 Y154.817 E0.0233
G1 X146.952 Y155.16 E0.02329
G1 X147.499 Y155.447 E0.02317
G1 X147.836 Y155.588 E0.01367
G1 X148.377 Y155.77 E0.02141
G1 X148.983 Y155.907 E0.02328
G1 X149.6 Y155.98 E0.0233
G1 X150.221 Y155.99 E0.0233
G1 X150.84 Y155.934 E0.02329
G1 X151.45 Y155.816 E0.02329
G1 X152.041 Y155.635 E0.02317
G1 X152.38 Y155.5 E0.01368
G1 X152.893 Y155.249 E0.02141
G1 X153.421 Y154.922 E0.02327
G1 X153.912 Y154.541 E0.0233
G1 X154.361 Y154.112 E0.02329
G1 X154.763 Y153.638 E0.0233
G1 X155.114 Y153.125 E0.02329
G1 X155.41 Y152.579 E0.02329
G1 X155.648 Y152.005 E0.0233
G1 X155.825 Y151.409 E0.02329
G1 X155.94 Y150.799 E0.0233
G1 X155.99 Y150.183 E0.02316
G1 X155.99 Y149.817 E0.01371
G1 X155.94 Y149.201 E0.02316
G1 X155.825 Y148.591 E0.0233
M73 P4 R18
G1 X155.648 Y147.996 E0.02327
G1 X155.432 Y147.467 E0.02142
G1 X155.268 Y147.141 E0.01368
G1 X154.945 Y146.614 E0.02317
G1 X154.568 Y146.12 E0.02329
G1 X154.142 Y145.668 E0.02329
G1 X153.671 Y145.262 E0.02329
G1 X153.161 Y144.908 E0.0233
G1 X152.617 Y144.608 E0.02328
G1 X152.092 Y144.384 E0.02142
G1 X151.746 Y144.267 E0.01367
G1 X151.147 Y144.117 E0.02317
G1 X150.531 Y144.03 E0.0233
G1 X149.91 Y144.007 E0.02329
G1 X149.6 Y144.028 E0.01165
G1 X149.29 Y144.049 E0.01165
G1 X148.678 Y144.154 E0.02329
G1 X148.08 Y144.322 E0.0233
G1 X147.502 Y144.552 E0.02329
G1 X146.952 Y144.839 E0.0233
G1 X146.434 Y145.183 E0.02329
G1 X145.954 Y145.578 E0.02328
G1 X145.553 Y145.983 E0.02141
G1 X145.316 Y146.261 E0.01367
G1 X144.955 Y146.763 E0.02318
G1 X144.647 Y147.303 E0.02329
G1 X144.397 Y147.872 E0.0233
G1 X144.207 Y148.463 E0.02329
G1 X144.079 Y149.071 E0.0233
G1 X144.014 Y149.689 E0.02329
G1 X144.014 Y150.311 E0.0233
G1 X144.079 Y150.929 E0.02329
G1 X144.207 Y151.537 E0.0233
G1 X144.396 Y152.125 E0.02318
G1 X144.513 Y152.407 E0.01143
;WIPE_START
M204 S6000
G1 X144.31 Y152.792 F27000
;WIPE_END
SET_PRESSURE_ADVANCE ADVANCE=0.005
G1 E-0.6 F9600
G1 Z0.35 F27000
; acceleration to travel
M204 S10000
G1 X154.324 Y142.19
; decel to extrusion
M204 S2000
G1 X156.327 Y140.07
; end travel
G1 Z0.25
G1 E0.6 F3600
; custom gcode: feature_gcode
; External perimeter
;Perimeter
SET_VELOCITY_LIMIT ACCEL=2000 ACCEL_TO_DECEL=2000 SQUARE_CORNER_VELOCITY=8

; Overhang perimeter
; custom gcode end: feature_gcode

;TYPE:Internal perimeter
G1 F1800
G1 X159.93 Y143.673 E0.19104
G1 X159.93 Y156.327 E0.47437
G1 X156.327 Y159.93 E0.19104
G1 X143.673 Y159.93 E0.47437
G1 X140.07 Y156.327 E0.19104
G1 X140.07 Y143.673 E0.47437
G1 X143.673 Y140.07 E0.19104
G1 X156.267 Y140.07 E0.47212
G1 X156.491 Y139.673 F27000
G1 F1800
G1 X156.607 Y139.79 E0.00616
G1 X160.327 Y143.509 E0.19719
G1 X160.327 Y156.491 E0.48667
G1 X156.491 Y160.327 E0.20335
G1 X143.509 Y160.327 E0.48667
G1 X139.673 Y156.491 E0.20335
G1 X139.673 Y143.509 E0.48667
G1 X143.509 Y139.673 E0.20335
G1 X156.431 Y139.673 E0.48442
M204 S1000
SET_PRESSURE_ADVANCE ADVANCE=0.0075
G1 X156.655 Y139.277 F27000
; custom gcode: feature_gcode
; External perimeter
;ExternalPerimeter
SET_VELOCITY_LIMIT ACCEL=1000 ACCEL_TO_DECEL=1000 SQUARE_CORNER_VELOCITY=8

; Perimeter
; custom gcode end: feature_gcode

;TYPE:External perimeter
G1 F1800
G1 X156.888 Y139.509 E0.01232
G1 X160.723 Y143.345 E0.20334
G1 X160.723 Y156.655 E0.49898
M73 P4 R17
G1 X156.655 Y160.723 E0.21566
G1 X143.345 Y160.723 E0.49898
G1 X139.277 Y156.655 E0.21566
G1 X139.277 Y143.345 E0.49898
G1 X143.345 Y139.277 E0.21566
G1 X156.595 Y139.277 E0.49673
;WIPE_START
M204 S6000
G1 X156.655 Y139.677 F27000
;WIPE_END
M204 S2000
SET_PRESSURE_ADVANCE ADVANCE=0.005
G1 X156.025 Y140.189
; custom gcode: feature_gcode
; External perimeter
;SolidInfill
SET_VELOCITY_LIMIT ACCEL=4000 ACCEL_TO_DECEL=4000 SQUARE_CORNER_VELOCITY=8

; Bridge infill
; custom gcode end: feature_gcode

;TYPE:Solid infill
;WIDTH:0.458807
G1 F3600
G1 X159.811 Y143.975 E0.20466
G1 X159.811 Y144.535 F27000
G1 F3600
G1 X155.465 Y140.189 E0.23495
G1 X154.904 Y140.189 F27000
G1 F3600
G1 X159.811 Y145.096 E0.26525
G1 X159.811 Y145.656 F27000
G1 F3600
G1 X154.344 Y140.189 E0.29555
G1 X153.783 Y140.189 F27000
G1 F3600
G1 X159.811 Y146.217 E0.32585
G1 X159.811 Y146.777 F27000
G1 F3600
G1 X153.223 Y140.189 E0.35615
G1 X152.662 Y140.189 F27000
G1 F3600
G1 X159.811 Y147.338 E0.38645
G1 X159.811 Y147.898 F27000
G1 F3600
G1 X152.102 Y140.189 E0.41674
G1 X151.541 Y140.189 F27000
G1 F3600
G1 X159.811 Y148.459 E0.44704
G1 X159.811 Y149.019 F27000
G1 F3600
G1 X150.981 Y140.189 E0.47734
G1 X150.42 Y140.189 F27000
G1 F3600
G1 X159.811 Y149.58 E0.50764
G1 X159.811 Y150.14 F27000
G1 F3600
G1 X155.47 Y145.799 E0.23468
G1 X156.305 Y147.195 F27000
G1 F3600
G1 X159.811 Y150.701 E0.18953
