; generated by SuperSlicer 2.4 on 2023-09-08 at 17:19:19 UTC


;
;

;
;
; 

; external perimeters extrusion width = 0.40mm
; perimeters extrusion width = 0.46mm
; infill extrusion width = 0.64mm
; solid infill extrusion width = 0.56mm
; top infill extrusion width = 0.40mm
; first layer extrusion width = 0.50mm

; object:{"name":"Body2","id":"Body2.stl id:0 copy 0","object_center":[150.000000,150.000000,0.000000],"boundingbox_center":[150.000000,150.000000,1.641250],"boundingbox_size":[88.175712,82.419609,3.282500]}
; plater:{"center":[150.000000,150.000000,0.000000],"boundingbox_center":[150.000000,150.000000,1.641250],"boundingbox_size":[88.175712,82.419609,3.282500]}

M73 P0 R20


; Pre-Processed for Cancel-Object support by preprocess_cancellation v0.2.0
; 1 known objects
EXCLUDE_OBJECT_DEFINE NAME=Body2_stl_id_0_copy_0 CENTER=149.133,149.663 POLYGON=[[106.112,108.99],[106.112,191.007],[193.888,191.007],[193.888,108.99]]
;TYPE:Custom
; custom gcode: start_gcode
M190 S0
M104 S0
PRINT_START EXTRUDER_TEMP=210 BED_TEMP=60 FILAMENT=PLA SIZE=101.997_104.875_198.003_195.122 ENCLOSURE_TEMP=0
; custom gcode end: start_gcode
M107
G21 ; set units to millimeters
G90 ; use absolute coordinates
M83 ; use relative distances for extrusion
;_TOOLCHANGE 0
;LAYER_CHANGE
;Z:0.25
;HEIGHT:0.25
G1 Z0.25 F48000
; custom gcode: layer_gcode
;DISPLAY_PROGRESS TOTAL_LAYERS=16 CURRENT_LAYER=0
; custom gcode end: layer_gcode

G92 E0
M73 P1 R19
G1 E-1.6 F1800
G1 Z0.65 F48000
M204 S2000
G1 X114.867 Y126.79
G1 Z0.25
G1 E1.6 F1800
; custom gcode: feature_gcode
; External perimeter
;Skirt
SET_VELOCITY_LIMIT ACCEL=7000 ACCEL_TO_DECEL=7000 SQUARE_CORNER_VELOCITY=8

; Support material
; custom gcode end: feature_gcode

;TYPE:Skirt
;WIDTH:0.46
G1 F3600
G1 X113.387 Y128.13 E0.07757
G1 X111.209 Y130.488 E0.1247
G1 X109.444 Y132.805 E0.11319
G1 X108.497 Y134.239 E0.0668
G1 X107.01 Y136.849 E0.11669
G1 X106.241 Y138.423 E0.06809
G1 X105.056 Y141.288 E0.12046
G1 X104.473 Y142.983 E0.06966
G1 X103.613 Y146.068 E0.12441
G1 X103.225 Y147.865 E0.07146
G1 X102.716 Y151.134 E0.12852
G1 X102.545 Y152.877 E0.06805
G1 X102.403 Y156.571 E0.14365
G1 X102.535 Y159.988 E0.13287
G1 X102.716 Y161.87 E0.07348
G1 X103.225 Y165.14 E0.12859
G1 X103.613 Y166.939 E0.07149
G1 X104.472 Y170.026 E0.12452
G1 X105.056 Y171.722 E0.0697
G1 X105.652 Y173.244 E0.06351
G1 X106.939 Y176.031 E0.11931
G1 X108.579 Y178.914 E0.12886
G1 X110.253 Y181.337 E0.11444
G1 X111.206 Y182.538 E0.05957
G1 X113.255 Y184.773 E0.1178
G1 X115.637 Y186.888 E0.12377
G1 X117.895 Y188.502 E0.10785
G1 X119.162 Y189.262 E0.05741
G1 X120.663 Y190.04 E0.0657
G1 X122.019 Y190.636 E0.05755
G1 X123.411 Y191.148 E0.05761
G1 X124.834 Y191.572 E0.05772
G1 X127.692 Y192.137 E0.11318
G1 X148.222 Y194.624 E0.80355
G1 X150.488 Y194.716 E0.08813
G1 X152.418 Y194.627 E0.07505
G1 X172.469 Y192.138 E0.78512
G1 X175.166 Y191.597 E0.10686
G1 X176.589 Y191.172 E0.05774
G1 X177.981 Y190.66 E0.0576
G1 X180.655 Y189.388 E0.11507
G1 X181.933 Y188.635 E0.05765
G1 X183.33 Y187.694 E0.06546
G1 X185.652 Y185.826 E0.11576
G1 X186.745 Y184.797 E0.05834
G1 X188.684 Y182.693 E0.1112
G1 X190.559 Y180.241 E0.11992
G1 X192.309 Y177.453 E0.12791
G1 X193.697 Y174.75 E0.11805
G1 X194.348 Y173.268 E0.06291
G1 X195.483 Y170.187 E0.12759
G1 X196.419 Y166.825 E0.13559
G1 X197.069 Y163.474 E0.13265
G1 X197.465 Y160.012 E0.1354
G1 X197.597 Y156.456 E0.13825
G1 X197.455 Y152.9 E0.13827
G1 X197.048 Y149.439 E0.13542
G1 X196.748 Y147.749 E0.0667
G1 X196.003 Y144.597 E0.12586
G1 X194.944 Y141.305 E0.13436
G1 X193.76 Y138.437 E0.12059
G1 X192.991 Y136.86 E0.06813
G1 X191.505 Y134.247 E0.11682
G1 X189.747 Y131.69 E0.12059
G1 X188.684 Y130.358 E0.06619
G1 X186.745 Y128.254 E0.1112
G1 X185.513 Y127.101 E0.06556
G1 X183.33 Y125.358 E0.10855
G1 X180.689 Y123.682 E0.12154
G1 X146.94 Y105.714 E1.48561
M73 P2 R19
G1 X145.31 Y105.291 E0.06545
G1 X143.845 Y105.344 E0.05695
G1 X142.191 Y105.639 E0.06528
G1 X140.47 Y106.103 E0.06925
G1 X138.759 Y106.699 E0.07042
G1 X137.639 Y107.165 E0.04712
G1 X136.024 Y107.988 E0.07041
G1 X134.322 Y109.164 E0.08041
G1 X114.911 Y126.75 E1.01774
G1 X115.184 Y127.051 F48000
G1 F3600
G1 X113.664 Y128.428 E0.07967
G1 X111.527 Y130.741 E0.1224
G1 X109.772 Y133.043 E0.11246
G1 X108.845 Y134.448 E0.0654
G1 X107.368 Y137.042 E0.11601
G1 X106.613 Y138.586 E0.06677
G1 X105.435 Y141.436 E0.11982
G1 X104.862 Y143.1 E0.06839
G1 X104.007 Y146.169 E0.12379
G1 X103.625 Y147.936 E0.07023
G1 X103.119 Y151.188 E0.12791
G1 X102.95 Y152.916 E0.06744
G1 X102.81 Y156.563 E0.14182
G1 X102.94 Y159.964 E0.13226
G1 X103.119 Y161.815 E0.07226
G1 X103.625 Y165.07 E0.12798
G1 X104.007 Y166.837 E0.07026
G1 X104.862 Y169.909 E0.12389
G1 X105.434 Y171.575 E0.06844
G1 X106.024 Y173.081 E0.06286
G1 X107.305 Y175.853 E0.11865
G1 X108.918 Y178.691 E0.12683
G1 X110.582 Y181.099 E0.11374
G1 X111.524 Y182.285 E0.05885
G1 X113.547 Y184.491 E0.1163
G1 X115.882 Y186.564 E0.12134
G1 X118.122 Y188.165 E0.10699
G1 X119.37 Y188.912 E0.05652
G1 X120.829 Y189.669 E0.06384
G1 X122.162 Y190.255 E0.05659
G1 X124.927 Y191.177 E0.11327
G1 X127.741 Y191.734 E0.11144
G1 X148.271 Y194.22 E0.80355
G1 X150.472 Y194.31 E0.0856
G1 X152.369 Y194.224 E0.07379
G1 X172.402 Y191.737 E0.7844
G1 X175.073 Y191.201 E0.10583
G1 X177.838 Y190.279 E0.11328
G1 X180.468 Y189.027 E0.11316
G1 X181.725 Y188.285 E0.05673
G1 X183.085 Y187.37 E0.06371
G1 X185.374 Y185.53 E0.11411
G1 X186.453 Y184.515 E0.05756
G1 X188.379 Y182.425 E0.11043
G1 X190.23 Y180.002 E0.11845
G1 X191.951 Y177.26 E0.12584
G1 X193.332 Y174.572 E0.11739
G1 X193.976 Y173.105 E0.06226
G1 X195.099 Y170.055 E0.12631
G1 X196.022 Y166.739 E0.13372
G1 X196.666 Y163.419 E0.13142
G1 X197.06 Y159.988 E0.13418
G1 X197.19 Y156.464 E0.13704
G1 X197.05 Y152.939 E0.13706
G1 X196.647 Y149.509 E0.1342
G1 X196.351 Y147.835 E0.06608
G1 X195.609 Y144.698 E0.12524
G1 X194.566 Y141.452 E0.13247
G1 X193.387 Y138.599 E0.11994
G1 X192.634 Y137.054 E0.06682
G1 X191.156 Y134.455 E0.11614
G1 X189.418 Y131.928 E0.11919
G1 X188.379 Y130.626 E0.06472
G1 X186.453 Y128.536 E0.11043
G1 X185.251 Y127.412 E0.06396
G1 X183.085 Y125.682 E0.10771
G1 X180.498 Y124.04 E0.11904
G1 X146.75 Y106.073 E1.48561
G1 X145.303 Y105.698 E0.05808
G1 X143.883 Y105.748 E0.05521
G1 X142.275 Y106.036 E0.06345
G1 X140.584 Y106.493 E0.06805
G1 X138.894 Y107.082 E0.06957
G1 X137.814 Y107.532 E0.04546
G1 X136.219 Y108.344 E0.06953
G1 X134.572 Y109.485 E0.07785
G1 X115.228 Y127.011 E1.01424
M104 S210 ; set temperature
G1 E-1.6 F1800
M204 S10000
G1 Z0.65 F48000
; printing object Body2.stl id:0 copy 0
EXCLUDE_OBJECT_START NAME=Body2_stl_id_0_copy_0
; acceleration to travel
G1 X142.209 Y124.08
; decel to extrusion
M204 S2000
G1 X147.605 Y123.494
; end travel
G1 Z0.25
G1 E1.6 F1800
; custom gcode: feature_gcode
; External perimeter
;Perimeter
SET_VELOCITY_LIMIT ACCEL=2000 ACCEL_TO_DECEL=2000 SQUARE_CORNER_VELOCITY=8

; Overhang perimeter
; custom gcode end: feature_gcode

;TYPE:Internal perimeter
;WIDTH:0.5
G1 F3600
G1 X145.04 Y120.99 E0.15304
G1 X143.503 Y119.576 E0.08913
G1 X139.908 Y116.404 E0.20462
G1 X138.71 Y115.316 E0.06905
G1 X137.743 Y114.367 E0.05786
G1 X137.377 Y113.968 E0.02309
G1 X137.161 Y113.688 E0.0151
G1 X137.276 Y113.524 E0.00854
G1 X137.594 Y113.205 E0.01924
G1 X138.03 Y112.866 E0.02358
G1 X138.563 Y112.525 E0.02701
G1 X139.172 Y112.193 E0.0296
G1 X139.835 Y111.877 E0.03136
G1 X140.526 Y111.588 E0.03198
G1 X141.969 Y111.081 E0.06525
G1 X142.649 Y110.882 E0.03026
G1 X143.296 Y110.719 E0.02848
G1 X143.88 Y110.595 E0.02547
G1 X144.377 Y110.515 E0.02147
G1 X144.753 Y110.481 E0.01612
G1 X144.819 Y110.482 E0.00283
G1 X145.566 Y110.897 E0.03646
G1 X146.414 Y111.468 E0.04363
G1 X147.199 Y112.097 E0.04294
G1 X147.924 Y112.779 E0.04251
G1 X148.593 Y113.51 E0.04227
G1 X149.207 Y114.283 E0.04216
G1 X149.769 Y115.095 E0.04211
G1 X150.28 Y115.937 E0.04208
G1 X150.744 Y116.806 E0.04202
G1 X151.161 Y117.694 E0.04188
G1 X151.535 Y118.596 E0.04165
G1 X151.866 Y119.504 E0.04127
G1 X152.158 Y120.413 E0.04074
G1 X152.411 Y121.308 E0.0397
G1 X152.975 Y123.691 E0.10452
G1 X154.647 Y124.03 E0.0728
G1 X155.705 Y124.307 E0.04666
G1 X156.746 Y124.642 E0.0467
G1 X157.77 Y125.035 E0.04682
G1 X158.776 Y125.484 E0.04701
G1 X159.762 Y125.988 E0.04726
G1 X160.727 Y126.545 E0.04756
G1 X162.079 Y127.42 E0.06874
G1 X163.855 Y126.767 E0.08076
G1 X165.195 Y126.39 E0.0594
G1 X166.56 Y126.118 E0.05944
G1 X167.944 Y125.952 E0.05947
G1 X169.338 Y125.895 E0.05955
G1 X170.507 Y125.934 E0.04991
G1 X171.664 Y126.049 E0.04963
G1 X172.804 Y126.24 E0.04935
G1 X173.927 Y126.504 E0.04923
G1 X175.032 Y126.839 E0.04926
G1 X176.116 Y127.244 E0.04941
G1 X177.179 Y127.717 E0.04968
G1 X178.22 Y128.257 E0.05005
G1 X179.237 Y128.862 E0.0505
G1 X180.229 Y129.53 E0.05104
G1 X181.194 Y130.26 E0.05163
G1 X182.13 Y131.049 E0.05228
G1 X183.037 Y131.897 E0.05297
G1 X183.911 Y132.801 E0.05369
G1 X184.753 Y133.76 E0.05444
G1 X185.559 Y134.771 E0.0552
G1 X186.329 Y135.833 E0.05598
G1 X187.06 Y136.943 E0.05677
G1 X187.752 Y138.101 E0.05756
G1 X188.402 Y139.304 E0.05835
G1 X189.01 Y140.549 E0.05915
G1 X189.572 Y141.836 E0.05993
G1 X190.089 Y143.162 E0.06073
G1 X190.557 Y144.524 E0.06151
G1 X190.976 Y145.923 E0.06229
G1 X191.344 Y147.354 E0.06307
G1 X191.66 Y148.816 E0.06385
G1 X191.922 Y150.307 E0.06463
G1 X192.128 Y151.826 E0.06541
G1 X192.277 Y153.37 E0.0662
G1 X192.368 Y154.937 E0.067
G1 X192.398 Y156.526 E0.06781
G1 X192.368 Y158.114 E0.06781
G1 X192.277 Y159.681 E0.067
G1 X192.128 Y161.225 E0.0662
G1 X191.922 Y162.744 E0.06541
G1 X191.66 Y164.235 E0.06463
G1 X191.344 Y165.698 E0.06385
G1 X190.976 Y167.129 E0.06307
G1 X190.557 Y168.527 E0.06229
G1 X190.089 Y169.889 E0.06151
G1 X189.572 Y171.215 E0.06073
G1 X189.01 Y172.502 E0.05994
G1 X188.402 Y173.748 E0.05915
G1 X187.752 Y174.95 E0.05835
G1 X187.06 Y176.108 E0.05756
G1 X186.329 Y177.219 E0.05677
G1 X185.559 Y178.28 E0.05598
G1 X184.753 Y179.292 E0.0552
G1 X183.911 Y180.25 E0.05443
G1 X183.037 Y181.154 E0.05369
G1 X182.13 Y182.002 E0.05297
G1 X181.194 Y182.791 E0.05228
G1 X180.229 Y183.521 E0.05163
G1 X179.237 Y184.189 E0.05104
G1 X178.22 Y184.794 E0.0505
G1 X177.179 Y185.334 E0.05005
G1 X176.116 Y185.807 E0.04968
G1 X175.032 Y186.212 E0.04941
G1 X173.927 Y186.547 E0.04926
G1 X172.804 Y186.811 E0.04923
G1 X171.664 Y187.002 E0.04935
G1 X170.507 Y187.118 E0.04963
G1 X169.338 Y187.156 E0.0499
G1 X167.945 Y187.098 E0.05954
G1 X166.561 Y186.932 E0.05948
G1 X165.195 Y186.66 E0.05945
G1 X163.855 Y186.283 E0.05941
G1 X162.085 Y185.634 E0.08046
G1 X160.368 Y186.716 E0.08662
G1 X159.028 Y187.439 E0.06499
G1 X157.654 Y188.061 E0.06437
G1 X156.248 Y188.576 E0.06393
G1 X154.812 Y188.984 E0.06371
G1 X153.348 Y189.279 E0.06374
G1 X151.858 Y189.459 E0.06405
G1 X150.344 Y189.519 E0.06467
G1 X148.786 Y189.455 E0.06655
G1 X147.256 Y189.266 E0.06581
G1 X145.754 Y188.956 E0.06544
G1 X144.284 Y188.527 E0.06537
G1 X142.846 Y187.985 E0.06557
G1 X141.444 Y187.333 E0.066
G1 X140.081 Y186.573 E0.06662
G1 X138.33 Y185.431 E0.08923
G1 X136.473 Y186.158 E0.08512
G1 X135.058 Y186.581 E0.06304
G1 X133.611 Y186.886 E0.0631
G1 X132.143 Y187.07 E0.06313
G1 X130.662 Y187.132 E0.0633
G1 X129.493 Y187.093 E0.0499
G1 X128.336 Y186.978 E0.04963
G1 X127.196 Y186.787 E0.04935
G1 X126.073 Y186.523 E0.04923
G1 X124.969 Y186.188 E0.04925
G1 X123.884 Y185.783 E0.04941
G1 X122.821 Y185.31 E0.04968
G1 X121.78 Y184.77 E0.05005
G1 X120.763 Y184.165 E0.05051
G1 X119.771 Y183.497 E0.05104
G1 X118.806 Y182.767 E0.05163
G1 X117.87 Y181.978 E0.05228
G1 X116.963 Y181.13 E0.05296
G1 X116.089 Y180.226 E0.05369
G1 X115.247 Y179.268 E0.05443
G1 X114.441 Y178.256 E0.0552
G1 X113.671 Y177.194 E0.05598
G1 X112.94 Y176.084 E0.05676
G1 X112.248 Y174.926 E0.05756
G1 X111.598 Y173.723 E0.05836
G1 X110.99 Y172.478 E0.05915
G1 X110.428 Y171.191 E0.05993
G1 X109.911 Y169.865 E0.06073
G1 X109.443 Y168.503 E0.06151
G1 X109.024 Y167.105 E0.06229
G1 X108.656 Y165.673 E0.06307
G1 X108.34 Y164.211 E0.06385
G1 X108.078 Y162.72 E0.06463
G1 X107.872 Y161.201 E0.06541
G1 X107.723 Y159.657 E0.0662
G1 X107.632 Y158.09 E0.067
G1 X107.602 Y156.501 E0.06781
G1 X107.632 Y154.913 E0.06781
G1 X107.723 Y153.346 E0.06698
G1 X107.872 Y151.803 E0.06618
G1 X108.078 Y150.285 E0.06537
G1 X108.34 Y148.795 E0.06458
G1 X108.656 Y147.334 E0.0638
G1 X109.024 Y145.905 E0.06301
G1 X109.443 Y144.508 E0.06222
G1 X109.911 Y143.147 E0.06143
G1 X110.428 Y141.823 E0.06065
G1 X110.99 Y140.539 E0.05986
G1 X111.597 Y139.295 E0.05907
G1 X112.247 Y138.095 E0.05826
G1 X112.939 Y136.939 E0.05748
G1 X113.671 Y135.831 E0.05668
G1 X114.44 Y134.771 E0.0559
G1 X115.247 Y133.763 E0.05512
G1 X116.088 Y132.806 E0.05436
G1 X116.963 Y131.904 E0.05362
G1 X117.869 Y131.059 E0.0529
G1 X118.805 Y130.271 E0.05222
G1 X119.77 Y129.544 E0.05158
G1 X120.762 Y128.877 E0.05099
G1 X121.779 Y128.274 E0.05047
G1 X122.82 Y127.736 E0.05002
G1 X123.883 Y127.264 E0.04966
G1 X124.968 Y126.86 E0.0494
G1 X126.072 Y126.526 E0.04925
G1 X127.195 Y126.263 E0.04923
G1 X128.336 Y126.073 E0.04936
G1 X129.493 Y125.958 E0.04964
G1 X130.662 Y125.919 E0.04991
G1 X132.143 Y125.981 E0.0633
G1 X133.611 Y126.165 E0.06313
G1 X135.058 Y126.47 E0.0631
G1 X136.473 Y126.893 E0.06305
G1 X138.336 Y127.623 E0.08541
G1 X139.616 Y126.767 E0.06572
G1 X140.493 Y126.237 E0.04373
G1 X141.387 Y125.751 E0.04344
G1 X142.298 Y125.31 E0.04319
G1 X143.225 Y124.916 E0.04299
G1 X144.167 Y124.569 E0.04283
G1 X147.548 Y123.512 E0.15121
G1 X146.759 Y123.292 F48000
G1 F3600
G1 X144.733 Y121.314 E0.12084
G1 X143.204 Y119.908 E0.08864
G1 X139.61 Y116.737 E0.20456
G1 X138.404 Y115.641 E0.06955
G1 X137.421 Y114.677 E0.05874
G1 X137.036 Y114.256 E0.02439
G1 X136.728 Y113.877 E0.02083
G1 X136.622 Y113.721 E0.00803
G1 X136.679 Y113.598 E0.00579
G1 X136.932 Y113.237 E0.01884
G1 X137.298 Y112.87 E0.0221
G1 X137.772 Y112.501 E0.02564
G1 X138.335 Y112.14 E0.02856
G1 X138.969 Y111.795 E0.0308
G1 X139.653 Y111.47 E0.03234
G1 X140.366 Y111.171 E0.03298
G1 X141.832 Y110.656 E0.06632
G1 X142.532 Y110.452 E0.03112
G1 X143.195 Y110.284 E0.0292
G1 X143.798 Y110.156 E0.02631
G1 X144.321 Y110.072 E0.02258
G1 X144.736 Y110.034 E0.01782
G1 X144.939 Y110.038 E0.00863
G1 X145.799 Y110.516 E0.04203
G1 X146.679 Y111.108 E0.04524
G1 X147.492 Y111.759 E0.04449
G1 X148.242 Y112.465 E0.04398
G1 X148.933 Y113.22 E0.04365
G1 X149.566 Y114.017 E0.04345
G1 X150.143 Y114.851 E0.04331
G1 X150.668 Y115.716 E0.04318
G1 X151.143 Y116.606 E0.04303
G1 X151.57 Y117.514 E0.04281
G1 X151.951 Y118.434 E0.0425
G1 X152.288 Y119.359 E0.04205
G1 X152.585 Y120.284 E0.04146
G1 X152.843 Y121.196 E0.04045
G1 X153.344 Y123.31 E0.09274
G1 X154.748 Y123.595 E0.06115
G1 X155.83 Y123.878 E0.04773
G1 X156.894 Y124.221 E0.04775
G1 X157.941 Y124.623 E0.04785
G1 X158.969 Y125.082 E0.04802
G1 X159.975 Y125.596 E0.04825
G1 X160.96 Y126.165 E0.04853
G1 X162.134 Y126.924 E0.0597
G1 X163.717 Y126.342 E0.07198
G1 X165.09 Y125.955 E0.06088
G1 X166.49 Y125.676 E0.06093
G1 X167.908 Y125.507 E0.06095
G1 X169.336 Y125.448 E0.061
G1 X170.536 Y125.488 E0.05126
G1 X171.723 Y125.607 E0.05089
G1 X172.892 Y125.802 E0.0506
G1 X174.043 Y126.072 E0.05046
G1 X175.175 Y126.416 E0.05047
G1 X176.285 Y126.831 E0.05059
G1 X177.373 Y127.315 E0.05083
G1 X178.437 Y127.867 E0.05117
G1 X179.476 Y128.485 E0.05159
G1 X180.489 Y129.167 E0.05209
G1 X181.473 Y129.911 E0.05266
G1 X182.427 Y130.716 E0.05327
G1 X183.35 Y131.579 E0.05393
G1 X184.24 Y132.498 E0.05463
G1 X185.095 Y133.473 E0.05535
G1 X185.914 Y134.5 E0.05609
G1 X186.696 Y135.579 E0.05684
G1 X187.439 Y136.706 E0.05761
G1 X188.14 Y137.88 E0.05838
G1 X188.8 Y139.1 E0.05916
G1 X189.415 Y140.362 E0.05994
G1 X189.985 Y141.665 E0.06072
G1 X190.508 Y143.008 E0.0615
G1 X190.982 Y144.388 E0.06227
G1 X191.406 Y145.803 E0.06305
G1 X191.779 Y147.251 E0.06382
G1 X192.098 Y148.73 E0.0646
G1 X192.363 Y150.239 E0.06537
G1 X192.572 Y151.775 E0.06615
G1 X192.722 Y153.336 E0.06694
G1 X192.814 Y154.92 E0.06774
G1 X192.845 Y156.526 E0.06854
G1 X192.814 Y158.131 E0.06855
G1 X192.722 Y159.716 E0.06774
G1 X192.572 Y161.277 E0.06694
G1 X192.363 Y162.812 E0.06615
G1 X192.098 Y164.321 E0.06537
G1 X191.779 Y165.8 E0.06459
