; HEADER_BLOCK_START
; generated by OrcaSlicer 1.7.0 on 2023-09-28 at 22:27:47
; total layer number: 20
; HEADER_BLOCK_END

; THUMBNAIL_BLOCK_START
; THUMBNAIL_BLOCK_END

; external perimeters extrusion width = 0.40mm
; perimeters extrusion width = 0.40mm
; infill extrusion width = 0.64mm
; solid infill extrusion width = 0.56mm
; top infill extrusion width = 0.40mm
; first layer extrusion width = 0.50mm

; EXECUTABLE_BLOCK_START
EXCLUDE_OBJECT_DEFINE NAME=gear_one_new.stl_id_0_copy_0 CENTER=150,150 POLYGON=[[139.974,150.958],[140.166,147.767],[140.289,147.276],[141.621,144.37],[141.912,143.957],[144.204,141.729],[144.625,141.449],[147.567,140.199],[148.061,140.09],[151.256,139.987],[151.756,140.064],[154.772,141.122],[155.21,141.374],[157.641,143.45],[157.959,143.844],[159.475,146.658],[159.629,147.14],[160.026,150.312],[159.996,150.816],[159.22,153.918],[159.01,154.377],[157.166,156.989],[156.804,157.341],[154.142,159.111],[153.676,159.309],[150.555,159.997],[150.049,160.013],[146.89,159.527],[146.413,159.36],[143.642,157.766],[143.258,157.437],[141.25,154.949],[141.01,154.504],[140.037,151.459],[139.974,150.958]]
M73 P0 R6
;TYPE:Custom
M190 S0
M104 S0
PRINT_START EXTRUDER_TEMP=225 BED_TEMP=60 FILAMENT=PLA ENCLOSURE_TEMP=45
G90
G21
M83 ; use relative distances for extrusion
; Filament gcode
M106 S0
;LAYER_CHANGE
;Z:0.25
;HEIGHT:0.25
;BEFORE_LAYER_CHANGE
;0.25
G92 E0

G1 E-.8 F1800
;AFTER_LAYER_CHANGE
;0.25
;_SET_FAN_SPEED_CHANGING_LAYER
SET_VELOCITY_LIMIT ACCEL=1000 ACCEL_TO_DECEL=500
SET_VELOCITY_LIMIT SQUARE_CORNER_VELOCITY=9
G1 X139.198 Y141.166 F30000
G1 Z.25
G1 E.8 F1800
;TYPE:Skirt
;WIDTH:0.5
G1 F2400
G1 X141.49 Y138.938 E.13496
G1 X142.049 Y138.487 E.03032
G1 X143.103 Y137.866 E.05161
G1 X146.045 Y136.616 E.13496
G1 X146.729 Y136.397 E.03032
G1 X147.936 Y136.199 E.05161
G1 X151.131 Y136.096 E.13497
G1 X151.848 Y136.139 E.03032
G1 X153.025 Y136.387 E.0508
G1 X156.058 Y137.447 E.13562
G1 X157.152 Y138 E.05176
G1 X157.739 Y138.414 E.03033
G1 X160.17 Y140.491 E.13496
G1 X160.988 Y141.399 E.05161
G1 X161.385 Y141.997 E.03033
G1 X162.902 Y144.812 E.13497
G1 X163.337 Y145.954 E.05161
G1 X163.491 Y146.656 E.03033
G1 X163.889 Y149.828 E.13497
G1 X163.881 Y151.05 E.05161
G1 X163.772 Y151.76 E.03033
G1 X162.997 Y154.862 E.13497
G1 X162.549 Y155.999 E.05161
G1 X162.19 Y156.622 E.03033
G1 X160.347 Y159.234 E.13497
G1 X159.518 Y160.132 E.05161
G1 X158.959 Y160.583 E.03033
G1 X156.296 Y162.353 E.13496
G1 X155.199 Y162.891 E.05161
G1 X154.515 Y163.11 E.03033
G1 X151.393 Y163.798 E.13497
G1 X150.175 Y163.904 E.05161
G1 X149.458 Y163.861 E.03033
G1 X146.298 Y163.375 E.13497
G1 X145.124 Y163.033 E.05161
G1 X144.471 Y162.734 E.03033
G1 X141.7 Y161.139 E.13497
G1 X140.729 Y160.397 E.05161
G1 X140.228 Y159.882 E.03033
G1 X138.221 Y157.394 E.13496
G1 X137.583 Y156.351 E.05161
G1 X137.302 Y155.69 E.03033
G1 X136.329 Y152.645 E.13497
G1 X136.174 Y151.943 E.03032
G1 X136.088 Y150.724 E.05161
G1 X136.28 Y147.533 E.13497
G1 X136.512 Y146.332 E.05161
G1 X136.75 Y145.654 E.03033
G1 X138.082 Y142.748 E.13497
G1 X138.44 Y142.126 E.03032
G1 X139.174 Y141.198 E.04992
G1 X139.51 Y141.486 F30000
G1 F2400
G1 X142.296 Y138.858 E.16172
G1 X143.277 Y138.277 E.04814
G1 X146.825 Y136.833 E.16172
G1 X147.95 Y136.645 E.04814
G1 X151.78 Y136.58 E.16172
G1 X152.878 Y136.808 E.04734
G1 X155.91 Y137.869 E.13562
G1 X156.929 Y138.387 E.04826
G1 X159.88 Y140.83 E.16172
G1 X160.64 Y141.679 E.04813
G1 X162.509 Y145.023 E.16172
G1 X162.912 Y146.09 E.04814
M73 P1 R6
G1 X163.446 Y149.883 E.16172
G1 X163.436 Y151.023 E.04813
G1 X162.564 Y154.754 E.16172
G1 X162.143 Y155.813 E.04814
G1 X159.982 Y158.976 E.16172
G1 X159.207 Y159.812 E.04814
G1 X156.049 Y161.981 E.16172
G1 X155.024 Y162.48 E.04813
G1 X151.297 Y163.363 E.16172
G1 X150.16 Y163.458 E.04813
G1 X149.526 Y163.42 E.02685
G1 X146.366 Y162.934 E.13497
G1 X145.272 Y162.612 E.04813
G1 X144.694 Y162.347 E.02685
G1 X141.923 Y160.753 E.13497
G1 X141.019 Y160.058 E.04813
G1 X138.568 Y157.114 E.16172
G1 X137.976 Y156.139 E.04814
G1 X137.727 Y155.554 E.02685
G1 X136.617 Y151.888 E.16172
G1 X136.534 Y150.751 E.04814
G1 X136.726 Y147.559 E.13497
G1 X136.945 Y146.441 E.04813
G1 X137.156 Y145.84 E.02685
G1 X138.805 Y142.383 E.16172
G1 X139.485 Y141.518 E.04645
; printing object gear_one_new.stl id:0 copy 0
G1 E-.56 F1800
;WIPE_START
G1 F2400
G1 X140.211 Y140.831 E-.24
;WIPE_END
EXCLUDE_OBJECT_START NAME=gear_one_new.stl_id_0_copy_0
G1 Z.65 F30000
G1 X143.838 Y151.177 Z.65
G1 Z.25
G1 E.8 F1800
;TYPE:Inner wall
;WIDTH:0.406989
G1 F2400
G1 X143.782 Y151.047 E.00473
G1 X143.53 Y150.767 E.01258
;WIDTH:0.384924
G1 X143.667 Y150.479 E.00998
;WIDTH:0.399832
G1 X143.754 Y149.99 E.01626
G1 X143.789 Y150.137 E.00496
G1 X144.015 Y150.508 E.01423
;WIDTH:0.384924
G1 X143.907 Y150.783 E.00926
;WIDTH:0.406989
G1 X143.845 Y151.137 E.01201
G1 E-.56 F1800
;WIPE_START
G1 F2400
G1 X143.782 Y151.047 E-.02644
G1 X143.53 Y150.767 E-.09033
G1 X143.667 Y150.479 E-.07647
G1 X143.701 Y150.287 E-.04677
;WIPE_END
G1 Z.65 F30000
G1 X144.616 Y152.625 Z.65
G1 Z.25
G1 E.8 F1800
;WIDTH:0.384896
G1 F2400
G1 X144.615 Y152.921 E.00926
;WIDTH:0.406947
G1 X144.692 Y153.313 E.01335
G1 X144.593 Y153.212 E.00473
G1 X144.257 Y153.042 E.01258
;WIDTH:0.384896
G1 X144.281 Y152.724 E.00999
;WIDTH:0.399655
G1 X144.184 Y152.235 E.0163
G1 X144.271 Y152.361 E.00501
G1 X144.585 Y152.601 E.0129
G1 E-.56 F1800
;WIPE_START
G1 F2400
G1 X144.615 Y152.921 E-.07714
G1 X144.692 Y153.313 E-.09588
G1 X144.593 Y153.212 E-.03394
G1 X144.47 Y153.15 E-.03303
;WIPE_END
G1 E0 F1800
G1 Z.65 F30000
G1 X146.26 Y154.996 Z.65
G1 Z.25
G1 E.8 F1800
;WIDTH:0.406986
G1 F2400
G1 X146.132 Y154.937 E.00473
G1 X145.757 Y154.9 E.01258
;WIDTH:0.384923
G1 X145.664 Y154.596 E.00998
;WIDTH:0.39983
G1 X145.399 Y154.176 E.01626
G1 X145.524 Y154.261 E.00496
G1 X145.941 Y154.382 E.01423
;WIDTH:0.384923
G1 X146.047 Y154.658 E.00926
;WIDTH:0.406986
G1 X146.239 Y154.962 E.01201
G1 E-.56 F1800
;WIPE_START
G1 F2400
G1 X146.132 Y154.937 E-.02644
G1 X145.757 Y154.9 E-.09033
G1 X145.664 Y154.596 E-.07646
G1 X145.56 Y154.431 E-.04677
;WIPE_END
G1 Z.65 F30000
G1 X148.331 Y155.999 Z.65
G1 Z.25
G1 E.8 F1800
;WIDTH:0.406944
G1 F2400
G1 X148.19 Y155.991 E.00473
G1 X147.827 Y156.092 E.01258
;WIDTH:0.384895
G1 X147.63 Y155.841 E.00999
;WIDTH:0.39964
G1 X147.23 Y155.545 E.0163
G1 X147.379 Y155.579 E.00501
G1 X147.812 Y155.542 E.01421
;WIDTH:0.384895
G1 X148.01 Y155.761 E.00926
;WIDTH:0.406944
G1 X148.299 Y155.975 E.01201
G1 E-.56 F1800
;WIPE_START
G1 F2400
G1 X148.19 Y155.991 E-.02644
G1 X147.827 Y156.092 E-.09033
G1 X147.63 Y155.841 E-.0765
G1 X147.474 Y155.725 E-.04672
;WIPE_END
G1 Z.65 F30000
G1 X150.582 Y156.191 Z.65
G1 Z.25
G1 E.8 F1800
;WIDTH:0.415056
G1 F2400
G1 X150.486 Y156.222 E.00345
G1 X150.187 Y156.454 E.01293
;WIDTH:0.384923
G1 X149.913 Y156.292 E.00998
;WIDTH:0.399822
G1 X149.434 Y156.16 E.01627
G1 X149.584 Y156.139 E.00496
G1 X149.975 Y155.947 E.01423
;WIDTH:0.384923
G1 X150.238 Y156.08 E.00926
;WIDTH:0.415056
G1 X150.544 Y156.178 E.01096
G1 E-.56 F1800
;WIPE_START
G1 F2400
G1 X150.486 Y156.222 E-.01737
G1 X150.187 Y156.454 E-.09081
G1 X149.913 Y156.292 E-.07646
G1 X149.691 Y156.231 E-.05535
;WIPE_END
M73 P2 R6
G1 Z.65 F30000
G1 X152.792 Y155.552 Z.65
G1 Z.25
G1 E.8 F1800
;WIDTH:0.415173
G1 F2400
G1 X152.714 Y155.615 E.00343
G1 X152.52 Y155.94 E.01294
;WIDTH:0.384894
G1 X152.205 Y155.888 E.00999
;WIDTH:0.38237
G1 X151.483 Y156.007 E.02277
G1 X151.832 Y155.849 E.01194
G1 X152.138 Y155.544 E.01341
;WIDTH:0.384894
G1 X152.432 Y155.573 E.00926
;WIDTH:0.415173
G1 X152.752 Y155.554 E.01094
G1 E-.56 F1800
;WIPE_START
G1 F2400
G1 X152.714 Y155.615 E-.0172
G1 X152.52 Y155.94 E-.09083
G1 X152.205 Y155.888 E-.0765
G1 X151.977 Y155.925 E-.05547
;WIPE_END
G1 Z.65 F30000
G1 X154.622 Y154.158 Z.65
G1 Z.25
G1 E.8 F1800
;WIDTH:0.415059
G1 F2400
G1 X154.572 Y154.245 E.00345
G1 X154.509 Y154.618 E.01293
;WIDTH:0.384924
G1 X154.197 Y154.683 E.00998
;WIDTH:0.382393
G1 X153.566 Y155.055 E.02277
G1 X153.835 Y154.781 E.01193
G1 X154.01 Y154.387 E.01341
;WIDTH:0.384924
G1 X154.294 Y154.308 E.00926
;WIDTH:0.415059
G1 X154.586 Y154.174 E.01096
G1 E-.56 F1800
;WIPE_START
G1 F2400
G1 X154.572 Y154.245 E-.01737
G1 X154.509 Y154.618 E-.09081
G1 X154.197 Y154.683 E-.07646
G1 X153.998 Y154.8 E-.05536
;WIPE_END
G1 Z.65 F30000
G1 X155.825 Y152.197 Z.65
G1 Z.25
G1 E.8 F1800
;WIDTH:0.415156
G1 F2400
G1 X155.81 Y152.296 E.00343
G1 X155.886 Y152.667 E.01294
;WIDTH:0.384894
G1 X155.618 Y152.84 E.00999
;WIDTH:0.382368
G1 X155.165 Y153.415 E.02277
G1 X155.316 Y153.062 E.01194
G1 X155.337 Y152.632 E.01341
;WIDTH:0.384894
G1 X155.574 Y152.455 E.00926
;WIDTH:0.415156
G1 X155.797 Y152.226 E.01094
G1 E-.56 F1800
;WIPE_START
G1 F2400
G1 X155.81 Y152.296 E-.01722
G1 X155.886 Y152.667 E-.09083
G1 X155.618 Y152.84 E-.0765
G1 X155.475 Y153.021 E-.05545
;WIPE_END
G1 Z.65 F30000
G1 X156.071 Y151.093 Z.65
G1 Z.25
G1 E.8 F1800
;WIDTH:0.382412
G1 F2400
G1 X156.077 Y150.925 E.00524
G1 X155.94 Y150.516 E.01342
;WIDTH:0.384953
G1 X156.097 Y150.265 E.00926
;WIDTH:0.415184
G1 X156.239 Y149.934 E.01232
G1 X156.261 Y150.032 E.00344
G1 X156.465 Y150.35 E.01294
;WIDTH:0.384953
G1 X156.278 Y150.608 E.00998
;WIDTH:0.382412
G1 X156.063 Y151.308 E.02277
G1 X156.069 Y151.133 E.00544
G1 E-.56 F1800
;WIPE_START
G1 F2400
G1 X156.077 Y150.925 E-.05008
G1 X155.94 Y150.516 E-.10354
G1 X156.097 Y150.265 E-.07092
G1 X156.122 Y150.206 E-.01546
;WIPE_END
G1 Z.65 F30000
G1 X156.139 Y149.02 Z.65
G1 Z.25
G1 E.8 F1800
;WIDTH:0.38237
G1 F2400
G1 X156.013 Y148.656 E.01195
G1 X155.739 Y148.324 E.01341
;WIDTH:0.384895
G1 X155.794 Y148.034 E.00926
;WIDTH:0.415166
G1 X155.807 Y147.674 E.01231
G1 X155.862 Y147.757 E.00343
G1 X156.168 Y147.98 E.01294
;WIDTH:0.384895
G1 X156.087 Y148.289 E.00999
;WIDTH:0.38237
G1 X156.136 Y148.98 E.02154
G1 E-.56 F1800
;WIPE_START
G1 F2400
G1 X156.013 Y148.656 E-.08298
G1 X155.739 Y148.324 E-.10348
G1 X155.781 Y148.105 E-.05354
;WIPE_END
G1 Z.65 F30000
G1 X155.384 Y146.857 Z.65
G1 Z.25
G1 E.8 F1800
;WIDTH:0.382403
G1 F2400
G1 X155.135 Y146.564 E.01193
G1 X154.759 Y146.354 E.01341
;WIDTH:0.384939
G1 X154.706 Y146.063 E.00926
;WIDTH:0.415129
G1 X154.587 Y145.723 E.01233
G1 X154.67 Y145.78 E.00345
G1 X155.035 Y145.878 E.01294
;WIDTH:0.384939
G1 X155.071 Y146.195 E.00998
;WIDTH:0.382403
G1 X155.366 Y146.821 E.02152
G1 E-.56 F1800
;WIPE_START
G1 F2400
G1 X155.135 Y146.564 E-.08282
G1 X154.759 Y146.354 E-.10354
G1 X154.719 Y146.134 E-.05365
;WIPE_END
G1 E0 F1800
G1 Z.65 F30000
G1 X153.898 Y145.114 Z.65
G1 Z.25
G1 E.8 F1800
;WIDTH:0.382373
G1 F2400
G1 X153.561 Y144.931 E.01195
G1 X153.134 Y144.87 E.0134
;WIDTH:0.384895
G1 X152.979 Y144.618 E.00927
;WIDTH:0.415164
G1 X152.746 Y144.344 E.01231
G1 X152.843 Y144.368 E.00343
G1 X153.219 Y144.327 E.01294
;WIDTH:0.384895
G1 X153.367 Y144.609 E.00999
;WIDTH:0.382373
G1 X153.869 Y145.087 E.02154
G1 E-.56 F1800
;WIPE_START
G1 F2400
G1 X153.561 Y144.931 E-.08304
G1 X153.134 Y144.87 E-.10347
G1 X153.017 Y144.68 E-.05349
;WIPE_END
G1 Z.65 F30000
G1 X151.883 Y144.025 Z.65
G1 Z.25
G1 E.8 F1800
;WIDTH:0.382394
G1 F2400
G1 X151.502 Y143.976 E.01193
G1 X151.082 Y144.074 E.01341
;WIDTH:0.384921
G1 X150.847 Y143.895 E.00926
;WIDTH:0.406997
G1 X150.488 Y143.72 E.01335
G1 X150.628 Y143.702 E.00473
G1 X150.966 Y143.536 E.01258
;WIDTH:0.384921
G1 X151.206 Y143.747 E.00998
;WIDTH:0.382394
G1 X151.846 Y144.01 E.02152
G1 E-.56 F1800
;WIPE_START
G1 F2400
G1 X151.502 Y143.976 E-.08282
G1 X151.082 Y144.074 E-.10354
G1 X150.904 Y143.938 E-.05364
;WIPE_END
G1 Z.65 F30000
G1 X149.373 Y143.764 Z.65
G1 Z.25
G1 E.8 F1800
;WIDTH:0.399842
G1 F2400
G1 X149.23 Y143.813 E.00496
G1 X148.882 Y144.073 E.01423
;WIDTH:0.38492
G1 X148.598 Y143.99 E.00926
;WIDTH:0.406987
G1 X148.2 Y143.957 E.01335
M73 P3 R6
G1 X148.324 Y143.89 E.00473
G1 X148.579 Y143.613 E.01258
;WIDTH:0.38492
G1 X148.878 Y143.723 E.00998
;WIDTH:0.399842
G1 X149.333 Y143.761 E.01495
G1 E-.56 F1800
;WIPE_START
G1 F2400
G1 X149.23 Y143.813 E-.02781
G1 X148.882 Y144.073 E-.10428
G1 X148.598 Y143.99 E-.07093
G1 X148.444 Y143.978 E-.03698
;WIPE_END
G1 Z.65 F30000
G1 X147.177 Y144.4 Z.65
G1 Z.25
G1 E.8 F1800
;WIDTH:0.399669
G1 F2400
G1 X147.06 Y144.499 E.005
G1 X146.829 Y144.866 E.01421
;WIDTH:0.384893
G1 X146.535 Y144.892 E.00926
;WIDTH:0.406943
G1 X146.151 Y145.005 E.01335
G1 X146.243 Y144.897 E.00473
G1 X146.381 Y144.547 E.01258
;WIDTH:0.384893
G1 X146.7 Y144.541 E.00999
;WIDTH:0.399669
G1 X147.139 Y144.412 E.01498
G1 E-.56 F1800
;WIPE_START
G1 F2400
G1 X147.06 Y144.499 E-.02814
G1 X146.829 Y144.866 E-.10423
G1 X146.535 Y144.892 E-.07097
G1 X146.388 Y144.935 E-.03667
;WIPE_END
G1 Z.65 F30000
G1 X145.202 Y146.348 Z.65
G1 Z.25
G1 E.8 F1800
;WIDTH:0.384926
G1 F2400
G1 X144.937 Y146.478 E.00926
;WIDTH:0.406992
G1 X144.62 Y146.722 E.01335
G1 X144.667 Y146.588 E.00473
G1 X144.669 Y146.212 E.01258
;WIDTH:0.384926
G1 X144.964 Y146.091 E.00998
;WIDTH:0.399837
G1 X145.357 Y145.788 E.01626
G1 X145.284 Y145.921 E.00496
G1 X145.21 Y146.309 E.01292
G1 E-.56 F1800
;WIPE_START
G1 F2400
G1 X144.937 Y146.478 E-.0771
G1 X144.62 Y146.722 E-.09587
G1 X144.667 Y146.588 E-.03394
G1 X144.668 Y146.451 E-.03309
;WIPE_END
G1 Z.65 F30000
G1 X144.22 Y148.317 Z.65
G1 Z.25
G1 E.8 F1800
;WIDTH:0.384896
G1 F2400
G1 X144.02 Y148.535 E.00926
;WIDTH:0.406947
G1 X143.813 Y148.876 E.01335
G1 X143.808 Y148.735 E.00473
G1 X143.674 Y148.383 E.01258
;WIDTH:0.384896
G1 X143.905 Y148.164 E.00999
;WIDTH:0.399657
G1 X144.163 Y147.738 E.0163
G1 X144.143 Y147.89 E.005
G1 X144.213 Y148.278 E.0129
G1 E-.56 F1800
;WIPE_START
G1 F2400
G1 X144.02 Y148.535 E-.07714
G1 X143.813 Y148.876 E-.09588
G1 X143.808 Y148.735 E-.03394
G1 X143.759 Y148.606 E-.03303
;WIPE_END
G1 E0 F1800
G1 Z.65 F30000
G1 X155.7 Y151.06 Z.65
G1 Z.25
G1 E.8 F1800
;WIDTH:0.546609
G1 F2400
G1 X155.709 Y151.164 E.00485
;WIDTH:0.593218
G1 X155.722 Y151.337 E.00883
;WIDTH:0.639827
G1 X155.736 Y151.509 E.00959
G1 X155.608 Y151.875 E.02151
;WIDTH:0.632039
G1 X155.469 Y152.006 E.01044
;WIDTH:0.588026
G1 X155.33 Y152.136 E.00964
;WIDTH:0.544013
G1 X155.19 Y152.266 E.00885
;WIDTH:0.499999
G1 X154.899 Y152.415 E.01379
G1 X154.957 Y152.735 E.01371
G1 X154.936 Y152.987 E.01069
;WIDTH:0.546608
G1 X154.886 Y153.153 E.00807
;WIDTH:0.593217
G1 X154.837 Y153.318 E.00883
;WIDTH:0.639826
G1 X154.787 Y153.484 E.0096
G1 X154.536 Y153.78 E.02152
;WIDTH:0.631955
G1 X154.359 Y153.851 E.01043
;WIDTH:0.58797
G1 X154.182 Y153.922 E.00964
;WIDTH:0.543985
G1 X154.005 Y153.994 E.00885
;WIDTH:0.499999
G1 X153.68 Y154.027 E.01378
G1 X153.618 Y154.346 E.01371
G1 X153.508 Y154.573 E.0107
;WIDTH:0.546609
G1 X153.401 Y154.71 E.00807
;WIDTH:0.593218
G1 X153.295 Y154.847 E.00883
;WIDTH:0.639827
G1 X153.189 Y154.984 E.00959
G1 X152.848 Y155.168 E.02151
;WIDTH:0.632052
G1 X152.657 Y155.171 E.01044
;WIDTH:0.588035
G1 X152.466 Y155.173 E.00964
;WIDTH:0.544017
G1 X152.276 Y155.176 E.00885
;WIDTH:0.499999
G1 X151.961 Y155.089 E.01379
G1 X151.788 Y155.364 E.01371
G1 X151.602 Y155.537 E.01069
;WIDTH:0.546609
G1 X151.454 Y155.626 E.00807
;WIDTH:0.593219
G1 X151.306 Y155.715 E.00883
;WIDTH:0.639828
G1 X151.158 Y155.804 E.00959
G1 X150.772 Y155.853 E.02152
;WIDTH:0.631953
G1 X150.594 Y155.786 E.01043
;WIDTH:0.587969
G1 X150.415 Y155.72 E.00964
;WIDTH:0.543984
G1 X150.236 Y155.653 E.00885
;WIDTH:0.499999
G1 X149.974 Y155.459 E.01379
G1 X149.713 Y155.653 E.01372
;WIDTH:0.537657
G1 X149.587 Y155.705 E.00623
;WIDTH:0.575315
G1 X149.462 Y155.757 E.00671
;WIDTH:0.612973
G1 X149.336 Y155.809 E.0072
;WIDTH:0.650631
G1 X149.21 Y155.861 E.00768
;WIDTH:0.658954
G1 X148.585 Y155.755 E.03629
G1 X148.479 Y155.656 E.00826
;WIDTH:0.619216
G1 X148.374 Y155.558 E.00772
;WIDTH:0.579477
G1 X148.268 Y155.46 E.00718
;WIDTH:0.539738
G1 X148.162 Y155.362 E.00664
;WIDTH:0.499999
G1 X147.987 Y155.086 E.01379
G1 X147.674 Y155.173 E.01371
;WIDTH:0.537658
G1 X147.538 Y155.176 E.00623
;WIDTH:0.575317
G1 X147.402 Y155.179 E.00671
;WIDTH:0.612976
G1 X147.266 Y155.182 E.0072
;WIDTH:0.650635
G1 X147.13 Y155.185 E.00768
;WIDTH:0.658979
G1 X146.586 Y154.86 E.03631
G1 X146.522 Y154.73 E.00826
;WIDTH:0.619234
G1 X146.459 Y154.601 E.00772
;WIDTH:0.579489
