; HEADER_BLOCK_START
; generated by OrcaSlicer 1.7.0 on 2023-09-28 at 22:42:01
; total layer number: 25
; HEADER_BLOCK_END

; THUMBNAIL_BLOCK_START
; THUMBNAIL_BLOCK_END

; external perimeters extrusion width = 0.40mm
; perimeters extrusion width = 0.40mm
; infill extrusion width = 0.64mm
; solid infill extrusion width = 0.56mm
; top infill extrusion width = 0.40mm
; first layer extrusion width = 0.50mm

; EXECUTABLE_BLOCK_START
EXCLUDE_OBJECT_DEFINE NAME=gear_one_new_2.stl_id_0_copy_0 CENTER=150,150 POLYGON=[[139.974,150.958],[140.166,147.767],[140.289,147.276],[141.621,144.37],[141.912,143.957],[144.204,141.729],[144.625,141.449],[147.567,140.199],[148.061,140.09],[151.256,139.987],[151.756,140.064],[154.772,141.122],[155.21,141.374],[157.641,143.45],[157.959,143.844],[159.475,146.658],[159.629,147.14],[160.026,150.312],[159.996,150.816],[159.22,153.918],[159.01,154.377],[157.166,156.989],[156.804,157.341],[154.142,159.111],[153.676,159.309],[150.555,159.997],[150.049,160.013],[146.89,159.527],[146.413,159.36],[143.642,157.766],[143.258,157.437],[141.25,154.949],[141.01,154.504],[140.037,151.459],[139.974,150.958]]
M73 P0 R9
;TYPE:Custom
M190 S0
M104 S0
PRINT_START EXTRUDER_TEMP=225 BED_TEMP=60 FILAMENT=PLA ENCLOSURE_TEMP=45
G90
G21
M83 ; use relative distances for extrusion
; Filament gcode
M106 S0
;LAYER_CHANGE
;Z:0.25
;HEIGHT:0.25
;BEFORE_LAYER_CHANGE
;0.25
G92 E0

G1 E-.8 F1800
;AFTER_LAYER_CHANGE
;0.25
;_SET_FAN_SPEED_CHANGING_LAYER
SET_VELOCITY_LIMIT ACCEL=1000 ACCEL_TO_DECEL=500
SET_VELOCITY_LIMIT SQUARE_CORNER_VELOCITY=9
G1 X139.198 Y141.166 F30000
G1 Z.25
G1 E.8 F1800
;TYPE:Skirt
;WIDTH:0.5
G1 F2400
G1 X141.49 Y138.938 E.13497
G1 X142.049 Y138.487 E.03032
G1 X143.103 Y137.866 E.05161
G1 X146.045 Y136.616 E.13496
G1 X146.729 Y136.397 E.03032
G1 X147.936 Y136.199 E.05161
G1 X151.131 Y136.096 E.13497
G1 X151.848 Y136.139 E.03032
G1 X153.029 Y136.387 E.05096
G1 X156.058 Y137.448 E.13549
G1 X157.152 Y138 E.05173
G1 X157.739 Y138.414 E.03033
G1 X160.17 Y140.491 E.13496
G1 X160.988 Y141.399 E.05161
G1 X161.385 Y141.997 E.03033
G1 X162.902 Y144.812 E.13497
G1 X163.337 Y145.954 E.05161
G1 X163.491 Y146.656 E.03033
G1 X163.889 Y149.828 E.13497
G1 X163.881 Y151.05 E.05161
G1 X163.772 Y151.76 E.03033
G1 X162.997 Y154.862 E.13497
G1 X162.549 Y155.999 E.05161
G1 X162.19 Y156.622 E.03032
G1 X160.347 Y159.234 E.13497
G1 X159.518 Y160.132 E.05161
G1 X158.959 Y160.583 E.03033
G1 X156.296 Y162.353 E.13497
G1 X155.199 Y162.891 E.05161
G1 X154.515 Y163.11 E.03033
G1 X151.393 Y163.798 E.13497
G1 X150.175 Y163.904 E.05161
G1 X149.458 Y163.861 E.03033
G1 X146.298 Y163.375 E.13497
G1 X145.124 Y163.033 E.05161
G1 X144.471 Y162.734 E.03033
G1 X141.7 Y161.139 E.13497
G1 X140.729 Y160.397 E.05161
G1 X140.228 Y159.882 E.03033
G1 X138.221 Y157.394 E.13496
G1 X137.583 Y156.351 E.05161
G1 X137.302 Y155.69 E.03033
G1 X136.329 Y152.645 E.13497
G1 X136.174 Y151.943 E.03032
G1 X136.088 Y150.724 E.05161
G1 X136.28 Y147.533 E.13497
G1 X136.512 Y146.332 E.05161
G1 X136.75 Y145.654 E.03033
G1 X138.082 Y142.748 E.13497
G1 X138.44 Y142.126 E.03032
G1 X139.174 Y141.198 E.04992
G1 X139.51 Y141.486 F30000
G1 F2400
G1 X142.296 Y138.858 E.16172
G1 X143.277 Y138.277 E.04814
G1 X146.825 Y136.833 E.16172
G1 X147.95 Y136.645 E.04814
G1 X151.78 Y136.58 E.16172
G1 X152.882 Y136.809 E.0475
G1 X155.911 Y137.869 E.13549
G1 X156.929 Y138.387 E.04824
G1 X159.88 Y140.83 E.16172
G1 X160.64 Y141.679 E.04813
G1 X162.509 Y145.023 E.16172
G1 X162.912 Y146.09 E.04814
G1 X163.446 Y149.883 E.16172
G1 X163.436 Y151.023 E.04813
G1 X162.564 Y154.754 E.16172
G1 X162.143 Y155.813 E.04814
G1 X159.982 Y158.976 E.16172
G1 X159.207 Y159.812 E.04814
G1 X156.049 Y161.981 E.16172
G1 X155.024 Y162.48 E.04813
G1 X151.297 Y163.363 E.16172
G1 X150.16 Y163.458 E.04813
G1 X149.526 Y163.42 E.02685
G1 X146.366 Y162.934 E.13497
G1 X145.272 Y162.612 E.04813
G1 X144.694 Y162.347 E.02685
G1 X141.923 Y160.753 E.13497
G1 X141.019 Y160.058 E.04813
G1 X138.568 Y157.114 E.16172
G1 X137.976 Y156.139 E.04814
G1 X137.727 Y155.554 E.02685
G1 X136.617 Y151.888 E.16172
G1 X136.534 Y150.751 E.04814
G1 X136.726 Y147.559 E.13497
G1 X136.945 Y146.441 E.04813
G1 X137.156 Y145.84 E.02685
G1 X138.805 Y142.383 E.16172
G1 X139.485 Y141.518 E.04645
; printing object gear_one_new_2.stl id:0 copy 0
G1 E-.56 F1800
;WIPE_START
G1 F2400
G1 X140.211 Y140.831 E-.24
;WIPE_END
EXCLUDE_OBJECT_START NAME=gear_one_new_2.stl_id_0_copy_0
G1 Z.65 F30000
G1 X146.397 Y145.07 Z.65
G1 Z.25
G1 E.8 F1800
;TYPE:Inner wall
;WIDTH:0.507235
G1 F2400
G1 X146.681 Y145.005 E.01248
;WIDTH:0.499999
G1 X146.926 Y145.004 E.01036
G1 X147.097 Y144.679 E.01547
;WIDTH:0.529421
G1 X147.37 Y144.406 E.01737
G1 X147.948 Y144.159 E.0283
;WIDTH:0.526007
G1 X148.312 Y144.093 E.01652
;WIDTH:0.507243
G1 X148.693 Y144.148 E.01652
;WIDTH:0.499999
G1 X148.922 Y144.236 E.01036
G1 X149.199 Y143.995 E.01548
;WIDTH:0.52942
G1 X149.552 Y143.839 E.01737
G1 X150.18 Y143.817 E.02831
;WIDTH:0.52601
G1 X150.544 Y143.886 E.01653
;WIDTH:0.509428
G1 X150.879 Y144.076 E.0166
;WIDTH:0.499999
G1 X151.061 Y144.241 E.01036
G1 X151.406 Y144.116 E.01548
G1 X151.557 Y144.099 E.00642
;WIDTH:0.519493
G1 X152.014 Y144.165 E.02036
;WIDTH:0.532712
M73 P1 R9
G1 X152.501 Y144.354 E.02366
G1 X152.847 Y144.659 E.02092
;WIDTH:0.499999
G1 X153.054 Y145.018 E.01748
G1 X153.42 Y145.027 E.01547
G1 X153.567 Y145.065 E.00642
;WIDTH:0.519635
G1 X153.97 Y145.291 E.02034
;WIDTH:0.5328
G1 X154.356 Y145.644 E.0237
G1 X154.568 Y146.054 E.02092
;WIDTH:0.499999
G1 X154.631 Y146.463 E.01747
G1 X154.97 Y146.603 E.01549
G1 X155.093 Y146.692 E.00642
;WIDTH:0.519493
G1 X155.387 Y147.049 E.02036
;WIDTH:0.532713
G1 X155.619 Y147.516 E.02366
G1 X155.669 Y147.975 E.02092
;WIDTH:0.499999
G1 X155.58 Y148.38 E.01748
G1 X155.845 Y148.633 E.01547
G1 X155.928 Y148.76 E.00642
;WIDTH:0.519574
G1 X156.073 Y149.199 E.02038
;WIDTH:0.532869
G1 X156.12 Y149.719 E.02366
G1 X156.002 Y150.165 E.02092
;WIDTH:0.499999
G1 X155.772 Y150.51 E.01747
G1 X155.928 Y150.842 E.01549
G1 X155.959 Y150.991 E.00642
;WIDTH:0.519491
G1 X155.936 Y151.452 E.02036
;WIDTH:0.532714
G1 X155.793 Y151.954 E.02366
G1 X155.521 Y152.327 E.02092
;WIDTH:0.499999
G1 X155.182 Y152.566 E.01748
G1 X155.208 Y152.932 E.01547
G1 X155.183 Y153.082 E.00642
;WIDTH:0.519491
G1 X154.995 Y153.504 E.02036
;WIDTH:0.532728
G1 X154.679 Y153.92 E.02367
G1 X154.291 Y154.17 E.02092
;WIDTH:0.499999
G1 X153.889 Y154.27 E.01748
G1 X153.781 Y154.62 E.01548
G1 X153.703 Y154.751 E.00642
;WIDTH:0.519492
G1 X153.376 Y155.076 E.02036
;WIDTH:0.532706
G1 X152.931 Y155.351 E.02366
G1 X152.479 Y155.443 E.02092
;WIDTH:0.499999
G1 X152.068 Y155.391 E.01748
G1 X151.84 Y155.679 E.01547
G1 X151.721 Y155.773 E.00642
;WIDTH:0.51949
G1 X151.298 Y155.958 E.02036
;WIDTH:0.532731
G1 X150.784 Y156.053 E.02367
G1 X150.329 Y155.976 E.02092
;WIDTH:0.499999
G1 X149.965 Y155.78 E.01748
G1 X149.648 Y155.965 E.01548
;WIDTH:0.529421
G1 X149.273 Y156.054 E.01737
G1 X148.651 Y155.96 E.0283
;WIDTH:0.52601
G1 X148.307 Y155.824 E.01651
;WIDTH:0.507235
G1 X148.012 Y155.577 E.01652
;WIDTH:0.499999
G1 X147.863 Y155.382 E.01036
G1 X147.501 Y155.441 E.01547
;WIDTH:0.529417
G1 X147.119 Y155.387 E.01737
G1 X146.573 Y155.075 E.02831
;WIDTH:0.526009
G1 X146.301 Y154.824 E.01652
;WIDTH:0.507241
G1 X146.116 Y154.487 E.01652
;WIDTH:0.499999
G1 X146.047 Y154.251 E.01036
G1 X145.688 Y154.176 E.01548
;WIDTH:0.529416
G1 X145.351 Y153.988 E.01737
G1 X144.955 Y153.499 E.0283
;WIDTH:0.526005
G1 X144.792 Y153.168 E.01651
;WIDTH:0.507234
G1 X144.741 Y152.786 E.01652
;WIDTH:0.499999
G1 X144.762 Y152.541 E.01036
G1 X144.455 Y152.341 E.01547
;WIDTH:0.529417
G1 X144.208 Y152.044 E.01737
G1 X144.015 Y151.446 E.0283
;WIDTH:0.526007
G1 X143.983 Y151.077 E.01652
;WIDTH:0.507241
G1 X144.073 Y150.703 E.01652
;WIDTH:0.499999
G1 X144.182 Y150.483 E.01036
G1 X143.968 Y150.185 E.01548
;WIDTH:0.529418
G1 X143.845 Y149.819 E.01737
G1 X143.881 Y149.191 E.0283
;WIDTH:0.526007
G1 X143.984 Y148.836 E.01651
;WIDTH:0.507235
G1 X144.203 Y148.52 E.01652
;WIDTH:0.499999
G1 X144.384 Y148.353 E.01036
G1 X144.292 Y147.999 E.01547
;WIDTH:0.529419
G1 X144.31 Y147.613 E.01737
G1 X144.57 Y147.041 E.0283
;WIDTH:0.526008
G1 X144.795 Y146.747 E.01652
;WIDTH:0.507242
G1 X145.113 Y146.531 E.01652
;WIDTH:0.499999
G1 X145.342 Y146.441 E.01036
G1 X145.384 Y146.077 E.01548
;WIDTH:0.529418
G1 X145.54 Y145.724 E.01737
G1 X145.99 Y145.284 E.0283
;WIDTH:0.526008
G1 X146.305 Y145.091 E.01651
;WIDTH:0.507235
G1 X146.358 Y145.079 E.00233
G1 X146.537 Y145.494 F30000
;WIDTH:0.499999
G1 F2400
G1 X146.766 Y145.449 E.00987
G1 X147.245 Y145.52 E.02044
G1 X147.406 Y145.019 E.02222
G1 X147.621 Y144.793 E.01316
G1 X148.114 Y144.587 E.02255
G1 X148.329 Y144.543 E.00929
G1 X148.612 Y144.594 E.01214
G1 X149.034 Y144.838 E.02055
G1 X149.364 Y144.424 E.02237
G1 X149.646 Y144.29 E.01316
G1 X150.18 Y144.277 E.02256
G1 X150.397 Y144.313 E.00929
G1 X150.643 Y144.463 E.01214
G1 X150.948 Y144.842 E.02055
G1 X151.405 Y144.575 E.02237
G1 X151.577 Y144.545 E.00737
G1 X151.849 Y144.59 E.01165
G1 X152.296 Y144.769 E.02031
G1 X152.499 Y144.938 E.01118
G1 X152.634 Y145.211 E.01283
G1 X152.731 Y145.538 E.0144
G1 X153.254 Y145.455 E.02236
G1 X153.425 Y145.488 E.00736
G1 X153.662 Y145.628 E.01164
G1 X154.015 Y145.957 E.02034
G1 X154.143 Y146.188 E.01117
G1 X154.17 Y146.49 E.0128
G1 X154.142 Y146.831 E.01442
G1 X154.66 Y146.942 E.02237
G1 X154.807 Y147.035 E.00737
G1 X154.979 Y147.252 E.01165
G1 X155.188 Y147.685 E.02031
G1 X155.224 Y147.947 E.01118
G1 X155.14 Y148.239 E.01282
G1 X154.991 Y148.546 E.01441
G1 X155.434 Y148.837 E.02237
G1 X155.537 Y148.977 E.00736
G1 X155.619 Y149.241 E.01166
G1 X155.658 Y149.721 E.02032
G1 X155.596 Y149.978 E.01117
G1 X155.413 Y150.22 E.0128
G1 X155.163 Y150.452 E.01442
G1 X155.471 Y150.884 E.02237
G1 X155.517 Y151.052 E.00737
G1 X155.498 Y151.327 E.01165
G1 X155.361 Y151.788 E.02031
G1 X155.21 Y152.006 E.01118
G1 X154.952 Y152.165 E.01281
G1 X154.635 Y152.292 E.01442
G1 X154.766 Y152.805 E.02237
G1 X154.748 Y152.979 E.00736
G1 X154.631 Y153.229 E.01165
G1 X154.336 Y153.609 E.02032
G1 X154.118 Y153.758 E.01118
G1 X153.819 Y153.813 E.01281
G1 X153.478 Y153.817 E.01442
G1 X153.415 Y154.343 E.02237
G1 X153.335 Y154.498 E.00737
G1 X153.136 Y154.689 E.01165
G1 X152.724 Y154.937 E.02031
G1 X152.449 Y154.997 E.01189
G1 X152.168 Y154.94 E.0121
G1 X151.848 Y154.82 E.01442
G1 X151.599 Y155.288 E.02237
G1 X151.469 Y155.404 E.00736
G1 X151.214 Y155.51 E.01165
G1 X150.74 Y155.593 E.02032
G1 X150.462 Y155.549 E.01189
G1 X150.22 Y155.395 E.0121
G1 X149.966 Y155.167 E.01442
G1 X149.565 Y155.514 E.02237
G1 X149.263 Y155.593 E.01316
G1 X148.736 Y155.508 E.02256
G1 X148.529 Y155.433 E.00929
G1 X148.315 Y155.24 E.01215
G1 X148.085 Y154.811 E.02055
G1 X147.586 Y154.989 E.02237
G1 X147.276 Y154.954 E.01316
G1 X146.815 Y154.685 E.02256
G1 X146.649 Y154.539 E.00929
G1 X146.519 Y154.283 E.01214
G1 X146.46 Y153.8 E.02055
G1 X145.931 Y153.786 E.02237
G1 X145.655 Y153.641 E.01316
G1 X145.322 Y153.223 E.02256
G1 X145.22 Y153.028 E.00929
G1 X145.191 Y152.741 E.01215
G1 X145.311 Y152.27 E.02055
G1 X144.822 Y152.065 E.02237
G1 X144.617 Y151.83 E.01316
G1 X144.457 Y151.32 E.02256
G1 X144.433 Y151.102 E.00929
G1 X144.509 Y150.824 E.01214
G1 X144.786 Y150.427 E.02044
G1 X144.496 Y150.166 E.01648
G1 X144.333 Y149.903 E.01307
G1 X144.301 Y149.629 E.01165
G1 X144.349 Y149.161 E.01988
G1 X144.469 Y148.895 E.01231
G1 X144.684 Y148.705 E.0121
G1 X144.968 Y148.52 E.01431
G1 X144.749 Y148.042 E.02222
G1 X144.756 Y147.73 E.01316
G1 X144.981 Y147.246 E.02256
G1 X145.111 Y147.067 E.00929
G1 X145.354 Y146.914 E.01214
G1 X145.83 Y146.811 E.02055
G1 X145.795 Y146.282 E.02237
G1 X145.914 Y145.994 E.01316
G1 X146.299 Y145.624 E.02256
G1 X146.484 Y145.504 E.00929
G1 X146.497 Y145.502 E.00059
G1 X146.657 Y145.917 F30000
;TYPE:Outer wall
G1 F2400
G1 X146.661 Y145.914 E.00022
G1 X146.847 Y145.907 E.00786
G1 X147.378 Y146.035 E.02303
G1 X147.591 Y146.104 E.00946
G1 X147.712 Y145.516 E.02536
G1 X147.827 Y145.197 E.01432
G1 X148.298 Y144.996 E.02161
G1 X148.465 Y145.017 E.00708
G1 X148.915 Y145.32 E.0229
G1 X149.147 Y145.514 E.01279
G1 X149.391 Y145.106 E.02008
G1 X149.666 Y144.756 E.01881
G1 X149.783 Y144.723 E.00513
G1 X150.252 Y144.735 E.01981
G1 X150.394 Y144.856 E.00786
G1 X150.693 Y145.304 E.02274
G1 X150.805 Y145.507 E.00981
G1 X151.297 Y145.148 E.02571
G1 X151.597 Y144.991 E.01432
G1 X152.08 Y145.16 E.02161
G1 X152.189 Y145.287 E.00708
G1 X152.318 Y145.814 E.0229
G1 X152.358 Y146.115 E.01279
G1 X152.814 Y145.977 E.02008
G1 X153.253 Y145.904 E.01879
G1 X153.361 Y145.958 E.00513
G1 X153.7 Y146.283 E.01983
G1 X153.724 Y146.468 E.00786
G1 X153.657 Y146.939 E.0201
G1 X153.587 Y147.234 E.01279
G1 X154.061 Y147.27 E.02008
G1 X154.497 Y147.36 E.01881
G1 X154.579 Y147.45 E.00513
G1 X154.777 Y147.876 E.01981
G1 X154.732 Y148.057 E.00787
G1 X154.5 Y148.472 E.0201
G1 X154.327 Y148.722 E.01279
G1 X154.757 Y148.926 E.02008
G1 X155.131 Y149.168 E.0188
G1 X155.174 Y149.282 E.00513
G1 X155.205 Y149.75 E.01983
G1 X155.099 Y149.903 E.00785
G1 X154.732 Y150.206 E.0201
G1 X154.481 Y150.376 E.01279
G1 X154.807 Y150.722 E.02008
G1 X155.069 Y151.083 E.01881
G1 X155.068 Y151.205 E.00513
G1 X154.928 Y151.653 E.01981
G1 X154.773 Y151.756 E.00786
G1 X154.26 Y151.921 E.02274
G1 X154.034 Y151.973 E.00981
G1 X154.245 Y152.544 E.02571
G1 X154.314 Y152.876 E.01432
G1 X154.019 Y153.295 E.02161
G1 X153.867 Y153.364 E.00708
G1 X153.325 Y153.344 E.0229
G1 X153.025 Y153.301 E.01279
G1 X153.033 Y153.777 E.02008
G1 X152.983 Y154.219 E.01881
G1 X152.901 Y154.309 E.00513
G1 X152.496 Y154.545 E.01981
G1 X152.311 Y154.518 E.00786
G1 X151.821 Y154.294 E.02274
G1 X151.619 Y154.18 E.00981
G1 X151.39 Y154.744 E.02571
G1 X151.217 Y155.036 E.01432
G1 X150.718 Y155.147 E.02161
G1 X150.558 Y155.095 E.00708
G1 X150.171 Y154.715 E.0229
G1 X149.979 Y154.481 E.01279
G1 X149.664 Y154.838 E.02008
G1 X149.329 Y155.132 E.01881
G1 X149.208 Y155.143 E.00513
G1 X148.749 Y155.044 E.01981
G1 X148.631 Y154.9 E.00786
G1 X148.42 Y154.404 E.02274
G1 X148.348 Y154.184 E.00981
G1 X147.798 Y154.446 E.02571
G1 X147.474 Y154.546 E.01432
G1 X147.03 Y154.291 E.02161
G1 X146.947 Y154.145 E.00708
G1 X146.917 Y153.604 E.0229
G1 X146.932 Y153.301 E.01279
G1 X146.459 Y153.353 E.02008
G1 X146.014 Y153.344 E.01881
G1 X145.917 Y153.271 E.00513
G1 X145.644 Y152.889 E.01981
G1 X145.655 Y152.703 E.00786
G1 X145.832 Y152.195 E.02274
G1 X145.927 Y151.983 E.00981
G1 X145.344 Y151.806 E.02571
G1 X145.038 Y151.662 E.01432
G1 X144.881 Y151.174 E.02161
G1 X144.918 Y151.011 E.00708
G1 X145.263 Y150.583 E.02321
G1 X145.463 Y150.378 E.01209
G1 X144.811 Y149.85 E.03544
G1 X144.746 Y149.716 E.00624
G1 X144.801 Y149.204 E.02174
G1 X144.935 Y149.074 E.00786
G1 X145.413 Y148.812 E.02303
G1 X145.617 Y148.719 E.00946
G1 X145.309 Y148.202 E.02536
G1 X145.18 Y147.889 E.01431
G1 X145.393 Y147.423 E.02161
G1 X145.53 Y147.327 E.00708
G1 X146.067 Y147.247 E.0229
G1 X146.369 Y147.235 E.01279
G1 X146.274 Y146.768 E.02008
G1 X146.242 Y146.324 E.01881
G1 X146.306 Y146.221 E.00513
G1 X146.627 Y145.943 E.01791
G1 E-.56 F1800
;WIPE_START
G1 F2400
G1 X146.661 Y145.914 E-.01084
G1 X146.847 Y145.907 E-.04471
G1 X147.378 Y146.035 E-.13092
G1 X147.59 Y146.104 E-.05353
;WIPE_END
G1 Z.65 F30000
G1 X153.482 Y143.871 Z.65
G1 Z.25
G1 E.8 F1800
;TYPE:Inner wall
G1 F2400
G1 X153.571 Y144.202 E.01448
G1 X153.657 Y144.348 E.00716
G1 X153.851 Y144.564 E.01227
;WIDTH:0.519635
G1 X154.278 Y144.942 E.02511
;WIDTH:0.5328
G1 X154.692 Y145.304 E.0249
G1 X155.104 Y145.511 E.02092
;WIDTH:0.499999
G1 X155.445 Y145.548 E.01448
G1 X155.409 Y145.889 E.01448
G1 X155.435 Y146.056 E.00715
G1 X155.539 Y146.328 E.01228
;WIDTH:0.519493
G1 X155.801 Y146.835 E.02513
;WIDTH:0.532713
G1 X156.055 Y147.321 E.02485
G1 X156.365 Y147.663 E.02092
;WIDTH:0.499999
G1 X156.67 Y147.82 E.01448
G1 X156.513 Y148.125 E.01448
G1 X156.477 Y148.291 E.00716
G1 X156.475 Y148.582 E.01227
;WIDTH:0.519574
G1 X156.536 Y149.149 E.02516
;WIDTH:0.532869
G1 X156.598 Y149.694 E.02485
G1 X156.763 Y150.125 E.02092
;WIDTH:0.499999
G1 X156.991 Y150.382 E.01448
G1 X156.734 Y150.61 E.01448
