; generated by SuperSlicer 2.4 on 2023-09-12 at 22:55:38 UTC


;
;

;
;
; 

; external perimeters extrusion width = 0.40mm
; perimeters extrusion width = 0.46mm
; infill extrusion width = 0.64mm
; solid infill extrusion width = 0.56mm
; top infill extrusion width = 0.40mm
; first layer extrusion width = 0.50mm

; object:{"name":"Roller Supports","id":"Roller Supports.stl id:0 copy 0","object_center":[140.315176,109.850113,0.000000],"boundingbox_center":[140.315176,109.850113,13.515585],"boundingbox_size":[101.055330,101.055325,27.031170]}
; plater:{"center":[140.315176,109.850113,0.000000],"boundingbox_center":[140.315176,109.850113,13.515585],"boundingbox_size":[101.055330,101.055325,27.031170]}

M73 P0 R42


; Pre-Processed for Cancel-Object support by preprocess_cancellation v0.2.0
; 1 known objects
EXCLUDE_OBJECT_DEFINE NAME=Roller_Supports_stl_id_0_copy_0 CENTER=145.080,114.323 POLYGON=[[90.07,59.605],[90.07,160.168],[190.641,160.168],[190.641,59.605]]
;TYPE:Custom
; custom gcode: start_gcode
M190 S0
M104 S0
PRINT_START EXTRUDER_TEMP=215 BED_TEMP=60 FILAMENT=PLA SIZE=92.1895_61.7244_194.723_164.258 ENCLOSURE_TEMP=0
; custom gcode end: start_gcode
M107
G21 ; set units to millimeters
G90 ; use absolute coordinates
M83 ; use relative distances for extrusion
;_TOOLCHANGE 0
;LAYER_CHANGE
;Z:0.25
;HEIGHT:0.25
G1 Z0.25 F48000
; custom gcode: layer_gcode
;DISPLAY_PROGRESS TOTAL_LAYERS=135 CURRENT_LAYER=0
; custom gcode end: layer_gcode

G92 E0
G1 E-1.6 F1800
G1 Z0.65 F48000
M204 S2000
G1 X113.681 Y113.681
G1 Z0.25
G1 E1.6 F1800
; custom gcode: feature_gcode
; External perimeter
;Skirt
SET_VELOCITY_LIMIT ACCEL=7000 ACCEL_TO_DECEL=7000 SQUARE_CORNER_VELOCITY=8

; Support material
; custom gcode end: feature_gcode

;TYPE:Skirt
;WIDTH:0.46
G1 F3600
G1 X93.629 Y133.733 E1.10189
G1 X92.617 Y135.716 E0.08651
G1 X92.748 Y137.399 E0.06557
G1 X93.629 Y138.838 E0.06557
G1 X117.353 Y162.562 E1.30366
G1 X117.9 Y163.02 E0.02771
G1 X118.715 Y163.491 E0.03661
G1 X119.843 Y163.825 E0.04567
G1 X121.017 Y163.856 E0.04567
G1 X122.16 Y163.581 E0.04568
G1 X123.193 Y163.02 E0.04567
G1 X158.079 Y135.293 E1.73153
G1 X166.083 Y127.257 E0.44071
G1 X193.302 Y92.966 E1.70113
G1 X193.956 Y91.912 E0.04822
G1 X194.321 Y90.552 E0.0547
G1 X194.29 Y89.377 E0.04567
G1 X193.956 Y88.25 E0.04567
G1 X193.338 Y87.243 E0.04593
G1 X169.303 Y63.164 E1.32196
G1 X167.32 Y62.152 E0.08651
G1 X165.637 Y62.283 E0.06557
G1 X164.198 Y63.164 E0.06557
G1 X113.724 Y113.639 E2.77364
G1 X114.011 Y113.926 F48000
G1 F3600
G1 X93.916 Y134.021 E1.10422
G1 X93.053 Y135.597 E0.06983
G1 X93.107 Y137.184 E0.06171
G1 X93.916 Y138.551 E0.06171
G1 X117.64 Y162.275 E1.30366
M73 P1 R42
G1 X118.147 Y162.698 E0.02565
G1 X118.871 Y163.116 E0.03249
G1 X119.896 Y163.422 E0.04155
G1 X120.964 Y163.453 E0.04155
G1 X122.005 Y163.206 E0.04156
G1 X122.946 Y162.698 E0.04155
G1 X157.792 Y135.006 E1.72947
G1 X165.764 Y127.004 E0.43891
G1 X192.983 Y92.714 E1.70113
G1 X193.581 Y91.757 E0.04384
G1 X193.918 Y90.499 E0.05058
G1 X193.887 Y89.43 E0.04155
G1 X193.581 Y88.406 E0.04155
G1 X193.016 Y87.49 E0.04181
G1 X169.016 Y63.451 E1.3199
G1 X167.439 Y62.588 E0.06983
G1 X165.852 Y62.642 E0.06171
G1 X164.486 Y63.451 E0.06171
G1 X114.053 Y113.884 E2.77131
M104 S215 ; set temperature
G1 E-1.6 F1800
M204 S10000
G1 Z0.65 F48000
; printing object Roller Supports.stl id:0 copy 0
EXCLUDE_OBJECT_START NAME=Roller_Supports_stl_id_0_copy_0
; acceleration to travel
G1 X131.331 Y126.553
; decel to extrusion
M204 S2000
G1 X134.787 Y129.086
; end travel
G1 Z0.25
G1 E1.6 F1800
; custom gcode: feature_gcode
; External perimeter
;Perimeter
SET_VELOCITY_LIMIT ACCEL=2000 ACCEL_TO_DECEL=2000 SQUARE_CORNER_VELOCITY=8

; Overhang perimeter
; custom gcode end: feature_gcode

;TYPE:Internal perimeter
;WIDTH:0.5
G1 F3600
G1 X134.311 Y129.108 E0.02034
G1 X133.689 Y129.234 E0.02707
G1 X133.089 Y129.481 E0.0277
G1 X132.546 Y129.837 E0.0277
G1 X132.08 Y130.289 E0.02771
G1 X131.708 Y130.821 E0.02771
G1 X131.443 Y131.414 E0.02771
G1 X131.295 Y132.046 E0.02772
G1 X131.269 Y132.695 E0.02771
G1 X131.366 Y133.337 E0.02771
G1 X131.583 Y133.949 E0.02771
G1 X131.911 Y134.509 E0.0277
G1 X132.331 Y134.986 E0.02713
G1 X132.697 Y135.291 E0.02034
G1 X133.247 Y135.613 E0.02723
G1 X133.859 Y135.83 E0.02771
G1 X134.501 Y135.927 E0.02771
G1 X135.15 Y135.901 E0.02771
G1 X135.782 Y135.753 E0.02771
G1 X136.375 Y135.488 E0.02772
G1 X136.907 Y135.116 E0.02771
G1 X137.359 Y134.65 E0.02771
G1 X137.715 Y134.107 E0.0277
G1 X137.962 Y133.507 E0.0277
G1 X138.088 Y132.886 E0.02707
G1 X138.109 Y132.427 E0.01959
G1 X138.092 Y132.206 E0.00949
G1 X138.031 Y131.767 E0.01888
G1 X137.838 Y131.164 E0.02707
G1 X137.732 Y130.962 E0.00972
G1 X137.523 Y130.586 E0.01834
G1 X137.382 Y130.414 E0.0095
G1 X137.11 Y130.086 E0.01819
G1 X136.782 Y129.814 E0.01819
G1 X136.607 Y129.671 E0.00963
G1 X136.04 Y129.361 E0.02761
G1 X135.422 Y129.163 E0.02771
G1 X134.846 Y129.094 E0.02473
G1 E-1.6 F1800
M204 S10000
G1 Z0.65 F48000
M204 S2000
G1 X134.526 Y135.48
G1 Z0.25
G1 E1.6 F1800
; custom gcode: feature_gcode
; External perimeter
;ExternalPerimeter
SET_VELOCITY_LIMIT ACCEL=1000 ACCEL_TO_DECEL=1000 SQUARE_CORNER_VELOCITY=8

; Perimeter
; custom gcode end: feature_gcode

;TYPE:External perimeter
G1 F3600
G1 X135.09 Y135.457 E0.02408
G1 X135.639 Y135.328 E0.02408
G1 X136.154 Y135.098 E0.02408
G1 X136.617 Y134.775 E0.02408
G1 X137.009 Y134.37 E0.02408
G1 X137.319 Y133.898 E0.02407
G1 X137.533 Y133.377 E0.02407
G1 X137.644 Y132.831 E0.02378
G1 X137.662 Y132.434 E0.01696
G1 X137.648 Y132.253 E0.00772
G1 X137.594 Y131.867 E0.01664
G1 X137.424 Y131.336 E0.0238
G1 X137.339 Y131.174 E0.00783
G1 X137.152 Y130.838 E0.01641
G1 X137.038 Y130.697 E0.00773
G1 X136.793 Y130.403 E0.01634
G1 X136.499 Y130.158 E0.01634
G1 X136.357 Y130.043 E0.00779
G1 X135.863 Y129.773 E0.02403
G1 X135.326 Y129.601 E0.02408
G1 X134.77 Y129.534 E0.02389
G1 X134.366 Y129.553 E0.01729
G1 X133.819 Y129.663 E0.02378
G1 X133.298 Y129.878 E0.02407
G1 X132.826 Y130.187 E0.02407
G1 X132.421 Y130.58 E0.02408
G1 X132.098 Y131.042 E0.02408
G1 X131.868 Y131.557 E0.02408
G1 X131.739 Y132.106 E0.02408
G1 X131.717 Y132.67 E0.02408
G1 X131.801 Y133.228 E0.02408
G1 X131.989 Y133.76 E0.02407
G1 X132.275 Y134.246 E0.02407
G1 X132.643 Y134.665 E0.02381
G1 X132.954 Y134.924 E0.01728
G1 X133.437 Y135.207 E0.02386
G1 X133.968 Y135.395 E0.02408
G1 X134.467 Y135.471 E0.02152
;WIPE_START
M204 S10000
G1 X134.718 Y135.831 F48000
;WIPE_END
M204 S2000
G1 X119.663 Y140.495
; custom gcode: feature_gcode
; External perimeter
;Perimeter
SET_VELOCITY_LIMIT ACCEL=2000 ACCEL_TO_DECEL=2000 SQUARE_CORNER_VELOCITY=8

; Overhang perimeter
; custom gcode end: feature_gcode

;TYPE:Internal perimeter
G1 F3600
G1 X119.048 Y140.57 E0.02648
G1 X118.717 Y140.618 E0.01424
G1 X117.826 Y140.863 E0.03945
G1 X116.967 Y141.236 E0.03997
G1 X116.176 Y141.721 E0.03961
G1 X115.688 Y142.116 E0.02679
G1 X115.434 Y142.337 E0.01438
G1 X114.816 Y143.014 E0.03912
G1 X114.294 Y143.779 E0.0395
G1 X114.007 Y144.343 E0.02703
G1 X113.866 Y144.652 E0.01448
G1 X113.581 Y145.517 E0.03888
G1 X113.416 Y146.439 E0.03997
G1 X113.382 Y147.36 E0.03936
G1 X113.438 Y147.999 E0.02735
G1 X113.487 Y148.338 E0.01461
G1 X113.705 Y149.214 E0.03856
G1 X114.057 Y150.082 E0.03996
G1 X114.518 Y150.877 E0.03922
G1 X114.908 Y151.395 E0.02767
G1 X115.135 Y151.656 E0.01475
G1 X115.768 Y152.262 E0.03742
G1 X116.319 Y152.678 E0.02948
G1 X117.114 Y153.139 E0.03922
G1 X117.982 Y153.491 E0.03996
G1 X118.859 Y153.709 E0.03856
G1 X119.197 Y153.758 E0.01461
G1 X119.836 Y153.814 E0.02735
G1 X120.758 Y153.78 E0.03936
G1 X121.652 Y153.62 E0.0388
G1 X121.979 Y153.524 E0.01451
G1 X122.579 Y153.317 E0.02711
G1 X123.408 Y152.908 E0.03947
G1 X124.182 Y152.38 E0.03997
G1 X124.859 Y151.762 E0.03912
G1 X125.08 Y151.508 E0.01438
G1 X125.475 Y151.02 E0.02679
G1 X125.96 Y150.229 E0.03961
G1 X126.333 Y149.37 E0.03997
G1 X126.578 Y148.479 E0.03945
G1 X126.626 Y148.149 E0.01424
G1 X126.701 Y147.533 E0.02648
G1 X126.69 Y146.602 E0.03975
G1 X126.549 Y145.683 E0.03969
G1 X126.455 Y145.365 E0.01414
G1 X126.275 Y144.777 E0.02623
G1 X125.883 Y143.93 E0.03985
G1 X125.374 Y143.144 E0.03993
G1 X125.159 Y142.895 E0.01406
G1 X124.76 Y142.436 E0.02597
G1 X124.053 Y141.822 E0.03996
G1 X123.268 Y141.314 E0.03989
G1 X122.713 Y141.056 E0.02614
G1 X122.412 Y140.918 E0.01412
G1 X121.52 Y140.649 E0.03977
G1 X120.595 Y140.506 E0.03997
G1 X119.723 Y140.496 E0.03719
G1 X119.688 Y140.941 F48000
G1 F3600
G1 X119.107 Y141.013 E0.025
G1 X118.809 Y141.056 E0.01284
G1 X117.975 Y141.285 E0.0369
G1 X117.174 Y141.633 E0.03729
G1 X116.434 Y142.087 E0.03702
G1 X115.975 Y142.459 E0.02523
G1 X115.746 Y142.657 E0.01294
G1 X115.167 Y143.292 E0.03667
G1 X114.679 Y144.007 E0.03694
G1 X114.409 Y144.537 E0.02541
G1 X114.282 Y144.815 E0.01302
G1 X114.015 Y145.627 E0.03649
G1 X113.861 Y146.486 E0.03728
G1 X113.829 Y147.349 E0.03684
G1 X113.882 Y147.948 E0.02564
G1 X113.925 Y148.252 E0.01311
G1 X114.131 Y149.076 E0.03625
G1 X114.459 Y149.885 E0.03728
G1 X114.891 Y150.63 E0.03673
G1 X115.256 Y151.114 E0.02588
G1 X115.459 Y151.348 E0.01322
G1 X116.058 Y151.922 E0.03541
G1 X116.567 Y152.305 E0.02721
G1 X117.311 Y152.737 E0.03673
G1 X118.121 Y153.065 E0.03728
G1 X118.945 Y153.271 E0.03625
G1 X119.249 Y153.315 E0.01312
G1 X119.847 Y153.367 E0.02564
G1 X120.71 Y153.335 E0.03684
G1 X121.55 Y153.185 E0.03643
G1 X121.843 Y153.099 E0.01304
G1 X122.407 Y152.905 E0.02547
G1 X123.183 Y152.522 E0.03692
G1 X123.904 Y152.029 E0.03729
G1 X124.539 Y151.45 E0.03667
G1 X124.738 Y151.221 E0.01294
G1 X125.11 Y150.762 E0.02523
G1 X125.563 Y150.022 E0.03702
G1 X125.911 Y149.221 E0.03729
G1 X126.141 Y148.387 E0.0369
G1 X126.183 Y148.09 E0.01284
G1 X126.255 Y147.508 E0.025
G1 X126.244 Y146.639 E0.03712
G1 X126.112 Y145.78 E0.03708
G1 X126.028 Y145.493 E0.01277
G1 X125.858 Y144.937 E0.02482
G1 X125.491 Y144.146 E0.0372
G1 X125.017 Y143.413 E0.03726
G1 X124.822 Y143.188 E0.01271
G1 X124.443 Y142.753 E0.02463
G1 X123.784 Y142.18 E0.03728
G1 X123.052 Y141.706 E0.03723
G1 X122.526 Y141.461 E0.02475
G1 X122.254 Y141.337 E0.01275
G1 X121.421 Y141.085 E0.03714
G1 X120.558 Y140.952 E0.03729
G1 X119.748 Y140.942 E0.03456
G1 X119.713 Y141.388 F48000
G1 F3600
G1 X119.166 Y141.455 E0.02352
G1 X118.9 Y141.493 E0.01144
G1 X118.124 Y141.707 E0.03436
G1 X117.38 Y142.03 E0.03461
G1 X116.693 Y142.452 E0.03444
G1 X116.262 Y142.801 E0.02366
G1 X116.058 Y142.977 E0.01151
G1 X115.518 Y143.57 E0.03421
G1 X115.064 Y144.235 E0.03438
G1 X114.811 Y144.731 E0.02378
G1 X114.698 Y144.978 E0.01155
G1 X114.449 Y145.736 E0.03409
G1 X114.306 Y146.534 E0.0346
G1 X114.276 Y147.338 E0.03432
G1 X114.325 Y147.896 E0.02393
G1 X114.364 Y148.166 E0.01162
G1 X114.556 Y148.937 E0.03393
G1 X114.861 Y149.688 E0.0346
G1 X115.263 Y150.382 E0.03425
G1 X115.603 Y150.833 E0.02408
G1 X115.782 Y151.04 E0.01168
G1 X116.347 Y151.581 E0.0334
G1 X116.814 Y151.933 E0.02493
G1 X117.508 Y152.335 E0.03425
G1 X118.259 Y152.64 E0.0346
G1 X119.031 Y152.832 E0.03393
G1 X119.3 Y152.871 E0.01162
G1 X119.859 Y152.92 E0.02393
G1 X120.662 Y152.89 E0.03432
G1 X121.447 Y152.75 E0.03405
G1 X121.707 Y152.673 E0.01157
G1 X122.235 Y152.492 E0.02382
G1 X122.957 Y152.135 E0.03437
G1 X123.627 Y151.678 E0.0346
G1 X124.219 Y151.138 E0.03421
G1 X124.395 Y150.934 E0.01151
G1 X124.744 Y150.504 E0.02367
G1 X125.166 Y149.816 E0.03443
G1 X125.489 Y149.072 E0.03461
G1 X125.703 Y148.296 E0.03436
G1 X125.741 Y148.031 E0.01144
G1 X125.808 Y147.484 E0.02352
G1 X125.798 Y146.675 E0.0345
G1 X125.675 Y145.877 E0.03448
G1 X125.6 Y145.621 E0.01139
G1 X125.44 Y145.097 E0.0234
G1 X125.099 Y144.362 E0.03455
G1 X124.659 Y143.682 E0.03459
G1 X124.485 Y143.481 E0.01135
G1 X124.127 Y143.069 E0.02328
G1 X123.515 Y142.538 E0.0346
G1 X122.835 Y142.097 E0.03457
G1 X122.339 Y141.866 E0.02336
G1 X122.096 Y141.755 E0.01138
G1 X121.322 Y141.521 E0.03451
G1 X120.521 Y141.398 E0.03461
G1 X119.773 Y141.389 E0.03194
G1 E-1.6 F1800
M204 S10000
G1 Z0.65 F48000
M204 S2000
G1 X120.614 Y152.446
G1 Z0.25
G1 E1.6 F1800
; custom gcode: feature_gcode
; External perimeter
;ExternalPerimeter
SET_VELOCITY_LIMIT ACCEL=1000 ACCEL_TO_DECEL=1000 SQUARE_CORNER_VELOCITY=8

; Perimeter
; custom gcode end: feature_gcode

;TYPE:External perimeter
G1 F3600
G1 X121.345 Y152.315 E0.03168
G1 X121.572 Y152.248 E0.0101
G1 X122.063 Y152.079 E0.02217
G1 X122.731 Y151.749 E0.03182
G1 X123.349 Y151.327 E0.03192
G1 X123.899 Y150.826 E0.03175
G1 X124.053 Y150.648 E0.01007
G1 X124.379 Y150.245 E0.0221
G1 X124.769 Y149.609 E0.03185
G1 X125.067 Y148.923 E0.03192
G1 X125.265 Y148.204 E0.03182
G1 X125.298 Y147.972 E0.01004
G1 X125.361 Y147.459 E0.02204
G1 X125.352 Y146.712 E0.03188
G1 X125.239 Y145.974 E0.03187
G1 X125.172 Y145.749 E0.01002
G1 X125.022 Y145.256 E0.02199
G1 X124.708 Y144.578 E0.0319
G1 X124.301 Y143.951 E0.03192
G1 X124.148 Y143.773 E0.01
G1 X123.811 Y143.386 E0.02194
G1 X123.246 Y142.895 E0.03192
G1 X122.618 Y142.489 E0.03191
G1 X122.152 Y142.271 E0.02197
G1 X121.938 Y142.174 E0.01002
G1 X121.223 Y141.958 E0.03188
G1 X120.484 Y141.844 E0.03193
G1 X119.737 Y141.835 E0.03188
G1 X119.225 Y141.898 E0.02204
G1 X118.992 Y141.931 E0.01004
G1 X118.273 Y142.129 E0.03182
G1 X117.587 Y142.427 E0.03192
G1 X116.951 Y142.817 E0.03185
G1 X116.548 Y143.143 E0.0221
G1 X116.37 Y143.298 E0.01007
G1 X115.869 Y143.847 E0.03175
G1 X115.448 Y144.463 E0.03182
G1 X115.213 Y144.925 E0.02215
G1 X115.115 Y145.14 E0.01009
G1 X114.883 Y145.846 E0.03169
G1 X114.751 Y146.582 E0.03192
G1 X114.723 Y147.326 E0.03179
G1 X114.769 Y147.845 E0.02222
G1 X114.803 Y148.08 E0.01012
G1 X114.982 Y148.799 E0.03162
G1 X115.263 Y149.492 E0.03191
G1 X115.636 Y150.135 E0.03176
G1 X115.95 Y150.552 E0.02229
G1 X116.106 Y150.732 E0.01015
G1 X116.637 Y151.241 E0.03138
G1 X117.061 Y151.56 E0.02266
G1 X117.705 Y151.934 E0.03176
G1 X118.398 Y152.214 E0.03191
G1 X119.117 Y152.394 E0.03162
G1 X119.351 Y152.427 E0.01012
G1 X119.87 Y152.473 E0.02222
G1 X120.554 Y152.448 E0.02923
;WIPE_START
M204 S10000
G1 X120.858 Y152.763 F48000
;WIPE_END
G1 E-1.6 F1800
G1 Z0.65 F48000
; acceleration to travel
G1 X142.455 Y135.607
; decel to extrusion
M204 S2000
G1 X146.774 Y132.175
; end travel
G1 Z0.25
G1 E1.6 F1800
; custom gcode: feature_gcode
; External perimeter
;Perimeter
SET_VELOCITY_LIMIT ACCEL=2000 ACCEL_TO_DECEL=2000 SQUARE_CORNER_VELOCITY=8

; Overhang perimeter
; custom gcode end: feature_gcode

;TYPE:Internal perimeter
G1 F3600
G1 X120.546 Y158.403 E1.58314
G1 X98.429 Y136.286 E1.33503
G1 X100.741 Y133.974 E0.13956
G1 X101.237 Y134.239 E0.02403
G1 X102.025 Y134.478 E0.03512
G1 X102.761 Y134.55 E0.03156
G1 X119.447 Y134.55 E0.71221
G1 X120.086 Y134.487 E0.02737
G1 X120.779 Y134.277 E0.03094
G1 X121.418 Y133.935 E0.03093
G1 X121.914 Y133.529 E0.02738
G1 X128.005 Y127.438 E0.36763
G1 X128.115 Y127.347 E0.00609
G1 X128.168 Y127.319 E0.00253
G1 X128.224 Y127.302 E0.00253
G1 X128.366 Y127.288 E0.00609
G1 X130.786 Y127.288 E0.10328
G1 X130.928 Y127.302 E0.00609
G1 X130.985 Y127.319 E0.00253
G1 X131.037 Y127.347 E0.00253
G1 X131.148 Y127.438 E0.00609
G1 X132.506 Y128.796 E0.08197
G1 X131.986 Y129.137 E0.02655
G1 X131.397 Y129.707 E0.03498
G1 X130.928 Y130.379 E0.03498
G1 X130.593 Y131.127 E0.03498
G1 X130.406 Y131.925 E0.03498
G1 X130.374 Y132.744 E0.03498
G1 X130.496 Y133.555 E0.03498
G1 X130.77 Y134.327 E0.03497
G1 X131.184 Y135.034 E0.03497
G1 X131.706 Y135.628 E0.03377
G1 X132.183 Y136.024 E0.02644
G1 X132.869 Y136.427 E0.03397
G1 X133.642 Y136.7 E0.03497
G1 X134.452 Y136.823 E0.03498
G1 X135.271 Y136.79 E0.03498
G1 X136.069 Y136.603 E0.03498
G1 X136.817 Y136.269 E0.03498
G1 X137.489 Y135.799 E0.03498
G1 X138.059 Y135.211 E0.03498
G1 X138.509 Y134.525 E0.03497
G1 X138.82 Y133.768 E0.03496
G1 X138.976 Y132.995 E0.03363
G1 X139.004 Y132.405 E0.02524
G1 X138.906 Y131.573 E0.03574
G1 X138.663 Y130.815 E0.03399
G1 X138.265 Y130.084 E0.03551
G1 X137.744 Y129.452 E0.03495
G1 X137.109 Y128.928 E0.03515
G1 X136.393 Y128.537 E0.03481
G1 X135.613 Y128.287 E0.03498
G1 X134.82 Y128.191 E0.0341
G1 X134.299 Y128.215 E0.02224
G1 X138.557 Y123.958 E0.257
G1 X146.732 Y132.133 E0.49346
