; generated by SuperSlicer 2.4 on 2023-10-02 at 23:52:45 UTC


;
;

;
;
; 

; external perimeters extrusion width = 0.40mm
; perimeters extrusion width = 0.46mm
; infill extrusion width = 0.64mm
; solid infill extrusion width = 0.56mm
; top infill extrusion width = 0.40mm
; first layer extrusion width = 0.50mm

; object:{"name":"Foam Roller - Gear","id":"Foam Roller - Gear.stl id:0 copy 0","object_center":[150.000000,150.000001,0.000000],"boundingbox_center":[150.000000,150.000001,16.950000],"boundingbox_size":[15.993698,15.996838,33.900000]}
; plater:{"center":[150.000000,150.000001,0.000000],"boundingbox_center":[150.000000,150.000001,16.950000],"boundingbox_size":[15.993698,15.996838,33.900000]}

M73 P0 R38


; Pre-Processed for Cancel-Object support by preprocess_cancellation v0.2.0
; 1 known objects
EXCLUDE_OBJECT_DEFINE NAME=Foam_Roller_Gear_stl_id_0_copy_0 CENTER=150.001,149.972 POLYGON=[[142.203,142.202],[142.203,157.795],[157.797,157.795],[157.797,142.202]]
;TYPE:Custom
; custom gcode: start_gcode
M190 S0
M104 S0
PRINT_START EXTRUDER_TEMP=215 BED_TEMP=60 FILAMENT=PLA SIZE=136.06_136.055_163.944_163.945 ENCLOSURE_TEMP=0
; custom gcode end: start_gcode
M107
G21 ; set units to millimeters
G90 ; use absolute coordinates
M83 ; use relative distances for extrusion
;_TOOLCHANGE 0
;LAYER_CHANGE
;Z:0.25
;HEIGHT:0.25
G1 Z0.25 F27000
; custom gcode: layer_gcode
;DISPLAY_PROGRESS TOTAL_LAYERS=169 CURRENT_LAYER=0
; custom gcode end: layer_gcode

G92 E0
G1 E-1.6 F1800
G1 Z0.65 F27000
M204 S2000
G1 X140.687 Y140.176
G1 Z0.25
G1 E1.6 F1800
; custom gcode: feature_gcode
; External perimeter
;Skirt
SET_VELOCITY_LIMIT ACCEL=7000 ACCEL_TO_DECEL=7000 SQUARE_CORNER_VELOCITY=8

; Support material
; custom gcode end: feature_gcode

;TYPE:Skirt
;WIDTH:0.46
G1 X139.936 Y140.948 E0.04183
G1 X138.982 Y142.136 E0.05922
G1 X138.082 Y143.583 E0.06622
G1 X137.609 Y144.551 E0.04185
G1 X137.076 Y145.979 E0.05922
G1 X136.797 Y147.019 E0.04184
G1 X136.527 Y148.701 E0.06619
G1 X136.466 Y149.776 E0.04182
G1 X136.491 Y150.852 E0.04183
G1 X136.673 Y152.365 E0.05922
G1 X137.216 Y154.448 E0.08363
G1 X137.875 Y156.018 E0.06616
G1 X138.392 Y156.963 E0.04185
G1 X138.982 Y157.864 E0.04185
G1 X139.936 Y159.052 E0.05922
G1 X140.687 Y159.824 E0.04183
G1 X141.995 Y160.916 E0.0662
G1 X143.273 Y161.747 E0.05924
G1 X144.227 Y162.245 E0.04184
G1 X145.811 Y162.873 E0.0662
G1 X146.847 Y163.166 E0.04183
G1 X148.347 Y163.437 E0.05924
G1 X149.42 Y163.526 E0.04183
G1 X150.497 Y163.53 E0.04183
G1 X152.192 Y163.36 E0.0662
G1 X153.68 Y163.03 E0.05923
G1 X154.704 Y162.696 E0.04185
G1 X155.698 Y162.283 E0.04183
G1 X157.195 Y161.47 E0.06619
G1 X158.084 Y160.862 E0.04185
G1 X159.254 Y159.885 E0.05924
G1 X160.422 Y158.645 E0.06618
G1 X161.076 Y157.789 E0.04187
G1 X161.882 Y156.495 E0.05924
G1 X162.36 Y155.532 E0.04179
G1 X162.761 Y154.531 E0.04187
G1 X163.229 Y152.894 E0.06616
G1 X163.417 Y151.833 E0.04187
G1 X163.538 Y150.314 E0.05922
G1 X163.52 Y149.237 E0.04185
G1 X163.318 Y147.546 E0.06617
G1 X162.957 Y146.065 E0.05924
G1 X162.603 Y145.047 E0.04187
G1 X161.66 Y143.114 E0.08359
G1 X160.703 Y141.705 E0.06616
G1 X160.01 Y140.881 E0.04187
G1 X158.921 Y139.814 E0.05922
G1 X158.084 Y139.138 E0.04181
G1 X157.195 Y138.53 E0.04185
G1 X155.698 Y137.717 E0.06619
G1 X154.704 Y137.304 E0.04183
G1 X153.247 Y136.856 E0.05924
G1 X152.192 Y136.64 E0.04183
G1 X150.497 Y136.47 E0.0662
G1 X148.972 Y136.501 E0.05924
G1 X147.903 Y136.625 E0.04183
G1 X146.24 Y136.995 E0.0662
G1 X145.218 Y137.335 E0.04183
G1 X143.825 Y137.953 E0.05924
G1 X142.887 Y138.482 E0.04183
G1 X141.995 Y139.084 E0.04182
M73 P1 R38
G1 X140.733 Y140.138 E0.06387
G1 X140.993 Y140.449 F27000
G1 F1800
G1 X140.96 Y140.478 E0.0017
G1 X140.232 Y141.226 E0.04057
G1 X139.319 Y142.365 E0.05672
G1 X138.435 Y143.784 E0.06497
G1 X137.978 Y144.723 E0.04059
G1 X137.466 Y146.09 E0.05671
G1 X137.195 Y147.099 E0.04059
G1 X136.93 Y148.749 E0.06494
G1 X136.872 Y149.792 E0.04057
G1 X136.897 Y150.836 E0.04058
G1 X137.071 Y152.285 E0.05671
G1 X137.597 Y154.305 E0.08112
G1 X138.244 Y155.846 E0.06491
G1 X138.745 Y156.762 E0.04059
G1 X139.319 Y157.635 E0.04059
G1 X140.232 Y158.774 E0.05672
G1 X140.96 Y159.522 E0.04057
G1 X142.243 Y160.594 E0.06494
G1 X143.466 Y161.39 E0.05673
G1 X144.392 Y161.873 E0.04058
G1 X145.946 Y162.49 E0.06494
G1 X146.951 Y162.773 E0.04058
G1 X148.388 Y163.033 E0.05673
G1 X149.428 Y163.12 E0.04057
G1 X150.472 Y163.124 E0.04058
G1 X152.136 Y162.958 E0.06495
G1 X153.561 Y162.641 E0.05672
G1 X154.554 Y162.319 E0.04059
G1 X155.518 Y161.918 E0.04057
G1 X156.987 Y161.121 E0.06493
G1 X157.849 Y160.531 E0.04059
G1 X158.97 Y159.595 E0.05673
G1 X160.115 Y158.379 E0.06493
G1 X160.75 Y157.548 E0.04061
G1 X161.521 Y156.308 E0.05673
G1 X161.985 Y155.374 E0.04054
G1 X162.375 Y154.404 E0.04061
G1 X162.834 Y152.798 E0.06491
G1 X163.016 Y151.769 E0.04061
G1 X163.132 Y150.314 E0.05671
G1 X163.115 Y149.27 E0.04059
G1 X162.916 Y147.611 E0.06491
G1 X162.571 Y146.192 E0.05673
G1 X162.229 Y145.205 E0.04061
G1 X161.315 Y143.329 E0.08108
G1 X160.376 Y141.947 E0.06491
G1 X159.703 Y141.147 E0.04061
G1 X158.661 Y140.126 E0.05671
G1 X157.849 Y139.469 E0.04056
G1 X156.987 Y138.879 E0.04059
G1 X155.518 Y138.082 E0.06493
G1 X154.554 Y137.681 E0.04057
G1 X153.158 Y137.252 E0.05673
G1 X152.136 Y137.042 E0.04058
G1 X150.472 Y136.876 E0.06495
G1 X149.013 Y136.905 E0.05673
G1 X147.975 Y137.025 E0.04058
G1 X146.344 Y137.388 E0.06494
G1 X145.353 Y137.718 E0.04058
G1 X144.018 Y138.311 E0.05673
G1 X143.109 Y138.823 E0.04058
G1 X142.243 Y139.406 E0.04057
G1 X141.04 Y140.411 E0.06091
G1 X141.3 Y140.723 F27000
G1 F1800
G1 X141.233 Y140.779 E0.00341
G1 X140.528 Y141.505 E0.03932
G1 X139.655 Y142.593 E0.05421
G1 X138.788 Y143.985 E0.06371
G1 X138.346 Y144.896 E0.03934
G1 X137.857 Y146.202 E0.0542
G1 X137.593 Y147.179 E0.03933
G1 X137.334 Y148.798 E0.06368
G1 X137.278 Y149.808 E0.03931
G1 X137.303 Y150.82 E0.03932
G1 X137.469 Y152.205 E0.05421
G1 X137.977 Y154.163 E0.07861
G1 X138.612 Y155.673 E0.06366
G1 X139.099 Y156.561 E0.03934
G1 X139.655 Y157.407 E0.03933
G1 X140.528 Y158.495 E0.05421
G1 X141.233 Y159.221 E0.03932
G1 X142.49 Y160.272 E0.06369
G1 X143.66 Y161.033 E0.05422
G1 X144.557 Y161.502 E0.03933
G1 X146.08 Y162.106 E0.06369
G1 X147.055 Y162.38 E0.03932
G1 X148.428 Y162.628 E0.05422
G1 X149.436 Y162.713 E0.03932
G1 X150.448 Y162.718 E0.03932
G1 X152.079 Y162.556 E0.06369
G1 X153.441 Y162.253 E0.05421
G1 X154.404 Y161.941 E0.03933
G1 X155.339 Y161.554 E0.03932
G1 X156.779 Y160.772 E0.06368
G1 X157.614 Y160.199 E0.03934
G1 X158.685 Y159.305 E0.05422
G1 X159.809 Y158.112 E0.06367
G1 X160.423 Y157.307 E0.03935
G1 X161.16 Y156.122 E0.05422
G1 X161.611 Y155.217 E0.03928
G1 X161.989 Y154.277 E0.03936
G1 X162.439 Y152.702 E0.06366
G1 X162.615 Y151.705 E0.03935
G1 X162.725 Y150.314 E0.0542
G1 X162.71 Y149.302 E0.03934
G1 X162.515 Y147.675 E0.06366
G1 X162.185 Y146.319 E0.05422
G1 X161.854 Y145.362 E0.03935
G1 X160.97 Y143.544 E0.07858
G1 X160.05 Y142.188 E0.06366
G1 X159.396 Y141.414 E0.03936
G1 X158.4 Y140.437 E0.05421
G1 X157.614 Y139.801 E0.03931
G1 X156.779 Y139.228 E0.03934
G1 X155.339 Y138.446 E0.06368
G1 X154.404 Y138.059 E0.03932
G1 X153.07 Y137.649 E0.05423
G1 X152.079 Y137.444 E0.03932
G1 X150.448 Y137.282 E0.06369
G1 X149.053 Y137.309 E0.05422
G1 X148.048 Y137.425 E0.03932
G1 X146.448 Y137.781 E0.06369
G1 X145.488 Y138.102 E0.03932
G1 X144.212 Y138.668 E0.05422
G1 X143.33 Y139.164 E0.03932
G1 X142.49 Y139.728 E0.03931
G1 X141.346 Y140.684 E0.05795
G1 X141.606 Y140.996 F27000
G1 F1800
G1 X141.505 Y141.08 E0.00511
G1 X140.823 Y141.783 E0.03806
G1 X139.991 Y142.821 E0.0517
G1 X139.141 Y144.186 E0.06245
G1 X138.714 Y145.068 E0.03808
G1 X138.248 Y146.314 E0.0517
G1 X137.992 Y147.26 E0.03808
G1 X137.737 Y148.846 E0.06243
G1 X137.685 Y149.824 E0.03806
G1 X137.709 Y150.804 E0.03807
G1 X137.868 Y152.125 E0.0517
G1 X138.358 Y154.021 E0.07609
G1 X138.98 Y155.501 E0.06241
G1 X139.452 Y156.36 E0.03808
G1 X139.991 Y157.179 E0.03808
G1 X140.823 Y158.217 E0.0517
G1 X141.505 Y158.92 E0.03806
G1 X142.738 Y159.95 E0.06243
G1 X143.854 Y160.676 E0.05171
G1 X144.722 Y161.13 E0.03807
G1 X146.215 Y161.723 E0.06243
G1 X147.159 Y161.987 E0.03807
G1 X148.468 Y162.224 E0.05171
G1 X149.444 Y162.307 E0.03806
G1 X150.424 Y162.313 E0.03807
G1 X152.023 Y162.153 E0.06244
G1 X153.322 Y161.865 E0.0517
G1 X154.254 Y161.563 E0.03808
G1 X155.159 Y161.189 E0.03806
G1 X156.572 Y160.423 E0.06243
G1 X157.379 Y159.868 E0.03808
G1 X158.401 Y159.015 E0.05171
G1 X159.502 Y157.845 E0.06242
G1 X160.096 Y157.065 E0.03809
G1 X160.799 Y155.935 E0.05171
G1 X161.236 Y155.06 E0.03803
G1 X161.603 Y154.15 E0.0381
G1 X162.044 Y152.606 E0.06241
G1 X162.213 Y151.64 E0.03809
G1 X162.319 Y150.314 E0.0517
G1 X162.305 Y149.334 E0.03808
G1 X162.114 Y147.739 E0.06241
G1 X161.799 Y146.446 E0.05171
G1 X161.48 Y145.52 E0.0381
G1 X160.625 Y143.758 E0.07607
G1 X159.723 Y142.43 E0.06241
G1 X159.09 Y141.681 E0.0381
G1 X158.14 Y140.749 E0.0517
G1 X157.379 Y140.132 E0.03805
G1 X156.572 Y139.577 E0.03808
G1 X155.159 Y138.811 E0.06243
G1 X154.254 Y138.437 E0.03806
G1 X152.982 Y138.046 E0.05172
G1 X152.023 Y137.847 E0.03807
G1 X150.424 Y137.687 E0.06244
G1 X149.093 Y137.714 E0.05171
G1 X148.12 Y137.825 E0.03807
G1 X146.551 Y138.174 E0.06243
G1 X145.623 Y138.485 E0.03807
G1 X144.406 Y139.025 E0.05172
G1 X143.552 Y139.504 E0.03807
G1 X142.738 Y140.05 E0.03806
G1 X141.652 Y140.957 E0.05499
G1 X141.913 Y141.269 F27000
G1 F1800
G1 X141.778 Y141.381 E0.00682
G1 X141.119 Y142.062 E0.03681
G1 X140.327 Y143.05 E0.04919
G1 X139.495 Y144.387 E0.0612
G1 X139.082 Y145.24 E0.03682
G1 X138.638 Y146.425 E0.04919
G1 X138.39 Y147.34 E0.03682
G1 X138.141 Y148.894 E0.06117
G1 X138.091 Y149.84 E0.0368
G1 X138.116 Y150.787 E0.03681
G1 X138.266 Y152.044 E0.04919
G1 X138.738 Y153.878 E0.07358
G1 X139.348 Y155.329 E0.06115
G1 X139.805 Y156.159 E0.03682
G1 X140.327 Y156.95 E0.03682
G1 X141.119 Y157.938 E0.04919
G1 X141.778 Y158.619 E0.03681
G1 X142.986 Y159.628 E0.06118
G1 X144.048 Y160.318 E0.0492
G1 X144.887 Y160.759 E0.03682
G1 X146.35 Y161.34 E0.06118
G1 X147.263 Y161.594 E0.03681
G1 X148.509 Y161.82 E0.0492
G1 X149.452 Y161.901 E0.03681
G1 X150.4 Y161.907 E0.03681
G1 X151.966 Y161.751 E0.06118
G1 X153.202 Y161.476 E0.0492
G1 X154.104 Y161.186 E0.03682
G1 X154.98 Y160.824 E0.03681
G1 X156.364 Y160.074 E0.06117
G1 X157.144 Y159.536 E0.03682
G1 X158.116 Y158.724 E0.0492
G1 X159.196 Y157.579 E0.06117
G1 X159.769 Y156.824 E0.03683
G1 X160.438 Y155.749 E0.0492
G1 X160.862 Y154.902 E0.03678
G1 X161.217 Y154.023 E0.03684
G1 X161.649 Y152.51 E0.06115
G1 X161.812 Y151.576 E0.03684
G1 X161.913 Y150.314 E0.04919
G1 X161.9 Y149.366 E0.03682
G1 X161.713 Y147.804 E0.06116
G1 X161.413 Y146.573 E0.0492
G1 X161.105 Y145.677 E0.03684
G1 X160.28 Y143.973 E0.07356
G1 X159.396 Y142.671 E0.06115
G1 X158.783 Y141.947 E0.03684
G1 X157.879 Y141.061 E0.04919
G1 X157.144 Y140.464 E0.0368
G1 X156.364 Y139.926 E0.03682
G1 X154.98 Y139.176 E0.06117
G1 X154.104 Y138.814 E0.03681
G1 X152.894 Y138.442 E0.04921
G1 X151.966 Y138.249 E0.03681
G1 X150.4 Y138.093 E0.06118
G1 X149.134 Y138.118 E0.0492
G1 X148.192 Y138.225 E0.03681
G1 X146.655 Y138.566 E0.06118
G1 X145.757 Y138.869 E0.03681
G1 X144.6 Y139.382 E0.04921
G1 X143.773 Y139.845 E0.03681
G1 X142.986 Y140.372 E0.0368
G1 X141.959 Y141.23 E0.05203
G1 X142.219 Y141.542 F27000
G1 F1800
G1 X142.051 Y141.683 E0.00852
G1 X141.415 Y142.341 E0.03555
G1 X140.663 Y143.278 E0.04668
G1 X139.848 Y144.588 E0.05994
G1 X139.45 Y145.412 E0.03557
G1 X139.029 Y146.537 E0.04668
G1 X138.789 Y147.42 E0.03556
G1 X138.544 Y148.943 E0.05992
G1 X138.497 Y149.856 E0.03555
G1 X138.522 Y150.771 E0.03556
G1 X138.665 Y151.964 E0.04668
G1 X139.119 Y153.736 E0.07107
G1 X139.716 Y155.157 E0.0599
G1 X140.158 Y155.958 E0.03557
G1 X140.663 Y156.722 E0.03557
G1 X141.415 Y157.659 E0.04668
G1 X142.051 Y158.317 E0.03555
G1 X143.234 Y159.306 E0.05992
G1 X144.242 Y159.961 E0.04669
G1 X145.051 Y160.388 E0.03556
G1 X146.485 Y160.956 E0.05992
G1 X147.366 Y161.201 E0.03556
G1 X148.549 Y161.415 E0.04669
G1 X149.46 Y161.495 E0.03555
G1 X150.375 Y161.501 E0.03555
G1 X151.91 Y161.348 E0.05993
G1 X153.083 Y161.088 E0.04669
G1 X153.954 Y160.808 E0.03557
G1 X154.801 Y160.46 E0.03555
G1 X156.156 Y159.724 E0.05992
G1 X156.909 Y159.205 E0.03557
G1 X157.832 Y158.434 E0.04669
G1 X158.889 Y157.312 E0.05991
G1 X159.442 Y156.582 E0.03558
G1 X160.077 Y155.562 E0.04669
G1 X160.487 Y154.745 E0.03553
G1 X160.831 Y153.896 E0.03558
G1 X161.255 Y152.414 E0.0599
G1 X161.411 Y151.512 E0.03558
G1 X161.506 Y150.314 E0.04668
G1 X161.495 Y149.399 E0.03557
G1 X161.311 Y147.868 E0.0599
G1 X161.027 Y146.701 E0.04669
G1 X160.73 Y145.834 E0.03558
G1 X159.935 Y144.188 E0.07105
G1 X159.069 Y142.912 E0.0599
G1 X158.477 Y142.214 E0.03558
G1 X157.619 Y141.373 E0.04668
G1 X156.909 Y140.795 E0.03554
G1 X156.156 Y140.276 E0.03557
G1 X154.801 Y139.54 E0.05992
G1 X153.954 Y139.192 E0.03555
G1 X152.806 Y138.839 E0.0467
G1 X151.91 Y138.652 E0.03556
G1 X150.375 Y138.499 E0.05993
G1 X149.174 Y138.522 E0.04669
G1 X148.265 Y138.625 E0.03556
G1 X146.759 Y138.959 E0.05992
G1 X145.892 Y139.252 E0.03556
G1 X144.794 Y139.739 E0.0467
G1 X143.995 Y140.186 E0.03556
G1 X143.234 Y140.694 E0.03555
G1 X142.265 Y141.504 E0.04907
G1 X142.525 Y141.815 F27000
G1 F1800
G1 X142.323 Y141.984 E0.01022
G1 X140.999 Y143.506 E0.0784
G1 X140.201 Y144.788 E0.05868
G1 X139.818 Y145.584 E0.03431
G1 X139.187 Y147.5 E0.0784
G1 X138.948 Y148.991 E0.05867
G1 X138.903 Y149.873 E0.03429
G1 X139.063 Y151.884 E0.0784
G1 X139.5 Y153.593 E0.06856
G1 X140.084 Y154.985 E0.05865
G1 X140.512 Y155.758 E0.03431
G1 X141.711 Y157.381 E0.07841
G1 X142.323 Y158.016 E0.0343
G1 X143.482 Y158.984 E0.05867
G1 X145.216 Y160.016 E0.07841
G1 X146.62 Y160.573 E0.05867
G1 X147.47 Y160.808 E0.0343
G1 X149.469 Y161.088 E0.0784
G1 X150.351 Y161.096 E0.0343
G1 X151.854 Y160.946 E0.05867
G1 X153.805 Y160.43 E0.07841
G1 X154.621 Y160.095 E0.0343
G1 X155.948 Y159.375 E0.05866
G1 X157.547 Y158.144 E0.07841
G1 X158.582 Y157.045 E0.05866
G1 X159.115 Y156.341 E0.03432
G1 X160.112 Y154.587 E0.07838
G1 X160.445 Y153.769 E0.03432
G1 X160.86 Y152.318 E0.05865
G1 X161.1 Y150.314 E0.07841
G1 X161.09 Y149.431 E0.03431
G1 X160.91 Y147.932 E0.05865
G1 X160.356 Y145.992 E0.07843
G1 X159.59 Y144.403 E0.06854
G1 X158.742 Y143.154 E0.05865
G1 X158.17 Y142.481 E0.03432
G1 X156.675 Y141.127 E0.07839
G1 X155.948 Y140.625 E0.03431
G1 X154.621 Y139.905 E0.05866
G1 X152.718 Y139.236 E0.0784
G1 X151.854 Y139.054 E0.0343
G1 X150.351 Y138.904 E0.05867
G1 X148.337 Y139.024 E0.07841
G1 X146.863 Y139.352 E0.05867
G1 X146.027 Y139.635 E0.0343
G1 X144.216 Y140.526 E0.07841
G1 X143.482 Y141.016 E0.03429
G1 X142.571 Y141.777 E0.04611
M104 S215 ; set temperature
G1 E-1.6
M204 S4000
G1 Z0.65 F27000
; printing object Foam Roller - Gear.stl id:0 copy 0
EXCLUDE_OBJECT_START NAME=Foam_Roller_Gear_stl_id_0_copy_0
; acceleration to travel
M204 S10000
G1 X148.752 Y143.907
; decel to extrusion
M204 S2000
G1 X149.988 Y144.334
; end travel
G1 Z0.25
G1 E1.6 F1800
; custom gcode: feature_gcode
; External perimeter
;Perimeter
SET_VELOCITY_LIMIT ACCEL=2000 ACCEL_TO_DECEL=2000 SQUARE_CORNER_VELOCITY=8

; Overhang perimeter
; custom gcode end: feature_gcode

;TYPE:Internal perimeter
;WIDTH:0.5
G1 X149.406 Y144.366 E0.02489
G1 X148.778 Y144.468 E0.02716
G1 X148.15 Y144.645 E0.02784
G1 X147.508 Y144.914 E0.02972
G1 X146.994 Y145.198 E0.02506
G1 X146.47 Y145.57 E0.02742
G1 X145.99 Y146 E0.02751
G1 X145.561 Y146.481 E0.02751
G1 X145.194 Y147.004 E0.02729
G1 X144.912 Y147.515 E0.02489
G1 X144.664 Y148.103 E0.02722
G1 X144.48 Y148.73 E0.02789
G1 X144.369 Y149.416 E0.02965
G1 X144.336 Y150.001 E0.02501
G1 X144.373 Y150.644 E0.02748
G1 X144.483 Y151.279 E0.02751
G1 X144.664 Y151.897 E0.02751
G1 X144.912 Y152.485 E0.02722
G1 X145.197 Y153.002 E0.02522
G1 X145.6 Y153.564 E0.0295
G1 X145.991 Y154.002 E0.02506
G1 X146.47 Y154.43 E0.02742
G1 X146.994 Y154.802 E0.02742
G1 X147.508 Y155.086 E0.02506
G1 X148.15 Y155.355 E0.02972
G1 X148.772 Y155.53 E0.02756
G1 X149.346 Y155.628 E0.02488
G1 X149.985 Y155.667 E0.02729
