; generated by SuperSlicer 2.4 on 2023-10-02 at 20:54:00 UTC


;
;

;
;
; 

; external perimeters extrusion width = 0.40mm
; perimeters extrusion width = 0.46mm
; infill extrusion width = 0.64mm
; solid infill extrusion width = 0.56mm
; top infill extrusion width = 0.40mm
; first layer extrusion width = 0.50mm

; object:{"name":"Foam Roller (2) (1)","id":"Foam Roller (2) (1).stl id:0 copy 0","object_center":[150.000000,150.000000,0.000000],"boundingbox_center":[150.000000,150.000000,6.470165],"boundingbox_size":[16.000000,16.000000,12.940331]}
; plater:{"center":[150.000000,150.000000,0.000000],"boundingbox_center":[150.000000,150.000000,6.470165],"boundingbox_size":[16.000000,16.000000,12.940331]}

M73 P0 R15


; Pre-Processed for Cancel-Object support by preprocess_cancellation v0.2.0
; 1 known objects
EXCLUDE_OBJECT_DEFINE NAME=Foam_Roller_2_1_stl_id_0_copy_0 CENTER=150.002,149.998 POLYGON=[[142.2,142.2],[142.2,157.797],[157.8,157.797],[157.8,142.2]]
;TYPE:Custom
; custom gcode: start_gcode
M190 S0
M104 S0
PRINT_START EXTRUDER_TEMP=215 BED_TEMP=60 FILAMENT=PLA SIZE=136.058_136.058_163.942_163.942 ENCLOSURE_TEMP=0
; custom gcode end: start_gcode
M107
G21 ; set units to millimeters
G90 ; use absolute coordinates
M83 ; use relative distances for extrusion
;_TOOLCHANGE 0
;LAYER_CHANGE
;Z:0.25
;HEIGHT:0.25
G1 Z0.25 F27000
; custom gcode: layer_gcode
;DISPLAY_PROGRESS TOTAL_LAYERS=64 CURRENT_LAYER=0
; custom gcode end: layer_gcode

G92 E0
M73 P2 R15
G1 E-1.6 F1800
G1 Z0.65 F27000
M204 S2000
G1 X140.199 Y140.661
G1 Z0.25
G1 E1.6 F1800
; custom gcode: feature_gcode
; External perimeter
;Skirt
SET_VELOCITY_LIMIT ACCEL=7000 ACCEL_TO_DECEL=7000 SQUARE_CORNER_VELOCITY=8

; Support material
; custom gcode end: feature_gcode

;TYPE:Skirt
;WIDTH:0.46
G1 X139.175 Y141.87 E0.06157
G1 X138.206 Y143.352 E0.0688
G1 X137.697 Y144.349 E0.04349
G1 X137.273 Y145.385 E0.0435
G1 X136.821 Y146.903 E0.06155
G1 X136.61 Y148.002 E0.04347
G1 X136.491 Y149.115 E0.04349
G1 X136.491 Y150.885 E0.0688
G1 X136.61 Y151.998 E0.04349
G1 X136.821 Y153.097 E0.04347
G1 X137.273 Y154.615 E0.06155
G1 X137.697 Y155.651 E0.0435
G1 X138.206 Y156.648 E0.04349
G1 X139.175 Y158.13 E0.0688
G1 X139.883 Y158.996 E0.04347
G1 X140.66 Y159.801 E0.04348
G1 X141.87 Y160.825 E0.06158
G1 X142.791 Y161.46 E0.04348
G1 X144.349 Y162.303 E0.06881
G1 X145.384 Y162.727 E0.04348
G1 X146.903 Y163.179 E0.06157
G1 X148.002 Y163.39 E0.04348
G1 X149.115 Y163.509 E0.04348
G1 X150.233 Y163.536 E0.04348
G1 X151.998 Y163.39 E0.06881
G1 X153.097 Y163.179 E0.04348
G1 X154.175 Y162.879 E0.04348
G1 X155.651 Y162.303 E0.06157
G1 X156.648 Y161.794 E0.04348
G1 X157.599 Y161.205 E0.04348
G1 X158.996 Y160.117 E0.0688
G1 X159.801 Y159.339 E0.04349
G1 X160.825 Y158.13 E0.06157
G1 X161.794 Y156.648 E0.0688
G1 X162.303 Y155.651 E0.04349
G1 X162.727 Y154.615 E0.0435
G1 X163.179 Y153.097 E0.06155
G1 X163.39 Y151.998 E0.04348
G1 X163.509 Y150.885 E0.04349
G1 X163.509 Y149.115 E0.0688
G1 X163.39 Y148.002 E0.04349
G1 X163.179 Y146.903 E0.04348
G1 X162.727 Y145.385 E0.06155
G1 X162.303 Y144.349 E0.0435
G1 X161.794 Y143.352 E0.04349
G1 X160.825 Y141.87 E0.0688
G1 X160.117 Y141.004 E0.04347
G1 X159.34 Y140.199 E0.04348
G1 X158.13 Y139.175 E0.06158
G1 X157.209 Y138.54 E0.04348
G1 X155.651 Y137.697 E0.06881
G1 X154.616 Y137.273 E0.04348
G1 X153.097 Y136.821 E0.06157
G1 X151.998 Y136.61 E0.04348
G1 X150.885 Y136.491 E0.04348
G1 X149.767 Y136.464 E0.04348
G1 X148.002 Y136.61 E0.06881
G1 X146.903 Y136.821 E0.04348
G1 X145.825 Y137.121 E0.04348
G1 X144.349 Y137.697 E0.06157
G1 X143.352 Y138.206 E0.04348
G1 X142.401 Y138.795 E0.04348
G1 X141.004 Y139.883 E0.0688
G1 X140.242 Y140.619 E0.04116
G1 X140.524 Y140.911 F27000
G1 F1800
G1 X140.486 Y140.948 E0.00207
G1 X139.505 Y142.106 E0.05896
G1 X138.555 Y143.56 E0.0675
G1 X138.062 Y144.527 E0.04218
G1 X137.651 Y145.532 E0.04219
G1 X137.218 Y146.986 E0.05895
G1 X136.897 Y149.132 E0.08429
G1 X136.897 Y150.868 E0.06749
G1 X137.013 Y151.948 E0.04219
G1 X137.218 Y153.014 E0.04217
G1 X137.651 Y154.468 E0.05895
G1 X138.555 Y156.44 E0.0843
G1 X139.505 Y157.894 E0.0675
G1 X140.193 Y158.734 E0.04217
G1 X140.948 Y159.514 E0.04217
M73 P2 R14
G1 X142.106 Y160.495 E0.05897
G1 X142.999 Y161.111 E0.04218
G1 X144.527 Y161.938 E0.06751
G1 X145.532 Y162.349 E0.04218
G1 X146.986 Y162.782 E0.05896
G1 X149.131 Y163.103 E0.08428
G1 X150.216 Y163.13 E0.04217
G1 X151.948 Y162.987 E0.06751
G1 X154.059 Y162.489 E0.08428
G1 X155.473 Y161.938 E0.05897
G1 X156.44 Y161.445 E0.04217
G1 X157.363 Y160.874 E0.04218
G1 X158.734 Y159.807 E0.0675
G1 X159.514 Y159.052 E0.04219
G1 X160.495 Y157.894 E0.05896
G1 X161.445 Y156.44 E0.0675
G1 X161.938 Y155.473 E0.04218
G1 X162.349 Y154.468 E0.04219
G1 X162.782 Y153.014 E0.05895
G1 X163.103 Y150.868 E0.08429
G1 X163.103 Y149.132 E0.06749
G1 X162.987 Y148.052 E0.04219
G1 X162.782 Y146.986 E0.04217
G1 X162.349 Y145.532 E0.05895
G1 X161.445 Y143.56 E0.0843
G1 X160.495 Y142.106 E0.0675
G1 X159.807 Y141.266 E0.04217
G1 X159.052 Y140.486 E0.04217
G1 X157.894 Y139.505 E0.05897
G1 X157.001 Y138.889 E0.04218
G1 X155.473 Y138.062 E0.06751
G1 X154.468 Y137.651 E0.04218
G1 X153.014 Y137.218 E0.05896
G1 X150.869 Y136.897 E0.08428
G1 X149.784 Y136.87 E0.04217
G1 X148.052 Y137.013 E0.06751
G1 X145.941 Y137.511 E0.08428
G1 X144.527 Y138.062 E0.05897
G1 X143.56 Y138.555 E0.04217
G1 X142.637 Y139.126 E0.04218
G1 X141.266 Y140.193 E0.0675
G1 X140.567 Y140.869 E0.03779
G1 X140.85 Y141.161 F27000
G1 F1800
G1 X140.773 Y141.235 E0.00415
G1 X139.836 Y142.342 E0.05635
G1 X138.904 Y143.768 E0.0662
G1 X138.428 Y144.706 E0.04088
G1 X138.03 Y145.68 E0.04088
G1 X137.616 Y147.07 E0.05634
G1 X137.303 Y149.148 E0.08168
G1 X137.303 Y150.852 E0.06619
G1 X137.416 Y151.898 E0.04088
G1 X137.616 Y152.93 E0.04087
G1 X138.03 Y154.32 E0.05634
G1 X138.904 Y156.232 E0.08169
G1 X139.836 Y157.658 E0.0662
G1 X140.503 Y158.471 E0.04086
G1 X141.235 Y159.226 E0.04087
G1 X142.342 Y160.164 E0.05636
G1 X143.207 Y160.762 E0.04087
G1 X144.706 Y161.572 E0.0662
G1 X145.68 Y161.97 E0.04087
G1 X147.07 Y162.384 E0.05635
G1 X149.148 Y162.697 E0.08167
G1 X150.2 Y162.724 E0.04087
G1 X151.898 Y162.584 E0.0662
G1 X153.943 Y162.1 E0.08167
G1 X155.294 Y161.572 E0.05636
G1 X156.232 Y161.096 E0.04087
G1 X157.127 Y160.543 E0.04087
G1 X158.471 Y159.497 E0.06619
G1 X159.227 Y158.765 E0.04088
G1 X160.164 Y157.658 E0.05635
G1 X161.096 Y156.232 E0.06619
G1 X161.572 Y155.294 E0.04088
G1 X161.97 Y154.32 E0.04088
G1 X162.384 Y152.93 E0.05634
G1 X162.697 Y150.852 E0.08168
G1 X162.697 Y149.148 E0.06619
G1 X162.584 Y148.102 E0.04088
G1 X162.384 Y147.07 E0.04087
G1 X161.97 Y145.68 E0.05634
G1 X161.096 Y143.768 E0.08169
G1 X160.164 Y142.342 E0.06619
G1 X159.497 Y141.529 E0.04086
G1 X158.765 Y140.774 E0.04087
G1 X157.658 Y139.836 E0.05636
G1 X156.793 Y139.238 E0.04087
G1 X155.294 Y138.428 E0.0662
G1 X154.32 Y138.03 E0.04087
G1 X152.93 Y137.616 E0.05635
G1 X150.852 Y137.303 E0.08167
M73 P3 R14
G1 X149.8 Y137.276 E0.04087
G1 X148.102 Y137.416 E0.0662
G1 X146.057 Y137.9 E0.08167
G1 X144.706 Y138.428 E0.05636
G1 X143.768 Y138.904 E0.04087
G1 X142.873 Y139.457 E0.04087
G1 X141.529 Y140.503 E0.06619
G1 X140.893 Y141.119 E0.0344
G1 X141.176 Y141.411 F27000
G1 F1800
G1 X141.061 Y141.523 E0.00625
G1 X140.167 Y142.578 E0.05375
G1 X139.253 Y143.976 E0.06489
G1 X138.793 Y144.884 E0.03957
G1 X138.408 Y145.828 E0.03958
G1 X138.014 Y147.153 E0.05374
G1 X137.709 Y149.165 E0.07907
G1 X137.709 Y150.835 E0.06489
G1 X137.82 Y151.847 E0.03958
G1 X138.014 Y152.847 E0.03956
G1 X138.408 Y154.172 E0.05374
G1 X139.253 Y156.024 E0.07908
G1 X140.167 Y157.422 E0.06489
G1 X140.813 Y158.208 E0.03956
G1 X141.522 Y158.939 E0.03956
G1 X142.578 Y159.833 E0.05375
G1 X143.415 Y160.412 E0.03957
G1 X144.884 Y161.207 E0.0649
G1 X145.827 Y161.592 E0.03957
G1 X147.153 Y161.986 E0.05375
G1 X149.165 Y162.291 E0.07906
G1 X150.183 Y162.318 E0.03956
G1 X151.847 Y162.18 E0.0649
G1 X153.827 Y161.71 E0.07906
G1 X155.116 Y161.207 E0.05375
G1 X156.024 Y160.747 E0.03956
G1 X156.891 Y160.213 E0.03957
G1 X158.208 Y159.187 E0.06489
G1 X158.939 Y158.477 E0.03958
G1 X159.833 Y157.422 E0.05375
G1 X160.747 Y156.024 E0.06489
G1 X161.207 Y155.116 E0.03957
G1 X161.592 Y154.172 E0.03958
G1 X161.986 Y152.847 E0.05374
G1 X162.291 Y150.835 E0.07907
G1 X162.291 Y149.165 E0.06489
G1 X162.18 Y148.153 E0.03958
G1 X161.986 Y147.153 E0.03956
G1 X161.592 Y145.828 E0.05374
G1 X160.747 Y143.976 E0.07908
G1 X159.833 Y142.578 E0.06489
G1 X159.187 Y141.792 E0.03956
G1 X158.478 Y141.061 E0.03956
G1 X157.422 Y140.167 E0.05375
G1 X156.585 Y139.588 E0.03957
G1 X155.116 Y138.793 E0.0649
G1 X154.173 Y138.408 E0.03957
G1 X152.847 Y138.014 E0.05375
G1 X150.835 Y137.709 E0.07906
G1 X149.817 Y137.682 E0.03956
G1 X148.153 Y137.82 E0.0649
G1 X146.173 Y138.29 E0.07906
G1 X144.884 Y138.793 E0.05375
G1 X143.976 Y139.253 E0.03956
G1 X143.109 Y139.787 E0.03957
G1 X141.792 Y140.813 E0.06489
G1 X141.219 Y141.369 E0.03099
G1 X141.502 Y141.66 F27000
G1 F1800
G1 X141.348 Y141.81 E0.00836
G1 X140.498 Y142.814 E0.05114
G1 X139.602 Y144.184 E0.06359
G1 X139.158 Y145.063 E0.03827
G1 X138.787 Y145.975 E0.03827
G1 X138.411 Y147.237 E0.05113
G1 X138.115 Y149.182 E0.07646
G1 X138.115 Y150.818 E0.06358
G1 X138.223 Y151.797 E0.03827
G1 X138.411 Y152.763 E0.03826
G1 X138.787 Y154.025 E0.05113
G1 X139.602 Y155.816 E0.07647
G1 X140.498 Y157.186 E0.06359
G1 X141.123 Y157.946 E0.03825
G1 X141.81 Y158.652 E0.03826
G1 X142.814 Y159.502 E0.05115
G1 X143.623 Y160.063 E0.03826
G1 X145.063 Y160.842 E0.06359
G1 X145.975 Y161.213 E0.03826
G1 X147.237 Y161.589 E0.05114
G1 X149.182 Y161.885 E0.07646
G1 X150.166 Y161.912 E0.03826
G1 X151.797 Y161.777 E0.06359
G1 X153.711 Y161.321 E0.07646
G1 X154.937 Y160.842 E0.05114
G1 X155.816 Y160.398 E0.03826
G1 X156.654 Y159.882 E0.03826
G1 X157.946 Y158.877 E0.06358
G1 X158.652 Y158.19 E0.03827
G1 X159.502 Y157.186 E0.05114
G1 X160.398 Y155.816 E0.06359
G1 X160.842 Y154.937 E0.03827
G1 X161.213 Y154.025 E0.03827
G1 X161.589 Y152.763 E0.05113
G1 X161.885 Y150.818 E0.07646
G1 X161.885 Y149.182 E0.06358
G1 X161.777 Y148.203 E0.03827
G1 X161.589 Y147.237 E0.03826
G1 X161.213 Y145.975 E0.05113
G1 X160.398 Y144.184 E0.07647
G1 X159.502 Y142.814 E0.06359
G1 X158.877 Y142.054 E0.03826
G1 X158.19 Y141.348 E0.03826
G1 X157.186 Y140.498 E0.05115
G1 X156.377 Y139.937 E0.03826
G1 X154.937 Y139.158 E0.06359
G1 X154.025 Y138.787 E0.03826
G1 X152.763 Y138.411 E0.05114
G1 X150.818 Y138.115 E0.07646
G1 X149.834 Y138.088 E0.03826
G1 X148.203 Y138.223 E0.06359
G1 X146.289 Y138.679 E0.07646
G1 X145.063 Y139.158 E0.05114
G1 X144.184 Y139.602 E0.03826
G1 X143.346 Y140.118 E0.03826
G1 X142.054 Y141.123 E0.06358
G1 X141.545 Y141.618 E0.02758
G1 X141.829 Y141.909 F27000
G1 F1800
G1 X141.635 Y142.097 E0.01049
G1 X140.828 Y143.05 E0.04853
G1 X139.952 Y144.392 E0.06228
G1 X139.523 Y145.241 E0.03696
G1 X139.165 Y146.123 E0.03697
G1 X138.809 Y147.32 E0.04852
G1 X138.521 Y149.199 E0.07386
G1 X138.521 Y150.801 E0.06228
G1 X138.626 Y151.747 E0.03697
G1 X138.809 Y152.68 E0.03695
G1 X139.165 Y153.877 E0.04852
G1 X139.952 Y155.608 E0.07386
G1 X140.828 Y156.95 E0.06228
G1 X141.433 Y157.683 E0.03695
G1 X142.097 Y158.364 E0.03695
G1 X143.05 Y159.172 E0.04854
G1 X143.831 Y159.714 E0.03696
G1 X145.241 Y160.477 E0.06229
G1 X146.123 Y160.834 E0.03696
G1 X147.32 Y161.191 E0.04853
G1 X149.198 Y161.479 E0.07385
G1 X150.149 Y161.506 E0.03695
G1 X151.747 Y161.374 E0.06229
G1 X153.595 Y160.931 E0.07385
G1 X154.759 Y160.477 E0.04854
G1 X155.608 Y160.049 E0.03695
G1 X156.418 Y159.551 E0.03696
G1 X157.683 Y158.567 E0.06228
G1 X158.365 Y157.903 E0.03696
G1 X159.172 Y156.95 E0.04853
G1 X160.048 Y155.608 E0.06228
G1 X160.477 Y154.759 E0.03696
G1 X160.835 Y153.877 E0.03697
G1 X161.191 Y152.68 E0.04852
G1 X161.479 Y150.801 E0.07386
G1 X161.479 Y149.199 E0.06228
G1 X161.374 Y148.253 E0.03697
G1 X161.191 Y147.32 E0.03695
G1 X160.835 Y146.123 E0.04852
G1 X160.048 Y144.392 E0.07386
G1 X159.172 Y143.05 E0.06228
G1 X158.567 Y142.317 E0.03695
G1 X157.903 Y141.636 E0.03695
G1 X156.95 Y140.828 E0.04854
G1 X156.169 Y140.286 E0.03696
G1 X154.759 Y139.523 E0.06229
G1 X153.877 Y139.166 E0.03696
G1 X152.68 Y138.809 E0.04853
G1 X150.802 Y138.521 E0.07385
G1 X149.851 Y138.494 E0.03695
G1 X148.253 Y138.626 E0.06229
G1 X146.405 Y139.069 E0.07385
G1 X145.241 Y139.523 E0.04854
G1 X144.392 Y139.951 E0.03696
G1 X143.582 Y140.449 E0.03696
G1 X142.317 Y141.433 E0.06228
G1 X141.872 Y141.867 E0.02415
G1 X142.155 Y142.157 F27000
G1 F1800
G1 X141.923 Y142.385 E0.01263
G1 X141.159 Y143.287 E0.04592
G1 X140.301 Y144.6 E0.06098
G1 X139.888 Y145.42 E0.03566
G1 X139.544 Y146.271 E0.03566
G1 X139.207 Y147.403 E0.04592
G1 X138.927 Y149.215 E0.07125
G1 X138.927 Y150.785 E0.06097
G1 X139.029 Y151.697 E0.03566
G1 X139.207 Y152.597 E0.03565
G1 X139.544 Y153.729 E0.04592
G1 X140.301 Y155.4 E0.07126
G1 X141.159 Y156.713 E0.06098
G1 X141.743 Y157.421 E0.03565
G1 X142.384 Y158.077 E0.03565
G1 X143.286 Y158.841 E0.04593
G1 X144.039 Y159.365 E0.03565
G1 X145.42 Y160.112 E0.06098
G1 X146.271 Y160.456 E0.03565
G1 X147.403 Y160.793 E0.04592
G1 X149.215 Y161.073 E0.07124
G1 X150.132 Y161.1 E0.03565
G1 X151.697 Y160.971 E0.06098
G1 X153.479 Y160.542 E0.07124
G1 X154.58 Y160.112 E0.04593
G1 X155.4 Y159.699 E0.03565
G1 X156.182 Y159.22 E0.03565
G1 X157.421 Y158.257 E0.06098
G1 X158.077 Y157.615 E0.03566
G1 X158.841 Y156.713 E0.04592
G1 X159.699 Y155.4 E0.06098
G1 X160.112 Y154.58 E0.03566
G1 X160.456 Y153.729 E0.03566
G1 X160.793 Y152.597 E0.04592
G1 X161.073 Y150.785 E0.07125
G1 X161.073 Y149.215 E0.06097
G1 X160.971 Y148.303 E0.03566
G1 X160.793 Y147.403 E0.03565
G1 X160.456 Y146.271 E0.04592
G1 X159.699 Y144.6 E0.07126
G1 X158.841 Y143.287 E0.06098
G1 X158.257 Y142.579 E0.03565
G1 X157.616 Y141.923 E0.03565
G1 X156.714 Y141.159 E0.04593
G1 X155.961 Y140.635 E0.03565
G1 X154.58 Y139.888 E0.06098
G1 X153.729 Y139.544 E0.03565
G1 X152.597 Y139.207 E0.04592
G1 X150.785 Y138.927 E0.07124
G1 X149.868 Y138.9 E0.03565
G1 X148.303 Y139.029 E0.06098
G1 X146.521 Y139.458 E0.07124
G1 X145.42 Y139.888 E0.04593
G1 X144.6 Y140.301 E0.03565
G1 X143.818 Y140.78 E0.03565
G1 X142.579 Y141.743 E0.06098
G1 X142.198 Y142.116 E0.0207
M104 S215 ; set temperature
G1 E-1.6
M204 S4000
G1 Z0.65 F27000
; printing object Foam Roller (2) (1).stl id:0 copy 0
EXCLUDE_OBJECT_START NAME=Foam_Roller_2_1_stl_id_0_copy_0
; acceleration to travel
M204 S10000
G1 X148.824 Y143.965
; decel to extrusion
M204 S2000
G1 X150.149 Y144.335
; end travel
G1 Z0.25
G1 E1.6 F1800
; custom gcode: feature_gcode
; External perimeter
;Perimeter
SET_VELOCITY_LIMIT ACCEL=2000 ACCEL_TO_DECEL=2000 SQUARE_CORNER_VELOCITY=8

; Overhang perimeter
; custom gcode end: feature_gcode

;TYPE:Internal perimeter
;WIDTH:0.5
G1 X149.55 Y144.353 E0.02557
M73 P4 R14
G1 X148.853 Y144.451 E0.03004
G1 X148.272 Y144.604 E0.02564
G1 X147.656 Y144.84 E0.02816
G1 X147.033 Y145.175 E0.03021
G1 X146.54 Y145.512 E0.02549
G1 X146.045 Y145.942 E0.02798
G1 X145.602 Y146.427 E0.02802
G1 X145.218 Y146.96 E0.02803
G1 X144.902 Y147.527 E0.02772
G1 X144.668 Y148.081 E0.02568
G1 X144.473 Y148.758 E0.03004
G1 X144.371 Y149.347 E0.02552
G1 X144.333 Y150 E0.02793
G1 X144.371 Y150.653 E0.02793
G1 X144.473 Y151.242 E0.02552
G1 X144.668 Y151.919 E0.03004
G1 X144.902 Y152.473 E0.02568
G1 X145.218 Y153.04 E0.02772
G1 X145.602 Y153.573 E0.02802
G1 X146.045 Y154.058 E0.02802
G1 X146.54 Y154.488 E0.02798
G1 X147.033 Y154.825 E0.02549
G1 X147.656 Y155.16 E0.03021
G1 X148.272 Y155.396 E0.02816
G1 X148.846 Y155.547 E0.02534
G1 X149.489 Y155.643 E0.02774
G1 X150.155 Y155.665 E0.02843
G1 X150.859 Y155.598 E0.03019
G1 X151.444 Y155.48 E0.02545
G1 X152.067 Y155.276 E0.02801
G1 X152.664 Y155.002 E0.02802
G1 X153.219 Y154.663 E0.02777
G1 X153.689 Y154.3 E0.02534
G1 X154.164 Y153.844 E0.0281
G1 X154.609 Y153.293 E0.03025
G1 X154.933 Y152.79 E0.02551
G1 X155.222 Y152.202 E0.02795
G1 X155.441 Y151.584 E0.02801
G1 X155.588 Y150.943 E0.02803
G1 X155.658 Y150.297 E0.02776
G1 X155.658 Y149.696 E0.02564
G1 X155.576 Y148.997 E0.03005
G1 X155.44 Y148.414 E0.02555
G1 X155.222 Y147.798 E0.02789
G1 X154.932 Y147.209 E0.02802
