; generated by SuperSlicer 2.4 on 2023-08-29 at 18:33:55 UTC


;
;

;
;
; 

; external perimeters extrusion width = 0.40mm
; perimeters extrusion width = 0.46mm
; infill extrusion width = 0.64mm
; solid infill extrusion width = 0.56mm
; top infill extrusion width = 0.40mm
; first layer extrusion width = 0.50mm

; external perimeters extrusion width = 0.40mm
; perimeters extrusion width = 0.46mm
; infill extrusion width = 0.64mm
; solid infill extrusion width = 0.56mm
; top infill extrusion width = 0.40mm
; first layer extrusion width = 0.50mm

; object:{"name":"dshaft","id":"dshaft.stl id:0 copy 0","object_center":[153.888868,146.111134,0.000000],"boundingbox_center":[153.888868,146.111134,1.665216],"boundingbox_size":[12.727482,12.727482,3.330433]}
; object:{"name":"dshaft","id":"dshaft.stl id:1 copy 0","object_center":[146.111134,153.888868,0.000000],"boundingbox_center":[146.111134,153.888868,1.665216],"boundingbox_size":[12.727482,12.727482,3.330433]}
; plater:{"center":[150.000001,150.000001,0.000000],"boundingbox_center":[150.000001,150.000001,1.665216],"boundingbox_size":[20.505217,20.505217,3.330433]}

M73 P0 R3


; Pre-Processed for Cancel-Object support by preprocess_cancellation v0.2.0
; 2 known objects
EXCLUDE_OBJECT_DEFINE NAME=dshaft_stl_id_0_copy_0 CENTER=153.835,146.056 POLYGON=[[147.81,140.033],[147.81,152.147],[159.967,152.147],[159.967,140.033]]
EXCLUDE_OBJECT_DEFINE NAME=dshaft_stl_id_1_copy_0 CENTER=146.057,153.834 POLYGON=[[140.033,147.81],[140.033,159.925],[152.19,159.925],[152.19,147.81]]
;TYPE:Custom
; custom gcode: start_gcode
M190 S0
M104 S0
PRINT_START EXTRUDER_TEMP=210 BED_TEMP=60 FILAMENT=PLA SIZE=133.925_133.925_166.075_166.075 ENCLOSURE_TEMP=0
; custom gcode end: start_gcode
M107
G21 ; set units to millimeters
G90 ; use absolute coordinates
M83 ; use relative distances for extrusion
;_TOOLCHANGE 0
;LAYER_CHANGE
;Z:0.25
;HEIGHT:0.25
G1 Z0.25 F48000
; custom gcode: layer_gcode
;DISPLAY_PROGRESS TOTAL_LAYERS=16 CURRENT_LAYER=0
; custom gcode end: layer_gcode

G92 E0
M73 P9 R3
G1 E-1.6 F1800
G1 Z0.65 F48000
M204 S2000
G1 X141.486 Y141.486
G1 Z0.25
G1 E1.6 F1800
; custom gcode: feature_gcode
; External perimeter
;Skirt
SET_VELOCITY_LIMIT ACCEL=7000 ACCEL_TO_DECEL=7000 SQUARE_CORNER_VELOCITY=8

; Support material
; custom gcode end: feature_gcode

;TYPE:Skirt
;WIDTH:0.46
G1 F3600
G1 X135.974 Y146.997 E0.30288
G1 X134.656 Y149.073 E0.09554
G1 X134.324 Y151.162 E0.08218
G1 X134.785 Y153.226 E0.08218
G1 X135.974 Y154.975 E0.08218
G1 X145.025 Y164.026 E0.49736
G1 X147.1 Y165.344 E0.09554
G1 X149.189 Y165.676 E0.08218
G1 X151.253 Y165.215 E0.08218
G1 X153.003 Y164.026 E0.08218
G1 X164.026 Y153.003 E0.60576
M73 P10 R3
G1 X165.344 Y150.927 E0.09554
G1 X165.676 Y148.838 E0.08218
G1 X165.215 Y146.774 E0.08218
G1 X164.026 Y145.025 E0.08218
G1 X154.975 Y135.974 E0.49736
G1 X152.9 Y134.656 E0.09554
G1 X150.811 Y134.324 E0.08218
G1 X148.747 Y134.785 E0.08218
G1 X146.997 Y135.974 E0.08218
G1 X141.528 Y141.443 E0.30055
G1 X141.815 Y141.73 F48000
G1 F3600
G1 X136.261 Y147.285 E0.30521
G1 X135.119 Y149 E0.08006
G1 X134.728 Y150.998 E0.07914
G1 X135.129 Y152.995 E0.07914
G1 X136.261 Y154.688 E0.07914
G1 X145.312 Y163.739 E0.49736
G1 X147.027 Y164.881 E0.08006
G1 X149.026 Y165.272 E0.07914
G1 X151.023 Y164.871 E0.07914
G1 X152.715 Y163.739 E0.07914
G1 X163.739 Y152.715 E0.60576
G1 X164.881 Y151 E0.08006
G1 X165.272 Y149.002 E0.07914
G1 X164.871 Y147.005 E0.07914
G1 X163.739 Y145.312 E0.07914
G1 X154.688 Y136.261 E0.49736
G1 X152.973 Y135.119 E0.08006
G1 X150.974 Y134.728 E0.07914
G1 X148.977 Y135.129 E0.07914
G1 X147.285 Y136.261 E0.07914
G1 X141.858 Y141.688 E0.29822
G1 X142.145 Y141.975 F48000
G1 F3600
G1 X136.548 Y147.572 E0.30754
M73 P11 R3
G1 X135.59 Y148.939 E0.06488
G1 X135.136 Y150.841 E0.07597
G1 X135.474 Y152.767 E0.07597
G1 X136.548 Y154.401 E0.07597
G1 X145.599 Y163.452 E0.49736
G1 X146.966 Y164.41 E0.06488
G1 X148.868 Y164.864 E0.07597
G1 X150.794 Y164.526 E0.07597
G1 X152.428 Y163.452 E0.07597
G1 X163.452 Y152.428 E0.60576
G1 X164.41 Y151.061 E0.06488
G1 X164.864 Y149.159 E0.07597
G1 X164.526 Y147.233 E0.07597
G1 X163.452 Y145.599 E0.07597
G1 X154.401 Y136.548 E0.49736
G1 X153.034 Y135.59 E0.06488
G1 X151.132 Y135.136 E0.07597
G1 X149.206 Y135.474 E0.07597
G1 X147.572 Y136.548 E0.07597
G1 X142.187 Y141.933 E0.29589
G1 X142.475 Y142.22 F48000
G1 F3600
G1 X136.836 Y147.859 E0.30987
G1 X136.067 Y148.893 E0.05006
G1 X135.55 Y150.691 E0.07267
G1 X135.823 Y152.541 E0.07267
G1 X136.836 Y154.113 E0.07267
G1 X145.887 Y163.164 E0.49736
G1 X146.921 Y163.933 E0.05006
G1 X148.718 Y164.45 E0.07267
G1 X150.568 Y164.177 E0.07267
G1 X152.141 Y163.164 E0.07267
G1 X163.164 Y152.141 E0.60576
G1 X163.933 Y151.107 E0.05006
G1 X164.45 Y149.309 E0.07267
G1 X164.177 Y147.459 E0.07267
M73 P12 R3
G1 X163.164 Y145.887 E0.07267
G1 X154.113 Y136.836 E0.49736
G1 X153.079 Y136.067 E0.05006
G1 X151.282 Y135.55 E0.07267
G1 X149.432 Y135.823 E0.07267
G1 X147.859 Y136.836 E0.07267
G1 X142.517 Y142.178 E0.29355
G1 X142.805 Y142.465 F48000
G1 F3600
G1 X137.123 Y148.147 E0.31221
G1 X136.553 Y148.865 E0.03566
G1 X135.971 Y150.549 E0.06921
G1 X136.174 Y152.319 E0.06921
G1 X137.123 Y153.826 E0.06921
G1 X146.174 Y162.877 E0.49736
G1 X146.893 Y163.447 E0.03566
G1 X148.576 Y164.029 E0.06921
G1 X150.346 Y163.826 E0.06921
G1 X151.853 Y162.877 E0.06921
G1 X162.877 Y151.853 E0.60576
G1 X163.447 Y151.135 E0.03566
G1 X164.029 Y149.451 E0.06921
G1 X163.826 Y147.681 E0.06921
G1 X162.877 Y146.174 E0.06921
G1 X153.826 Y137.123 E0.49736
G1 X153.107 Y136.553 E0.03566
G1 X151.424 Y135.971 E0.06921
G1 X149.654 Y136.174 E0.06921
G1 X148.147 Y137.123 E0.06921
G1 X142.847 Y142.423 E0.29122
G1 X143.134 Y142.71 F48000
G1 F3600
G1 X137.41 Y148.434 E0.31454
G1 X136.398 Y150.417 E0.08651
G1 X136.529 Y152.1 E0.06557
G1 X137.41 Y153.539 E0.06557
G1 X146.461 Y162.59 E0.49736
M73 P13 R3
G1 X148.444 Y163.602 E0.08651
G1 X150.127 Y163.471 E0.06557
G1 X151.566 Y162.59 E0.06557
G1 X162.59 Y151.566 E0.60576
G1 X163.602 Y149.583 E0.08651
G1 X163.471 Y147.9 E0.06557
G1 X162.59 Y146.461 E0.06557
G1 X153.539 Y137.41 E0.49736
G1 X151.556 Y136.398 E0.08651
G1 X149.873 Y136.529 E0.06557
G1 X148.434 Y137.41 E0.06557
G1 X143.177 Y142.668 E0.28889
G1 X143.464 Y142.955 F48000
G1 F3600
G1 X137.698 Y148.721 E0.31687
G1 X136.834 Y150.298 E0.06983
G1 X136.888 Y151.885 E0.06171
G1 X137.698 Y153.251 E0.06171
G1 X146.749 Y162.302 E0.49736
G1 X148.325 Y163.166 E0.06983
G1 X149.912 Y163.112 E0.06171
G1 X151.279 Y162.302 E0.06171
G1 X162.302 Y151.279 E0.60576
G1 X163.166 Y149.702 E0.06983
G1 X163.112 Y148.115 E0.06171
G1 X162.302 Y146.749 E0.06171
G1 X153.251 Y137.698 E0.49736
G1 X151.675 Y136.834 E0.06983
G1 X150.088 Y136.888 E0.06171
G1 X148.721 Y137.698 E0.06171
G1 X143.507 Y142.913 E0.28656
M104 S210 ; set temperature
G1 E-1.6 F1800
M204 S10000
M73 P14 R3
G1 Z0.65 F48000
; printing object dshaft.stl id:0 copy 0
EXCLUDE_OBJECT_START NAME=dshaft_stl_id_0_copy_0
M204 S2000
G1 X157.79 Y149.014
G1 Z0.25
G1 E1.6 F1800
; custom gcode: feature_gcode
; External perimeter
;Perimeter
SET_VELOCITY_LIMIT ACCEL=2000 ACCEL_TO_DECEL=2000 SQUARE_CORNER_VELOCITY=8

; Overhang perimeter
; custom gcode end: feature_gcode

;TYPE:Internal perimeter
;WIDTH:0.5
G1 F3600
G1 X156.791 Y150.012 E0.06028
G1 X149.988 Y143.209 E0.41067
G1 X150.986 Y142.21 E0.06028
G1 X157.748 Y148.971 E0.40811
G1 X158.421 Y149.014 F48000
G1 F3600
G1 X156.791 Y150.644 E0.09838
G1 X149.356 Y143.209 E0.44878
G1 X150.986 Y141.579 E0.09838
G1 X158.379 Y148.971 E0.44622
G1 X159.053 Y149.014 F48000
G1 F3600
G1 X156.791 Y151.275 E0.13648
G1 X148.725 Y143.209 E0.48688
G1 X150.986 Y140.947 E0.13648
G1 X159.01 Y148.971 E0.48432
G1 X156.791 Y151.906 F48000
; custom gcode: feature_gcode
; External perimeter
;ExternalPerimeter
SET_VELOCITY_LIMIT ACCEL=1000 ACCEL_TO_DECEL=1000 SQUARE_CORNER_VELOCITY=8

; Perimeter
; custom gcode end: feature_gcode

;TYPE:External perimeter
G1 F3600
G1 X148.094 Y143.209 E0.52498
G1 X150.986 Y140.316 E0.17458
G1 X159.684 Y149.014 E0.52498
M73 P15 R3
G1 X156.834 Y151.864 E0.17202
;WIPE_START
M204 S10000
G1 X156.688 Y151.52 F48000
;WIPE_END
M204 S2000
G1 X151.624 Y143.037
; custom gcode: feature_gcode
; External perimeter
;SolidInfill
SET_VELOCITY_LIMIT ACCEL=4000 ACCEL_TO_DECEL=4000 SQUARE_CORNER_VELOCITY=8

; Bridge infill
; custom gcode end: feature_gcode

;TYPE:Solid infill
;WIDTH:0.528673
G1 F3000
G1 X150.348 Y143.037 E0.05759
G1 X150.452 Y143.484 F48000
G1 F3000
G1 X152.071 Y143.484 E0.07305
G1 X152.517 Y143.93 F48000
G1 F3000
G1 X150.898 Y143.93 E0.07305
G1 X151.345 Y144.376 F48000
G1 F3000
G1 X152.963 Y144.376 E0.07305
G1 X153.41 Y144.823 F48000
G1 F3000
G1 X151.791 Y144.823 E0.07305
G1 X152.237 Y145.269 F48000
G1 F3000
G1 X153.856 Y145.269 E0.07305
G1 X154.302 Y145.715 F48000
G1 F3000
G1 X152.684 Y145.715 E0.07305
G1 X153.13 Y146.162 F48000
G1 F3000
G1 X154.749 Y146.162 E0.07305
G1 X155.195 Y146.608 F48000
G1 F3000
G1 X153.577 Y146.608 E0.07305
G1 X154.023 Y147.054 F48000
G1 F3000
G1 X155.641 Y147.054 E0.07305
G1 X156.088 Y147.501 F48000
G1 F3000
G1 X154.469 Y147.501 E0.07305
G1 X154.916 Y147.947 F48000
G1 F3000
G1 X156.534 Y147.947 E0.07305
G1 X156.981 Y148.393 F48000
G1 F3000
G1 X155.362 Y148.393 E0.07305
G1 X155.808 Y148.84 F48000
G1 F3000
G1 X157.427 Y148.84 E0.07305
G1 X157.328 Y149.286 F48000
G1 F3000
G1 X156.255 Y149.286 E0.04845
G1 E-1.6 F1800
M204 S10000
G1 Z0.65 F48000
; stop printing object dshaft.stl id:0 copy 0
EXCLUDE_OBJECT_END NAME=dshaft_stl_id_0_copy_0
; printing object dshaft.stl id:1 copy 0
EXCLUDE_OBJECT_START NAME=dshaft_stl_id_1_copy_0
M204 S2000
G1 X150.012 Y156.791
G1 Z0.25
G1 E1.6 F1800
; custom gcode: feature_gcode
; External perimeter
;Perimeter
SET_VELOCITY_LIMIT ACCEL=2000 ACCEL_TO_DECEL=2000 SQUARE_CORNER_VELOCITY=8

; Overhang perimeter
; custom gcode end: feature_gcode

;TYPE:Internal perimeter
;WIDTH:0.5
G1 F3600
G1 X149.014 Y157.79 E0.06028
G1 X142.21 Y150.986 E0.41067
G1 X143.209 Y149.988 E0.06028
G1 X149.97 Y156.749 E0.40811
G1 X150.644 Y156.791 F48000
G1 F3600
G1 X149.014 Y158.421 E0.09838
G1 X141.579 Y150.986 E0.44878
G1 X143.209 Y149.356 E0.09838
G1 X150.601 Y156.749 E0.44622
M73 P16 R3
G1 X151.275 Y156.791 F48000
G1 F3600
G1 X149.014 Y159.053 E0.13648
G1 X140.947 Y150.986 E0.48688
G1 X143.209 Y148.725 E0.13648
G1 X151.232 Y156.749 E0.48432
G1 X149.014 Y159.684 F48000
; custom gcode: feature_gcode
; External perimeter
;ExternalPerimeter
SET_VELOCITY_LIMIT ACCEL=1000 ACCEL_TO_DECEL=1000 SQUARE_CORNER_VELOCITY=8

; Perimeter
; custom gcode end: feature_gcode

;TYPE:External perimeter
G1 F3600
G1 X140.316 Y150.986 E0.52498
G1 X143.209 Y148.094 E0.17458
G1 X151.906 Y156.791 E0.52498
G1 X149.056 Y159.641 E0.17202
;WIPE_START
M204 S10000
G1 X148.91 Y159.297 F48000
;WIPE_END
M204 S2000
G1 X143.847 Y150.815
; custom gcode: feature_gcode
; External perimeter
;SolidInfill
SET_VELOCITY_LIMIT ACCEL=4000 ACCEL_TO_DECEL=4000 SQUARE_CORNER_VELOCITY=8

; Bridge infill
; custom gcode end: feature_gcode

;TYPE:Solid infill
;WIDTH:0.528673
G1 F3000
G1 X142.571 Y150.815 E0.05759
M73 P16 R2
G1 X142.674 Y151.261 F48000
G1 F3000
G1 X144.293 Y151.261 E0.07305
G1 X144.739 Y151.708 F48000
G1 F3000
G1 X143.121 Y151.708 E0.07305
G1 X143.567 Y152.154 F48000
G1 F3000
G1 X145.186 Y152.154 E0.07305
G1 X145.632 Y152.6 F48000
G1 F3000
G1 X144.013 Y152.6 E0.07305
G1 X144.46 Y153.047 F48000
G1 F3000
G1 X146.078 Y153.047 E0.07305
G1 X146.525 Y153.493 F48000
G1 F3000
G1 X144.906 Y153.493 E0.07305
G1 X145.352 Y153.939 F48000
G1 F3000
G1 X146.971 Y153.939 E0.07305
G1 X147.417 Y154.386 F48000
G1 F3000
G1 X145.799 Y154.386 E0.07305
G1 X146.245 Y154.832 F48000
G1 F3000
G1 X147.864 Y154.832 E0.07305
G1 X148.31 Y155.279 F48000
G1 F3000
G1 X146.692 Y155.279 E0.07305
G1 X147.138 Y155.725 F48000
G1 F3000
G1 X148.756 Y155.725 E0.07305
G1 X149.203 Y156.171 F48000
G1 F3000
G1 X147.584 Y156.171 E0.07305
M73 P17 R2
G1 X148.031 Y156.618 F48000
G1 F3000
G1 X149.649 Y156.618 E0.07305
G1 X149.55 Y157.064 F48000
G1 F3000
G1 X148.477 Y157.064 E0.04845
M106 S255
;LAYER_CHANGE
;Z:0.45
;HEIGHT:0.2
; stop printing object dshaft.stl id:1 copy 0
EXCLUDE_OBJECT_END NAME=dshaft_stl_id_1_copy_0
M204 S10000
G1 Z0.45 F48000
; custom gcode: layer_gcode
;DISPLAY_PROGRESS TOTAL_LAYERS=16 CURRENT_LAYER=1
; custom gcode end: layer_gcode

G92 E0
M140 S60 ; set bed temperature
G1 E-1.6 F1800
G1 Z0.85 F48000
; printing object dshaft.stl id:0 copy 0
EXCLUDE_OBJECT_START NAME=dshaft_stl_id_0_copy_0
; acceleration to travel
G1 X154.77 Y151.781
; decel to extrusion
M204 S5000
G1 X158.114 Y148.975
; end travel
G1 Z0.45
G1 E1.6 F1800
; custom gcode: feature_gcode
; External perimeter
;Perimeter
SET_VELOCITY_LIMIT ACCEL=2000 ACCEL_TO_DECEL=2000 SQUARE_CORNER_VELOCITY=8

; Overhang perimeter
; custom gcode end: feature_gcode

;TYPE:Internal perimeter
;WIDTH:0.46
G1 F2254
G1 X156.752 Y150.336 E0.06143
G1 X149.664 Y143.248 E0.31983
G1 X151.025 Y141.886 E0.06143
G1 X158.071 Y148.932 E0.31792
G1 X158.704 Y148.975 F48000
G1 F2254
G1 X156.752 Y150.926 E0.08804
G1 X149.074 Y143.248 E0.34645
G1 X151.025 Y141.296 E0.08804
G1 X158.661 Y148.932 E0.34453
G1 X159.293 Y148.975 F48000
G1 F2254
G1 X156.752 Y151.516 E0.11466
G1 X148.484 Y143.248 E0.37306
G1 X151.025 Y140.707 E0.11466
G1 X159.251 Y148.932 E0.37115
M73 P18 R2
G1 X156.752 Y152.063 F48000
; custom gcode: feature_gcode
; External perimeter
;ExternalPerimeter
SET_VELOCITY_LIMIT ACCEL=1000 ACCEL_TO_DECEL=1000 SQUARE_CORNER_VELOCITY=8

; Perimeter
; custom gcode end: feature_gcode

;TYPE:External perimeter
;WIDTH:0.4
G1 F2254
G1 X147.937 Y143.248 E0.34054
G1 X151.025 Y140.159 E0.11931
G1 X159.841 Y148.975 E0.34054
G1 X156.795 Y152.021 E0.11767
;WIPE_START
M204 S10000
G1 X156.649 Y151.677 F48000
;WIPE_END
G1 X157.208 Y148.235
; custom gcode: feature_gcode
; External perimeter
;SolidInfill
SET_VELOCITY_LIMIT ACCEL=4000 ACCEL_TO_DECEL=4000 SQUARE_CORNER_VELOCITY=8

; Bridge infill
; custom gcode end: feature_gcode

;TYPE:Solid infill
;WIDTH:0.581526
G1 F2254
G1 X157.208 Y149.714 E0.06072
G1 X156.691 Y150.109 F48000
G1 F2254
G1 X156.691 Y147.718 E0.09818
G1 X156.174 Y147.201 F48000
G1 F2254
G1 X156.174 Y149.591 E0.09818
G1 X155.657 Y149.074 F48000
G1 F2254
G1 X155.657 Y146.684 E0.09818
G1 X155.14 Y146.167 F48000
G1 F2254
G1 X155.14 Y148.557 E0.09818
G1 X154.623 Y148.04 F48000
G1 F2254
G1 X154.623 Y145.65 E0.09818
G1 X154.106 Y145.133 F48000
G1 F2254
G1 X154.106 Y147.523 E0.09818
G1 X153.589 Y147.006 F48000
G1 F2254
G1 X153.589 Y144.616 E0.09818
G1 X153.072 Y144.099 F48000
G1 F2254
G1 X153.072 Y146.489 E0.09818
G1 X152.555 Y145.972 F48000
G1 F2254
G1 X152.555 Y143.582 E0.09818
G1 X152.037 Y143.065 F48000
G1 F2254
G1 X152.037 Y145.455 E0.09818
G1 X151.52 Y144.938 F48000
G1 F2254
G1 X151.52 Y142.548 E0.09818
G1 X151.003 Y142.075 F48000
G1 F2254
G1 X151.003 Y144.421 E0.09636
G1 X150.486 Y143.904 F48000
G1 F2254
G1 X150.486 Y142.592 E0.05388
G1 E-1.6 F1800
G1 Z0.85 F48000
; stop printing object dshaft.stl id:0 copy 0
EXCLUDE_OBJECT_END NAME=dshaft_stl_id_0_copy_0
; printing object dshaft.stl id:1 copy 0
EXCLUDE_OBJECT_START NAME=dshaft_stl_id_1_copy_0
; acceleration to travel
G1 X150.385 Y152.085
; decel to extrusion
M204 S5000
M73 P19 R2
G1 X150.336 Y156.752
; end travel
G1 Z0.45
G1 E1.6 F1800
; custom gcode: feature_gcode
; External perimeter
;Perimeter
SET_VELOCITY_LIMIT ACCEL=2000 ACCEL_TO_DECEL=2000 SQUARE_CORNER_VELOCITY=8

; Overhang perimeter
; custom gcode end: feature_gcode

;TYPE:Internal perimeter
;WIDTH:0.46
G1 F2254
G1 X148.975 Y158.114 E0.06143
G1 X141.886 Y151.025 E0.31983
G1 X143.248 Y149.664 E0.06143
G1 X150.294 Y156.71 E0.31792
G1 X150.926 Y156.752 F48000
G1 F2254
G1 X148.975 Y158.704 E0.08804
G1 X141.296 Y151.025 E0.34645
G1 X143.248 Y149.074 E0.08804
G1 X150.883 Y156.71 E0.34453
G1 X151.516 Y156.752 F48000
G1 F2254
G1 X148.975 Y159.293 E0.11466
G1 X140.707 Y151.025 E0.37306
G1 X143.248 Y148.484 E0.11466
G1 X151.473 Y156.71 E0.37115
G1 X148.975 Y159.841 F48000
; custom gcode: feature_gcode
; External perimeter
;ExternalPerimeter
