; generated by SuperSlicer 2.4 on 2023-09-13 at 00:05:29 UTC


;
;

;
;
; 

; external perimeters extrusion width = 0.40mm
; perimeters extrusion width = 0.46mm
; infill extrusion width = 0.64mm
; solid infill extrusion width = 0.56mm
; top infill extrusion width = 0.40mm
; first layer extrusion width = 0.50mm

; object:{"name":"DC Motor Mount","id":"DC Motor Mount.stl id:0 copy 0","object_center":[155.427043,155.427042,0.000000],"boundingbox_center":[155.427043,155.427042,9.925380],"boundingbox_size":[45.360900,45.360901,19.850760]}
; plater:{"center":[155.427043,155.427042,0.000000],"boundingbox_center":[155.427043,155.427042,9.925380],"boundingbox_size":[45.360900,45.360901,19.850760]}

M73 P0 R24


; Pre-Processed for Cancel-Object support by preprocess_cancellation v0.2.0
; 1 known objects
EXCLUDE_OBJECT_DEFINE NAME=DC_Motor_Mount_stl_id_0_copy_0 CENTER=147.943,147.374 POLYGON=[[132.947,132.947],[132.947,177.782],[177.825,177.782],[177.825,132.947]]
;TYPE:Custom
; custom gcode: start_gcode
M190 S0
M104 S0
PRINT_START EXTRUDER_TEMP=215 BED_TEMP=60 FILAMENT=PLA SIZE=128.493_128.493_182.457_182.457 ENCLOSURE_TEMP=0
; custom gcode end: start_gcode
M107
G21 ; set units to millimeters
G90 ; use absolute coordinates
M83 ; use relative distances for extrusion
;_TOOLCHANGE 0
;LAYER_CHANGE
;Z:0.25
;HEIGHT:0.25
G1 Z0.25 F48000
; custom gcode: layer_gcode
;DISPLAY_PROGRESS TOTAL_LAYERS=99 CURRENT_LAYER=0
; custom gcode end: layer_gcode

G92 E0
M73 P1 R24
G1 E-1.6 F1800
G1 Z0.65 F48000
M204 S2000
G1 X137.997 Y138.559
G1 Z0.25
G1 E1.6 F1800
; custom gcode: feature_gcode
; External perimeter
;Skirt
SET_VELOCITY_LIMIT ACCEL=7000 ACCEL_TO_DECEL=7000 SQUARE_CORNER_VELOCITY=8

; Support material
; custom gcode end: feature_gcode

;TYPE:Skirt
;WIDTH:0.46
G1 F3600
G1 X130.908 Y145.62 E0.38879
G1 X130.422 Y146.168 E0.02842
G1 X129.816 Y147.053 E0.04172
G1 X129.501 Y147.672 E0.02696
G1 X129.141 Y148.683 E0.04171
G1 X128.943 Y149.739 E0.04172
G1 X128.899 Y150.469 E0.02842
G1 X128.899 Y153.632 E0.12293
G1 X128.998 Y154.79 E0.04512
G1 X132.609 Y175.108 E0.80186
G1 X133.836 Y177.461 E0.10312
G1 X137.133 Y180.757 E0.18114
G1 X138.167 Y181.526 E0.05006
G1 X139.964 Y182.043 E0.07267
G1 X141.814 Y181.77 E0.07267
G1 X143.387 Y180.757 E0.07267
G1 X180.757 Y143.387 E2.05356
G1 X181.526 Y142.353 E0.05006
G1 X182.043 Y140.555 E0.07267
G1 X181.77 Y138.705 E0.07267
G1 X180.757 Y137.133 E0.07267
G1 X177.727 Y134.102 E0.16652
G1 X176.292 Y133.144 E0.06704
G1 X175.65 Y132.878 E0.02701
G1 X174.746 Y132.612 E0.03662
G1 X154.804 Y129 E0.78747
G1 X153.632 Y128.899 E0.04568
G1 X150.469 Y128.899 E0.12293
G1 X149.053 Y129.052 E0.05532
G1 X147.672 Y129.501 E0.05644
G1 X146.729 Y130.014 E0.04172
G1 X146.168 Y130.422 E0.02697
G1 X138.04 Y138.517 E0.44572
G1 X138.326 Y138.805 F48000
G1 F3600
G1 X131.195 Y145.908 E0.39109
G1 X130.731 Y146.431 E0.02718
G1 X130.162 Y147.266 E0.03924
G1 X129.876 Y147.827 E0.02449
G1 X129.536 Y148.778 E0.03924
G1 X129.348 Y149.77 E0.03925
G1 X129.306 Y150.469 E0.02718
G1 X129.306 Y153.632 E0.12293
G1 X129.398 Y154.718 E0.04235
G1 X133.009 Y175.037 E0.80186
G1 X134.124 Y177.173 E0.09364
G1 X137.42 Y180.47 E0.18114
G1 X138.139 Y181.04 E0.03566
G1 X139.822 Y181.622 E0.06921
G1 X141.592 Y181.419 E0.06921
G1 X143.099 Y180.47 E0.06921
G1 X180.47 Y143.099 E2.05356
G1 X181.04 Y142.38 E0.03566
G1 X181.622 Y140.697 E0.06921
G1 X181.419 Y138.927 E0.06921
G1 X180.47 Y137.42 E0.06921
G1 X177.439 Y134.39 E0.16652
G1 X176.137 Y133.519 E0.06088
G1 X175.494 Y133.253 E0.02701
G1 X174.673 Y133.012 E0.03326
G1 X154.731 Y129.4 E0.78747
G1 X153.632 Y129.306 E0.04286
G1 X150.469 Y129.306 E0.12293
G1 X149.148 Y129.447 E0.05161
G1 X147.827 Y129.876 E0.05396
G1 X146.941 Y130.361 E0.03924
G1 X146.431 Y130.731 E0.02449
G1 X138.369 Y138.762 E0.44219
G1 X138.655 Y139.05 F48000
G1 F3600
G1 X131.482 Y146.195 E0.3934
G1 X131.04 Y146.695 E0.02594
G1 X130.509 Y147.478 E0.03677
G1 X129.931 Y148.873 E0.05866
G1 X129.753 Y149.802 E0.03677
G1 X129.712 Y150.469 E0.02594
G1 X129.712 Y153.632 E0.12293
G1 X129.798 Y154.647 E0.03958
G1 X133.409 Y174.965 E0.80186
G1 X134.411 Y176.886 E0.08417
G1 X137.707 Y180.183 E0.18114
G1 X139.69 Y181.195 E0.08651
G1 X141.373 Y181.064 E0.06557
G1 X142.812 Y180.183 E0.06557
G1 X180.183 Y142.812 E2.05356
G1 X181.195 Y140.829 E0.08651
G1 X181.064 Y139.146 E0.06557
G1 X180.183 Y137.707 E0.06557
G1 X177.152 Y134.677 E0.16652
G1 X175.981 Y133.894 E0.05472
G1 X175.339 Y133.628 E0.02701
G1 X174.601 Y133.411 E0.02989
G1 X154.659 Y129.8 E0.78747
G1 X153.632 Y129.712 E0.04003
G1 X150.469 Y129.712 E0.12293
G1 X149.243 Y129.842 E0.0479
G1 X147.983 Y130.251 E0.05148
G1 X146.695 Y131.04 E0.05867
G1 X138.698 Y139.007 E0.43865
G1 X138.984 Y139.295 F48000
G1 F3600
G1 X131.77 Y146.482 E0.3957
G1 X131.349 Y146.959 E0.0247
G1 X130.855 Y147.69 E0.03429
G1 X130.326 Y148.968 E0.05372
G1 X130.158 Y149.834 E0.03429
G1 X130.118 Y150.469 E0.0247
G1 X130.118 Y153.632 E0.12293
G1 X130.198 Y154.576 E0.0368
G1 X133.809 Y174.894 E0.80186
G1 X134.698 Y176.599 E0.07469
G1 X137.995 Y179.895 E0.18114
G1 X139.571 Y180.758 E0.06983
G1 X141.158 Y180.705 E0.06171
G1 X142.525 Y179.895 E0.06171
G1 X179.895 Y142.525 E2.05356
M73 P2 R24
G1 X180.758 Y140.948 E0.06983
G1 X180.705 Y139.361 E0.06171
G1 X179.895 Y137.995 E0.06171
G1 X176.865 Y134.964 E0.16652
G1 X175.826 Y134.27 E0.04856
G1 X175.183 Y134.004 E0.02701
G1 X174.528 Y133.811 E0.02653
G1 X154.587 Y130.2 E0.78747
G1 X153.632 Y130.118 E0.03721
G1 X150.469 Y130.118 E0.12293
G1 X149.338 Y130.237 E0.04419
G1 X148.138 Y130.627 E0.04901
G1 X146.959 Y131.349 E0.05373
G1 X139.026 Y139.253 E0.4351
M104 S215 ; set temperature
G1 E-1.6 F1800
M204 S10000
G1 Z0.65 F48000
; printing object DC Motor Mount.stl id:0 copy 0
EXCLUDE_OBJECT_START NAME=DC_Motor_Mount_stl_id_0_copy_0
; acceleration to travel
G1 X146.622 Y162.793
; decel to extrusion
M204 S2000
G1 X148.142 Y167.501
; end travel
G1 Z0.25
G1 E1.6 F1800
; custom gcode: feature_gcode
; External perimeter
;Perimeter
SET_VELOCITY_LIMIT ACCEL=2000 ACCEL_TO_DECEL=2000 SQUARE_CORNER_VELOCITY=8

; Overhang perimeter
; custom gcode end: feature_gcode

;TYPE:Internal perimeter
;WIDTH:0.5
G1 F3600
G1 X140.26 Y175.383 E0.47576
G1 X138.552 Y173.676 E0.10306
G1 X138.552 Y157.911 E0.67283
G1 X148.099 Y167.458 E0.57626
G1 X138.235 Y157.307 F48000
G1 F3600
G1 X135.202 Y154.274 E0.18303
G1 X135.075 Y154.125 E0.0084
G1 X135.006 Y154.014 E0.00556
G1 X134.957 Y153.893 E0.00556
G1 X134.926 Y153.766 E0.00556
G1 X134.911 Y153.57 E0.0084
G1 X134.911 Y150.531 E0.1297
G1 X134.926 Y150.335 E0.0084
G1 X134.957 Y150.208 E0.00556
G1 X135.006 Y150.088 E0.00556
G1 X135.075 Y149.977 E0.00556
G1 X135.202 Y149.827 E0.0084
G1 X149.827 Y135.202 E0.88274
G1 X149.977 Y135.075 E0.0084
G1 X150.088 Y135.006 E0.00556
G1 X150.208 Y134.957 E0.00557
G1 X150.335 Y134.926 E0.00556
G1 X150.531 Y134.911 E0.0084
G1 X150.918 Y134.911 E0.01651
G1 X153.57 Y134.911 E0.1132
G1 X153.766 Y134.926 E0.0084
G1 X153.893 Y134.957 E0.00556
G1 X154.014 Y135.006 E0.00556
G1 X154.125 Y135.075 E0.00556
G1 X154.274 Y135.202 E0.0084
G1 X157.307 Y138.235 E0.18303
G1 X152.659 Y138.235 E0.19836
G1 X138.235 Y152.659 E0.87066
G1 X138.235 Y157.247 E0.1958
G1 E-1.6 F1800
M204 S10000
G1 Z0.65 F48000
; acceleration to travel
G1 X169.192 Y143.091
; decel to extrusion
M204 S2000
G1 X175.383 Y140.26
; end travel
G1 Z0.25
G1 E1.6 F1800
G1 F3600
G1 X167.501 Y148.142 E0.47576
G1 X157.911 Y138.552 E0.57882
G1 X173.676 Y138.552 E0.67283
G1 X175.341 Y140.217 E0.1005
G1 X176.014 Y140.26 F48000
G1 F3600
G1 X167.501 Y148.773 E0.51387
M73 P2 R23
G1 X157.409 Y138.681 E0.60915
G1 X152.844 Y138.681 E0.19484
G1 X138.681 Y152.844 E0.85488
G1 X138.681 Y157.409 E0.19484
G1 X148.773 Y167.501 E0.60915
G1 X140.26 Y176.014 E0.51387
G1 X138.106 Y173.86 E0.13
G1 X138.106 Y157.809 E0.68509
G1 X134.874 Y154.578 E0.19505
G1 X134.712 Y154.388 E0.01065
G1 X134.607 Y154.217 E0.00856
G1 X134.531 Y154.031 E0.00856
G1 X134.484 Y153.836 E0.00856
G1 X134.464 Y153.588 E0.01065
G1 X134.464 Y150.514 E0.1312
G1 X134.484 Y150.265 E0.01065
G1 X134.531 Y150.07 E0.00856
G1 X134.607 Y149.884 E0.00856
G1 X134.712 Y149.713 E0.00856
G1 X134.874 Y149.524 E0.01065
G1 X149.524 Y134.874 E0.88423
G1 X149.713 Y134.712 E0.01065
G1 X149.884 Y134.607 E0.00856
G1 X150.07 Y134.531 E0.00856
G1 X150.265 Y134.484 E0.00856
G1 X150.514 Y134.464 E0.01065
G1 X150.918 Y134.464 E0.01725
G1 X153.588 Y134.464 E0.11395
G1 X153.836 Y134.484 E0.01065
G1 X154.031 Y134.531 E0.00856
G1 X154.217 Y134.607 E0.00856
G1 X154.388 Y134.712 E0.00856
G1 X154.578 Y134.874 E0.01065
G1 X157.809 Y138.106 E0.19506
G1 X173.73 Y138.106 E0.67953
G1 X173.953 Y138.198 E0.01027
G1 X175.972 Y140.217 E0.12188
G1 X176.645 Y140.26 F48000
G1 F3600
G1 X167.501 Y149.404 E0.55197
G1 X157.224 Y139.127 E0.62031
G1 X153.029 Y139.127 E0.17906
G1 X139.127 Y153.029 E0.8391
G1 X139.127 Y157.224 E0.17906
G1 X149.404 Y167.501 E0.62031
G1 X140.26 Y176.645 E0.55197
G1 X137.66 Y174.045 E0.15694
G1 X137.66 Y157.994 E0.68509
G1 X134.546 Y154.881 E0.18791
G1 X134.35 Y154.651 E0.0129
G1 X134.209 Y154.42 E0.01156
G1 X134.105 Y154.17 E0.01156
G1 X134.042 Y153.906 E0.01156
G1 X134.018 Y153.605 E0.0129
G1 X134.018 Y150.496 E0.1327
G1 X134.042 Y150.195 E0.0129
G1 X134.105 Y149.931 E0.01156
G1 X134.209 Y149.681 E0.01156
G1 X134.35 Y149.45 E0.01156
G1 X134.546 Y149.22 E0.0129
G1 X149.22 Y134.546 E0.88573
G1 X149.45 Y134.35 E0.0129
G1 X149.681 Y134.209 E0.01156
G1 X149.931 Y134.105 E0.01156
G1 X150.195 Y134.042 E0.01156
G1 X150.496 Y134.018 E0.0129
G1 X150.918 Y134.018 E0.018
G1 X153.605 Y134.018 E0.11469
G1 X153.906 Y134.042 E0.0129
G1 X154.17 Y134.105 E0.01156
G1 X154.42 Y134.209 E0.01156
G1 X154.651 Y134.35 E0.01156
G1 X154.881 Y134.546 E0.0129
G1 X157.994 Y137.66 E0.18791
G1 X173.819 Y137.66 E0.67543
G1 X174.205 Y137.82 E0.01785
G1 X176.603 Y140.217 E0.14472
G1 E-1.6 F1800
M204 S10000
G1 Z0.65 F48000
; acceleration to travel
G1 X146.317 Y171.1
; decel to extrusion
M204 S2000
G1 X140.26 Y177.277
; end travel
G1 Z0.25
G1 E1.6 F1800
; custom gcode: feature_gcode
; External perimeter
;ExternalPerimeter
SET_VELOCITY_LIMIT ACCEL=1000 ACCEL_TO_DECEL=1000 SQUARE_CORNER_VELOCITY=8

; Perimeter
; custom gcode end: feature_gcode

;TYPE:External perimeter
G1 F3600
G1 X137.213 Y174.23 E0.18388
G1 X137.213 Y158.179 E0.68509
G1 X134.218 Y155.184 E0.18077
G1 X133.988 Y154.914 E0.01515
G1 X133.81 Y154.623 E0.01456
G1 X133.679 Y154.308 E0.01456
G1 X133.599 Y153.976 E0.01456
G1 X133.572 Y153.623 E0.01515
G1 X133.572 Y150.479 E0.13419
G1 X133.599 Y150.125 E0.01515
G1 X133.679 Y149.793 E0.01456
G1 X133.81 Y149.478 E0.01456
G1 X133.988 Y149.187 E0.01456
G1 X134.218 Y148.917 E0.01515
G1 X148.917 Y134.218 E0.88723
G1 X149.187 Y133.988 E0.01515
G1 X149.478 Y133.81 E0.01456
G1 X149.793 Y133.679 E0.01456
G1 X150.125 Y133.599 E0.01456
G1 X150.479 Y133.572 E0.01515
G1 X150.918 Y133.572 E0.01875
G1 X153.623 Y133.572 E0.11544
G1 X153.976 Y133.599 E0.01515
G1 X154.308 Y133.679 E0.01456
G1 X154.623 Y133.81 E0.01456
G1 X154.914 Y133.988 E0.01456
G1 X155.184 Y134.218 E0.01515
G1 X158.179 Y137.213 E0.18077
G1 X173.908 Y137.213 E0.67133
G1 X174.458 Y137.441 E0.02542
G1 X177.277 Y140.26 E0.17012
G1 X167.501 Y150.035 E0.59007
G1 X157.039 Y139.574 E0.63147
G1 X153.214 Y139.574 E0.16328
G1 X139.574 Y153.214 E0.82332
G1 X139.574 Y157.039 E0.16328
G1 X150.035 Y167.501 E0.63147
G1 X140.302 Y177.234 E0.58751
;WIPE_START
M204 S10000
G1 X140.156 Y176.89 F48000
;WIPE_END
; acceleration to travel
G1 X139.444 Y161.853
; decel to extrusion
M204 S2000
G1 X139.302 Y158.85
; end travel
; custom gcode: feature_gcode
; External perimeter
;SolidInfill
SET_VELOCITY_LIMIT ACCEL=4000 ACCEL_TO_DECEL=4000 SQUARE_CORNER_VELOCITY=8

; Bridge infill
; custom gcode end: feature_gcode

;TYPE:Solid infill
;WIDTH:0.504529
G1 F3000
G1 X138.686 Y158.85 E0.02652
G1 X138.686 Y159.297 F48000
G1 F3000
G1 X139.748 Y159.297 E0.04574
G1 X140.195 Y159.743 F48000
G1 F3000
G1 X138.686 Y159.743 E0.06496
G1 X138.686 Y160.189 F48000
G1 F3000
G1 X140.641 Y160.189 E0.08419
G1 X141.087 Y160.636 F48000
G1 F3000
G1 X138.686 Y160.636 E0.10341
G1 X138.686 Y161.082 F48000
G1 F3000
G1 X141.534 Y161.082 E0.12263
G1 X141.98 Y161.528 F48000
G1 F3000
G1 X138.686 Y161.528 E0.14186
G1 X138.686 Y161.975 F48000
G1 F3000
G1 X142.426 Y161.975 E0.16108
G1 X142.873 Y162.421 F48000
G1 F3000
G1 X138.686 Y162.421 E0.1803
G1 X138.686 Y162.867 F48000
G1 F3000
G1 X143.319 Y162.867 E0.19953
G1 X143.765 Y163.314 F48000
G1 F3000
G1 X138.686 Y163.314 E0.21875
G1 X138.686 Y163.76 F48000
G1 F3000
G1 X144.212 Y163.76 E0.23797
G1 X144.658 Y164.207 F48000
G1 F3000
G1 X138.686 Y164.207 E0.2572
G1 X138.686 Y164.653 F48000
G1 F3000
G1 X145.104 Y164.653 E0.27642
G1 X145.551 Y165.099 F48000
G1 F3000
G1 X138.686 Y165.099 E0.29564
G1 X138.686 Y165.546 F48000
G1 F3000
G1 X145.997 Y165.546 E0.31487
G1 X146.443 Y165.992 F48000
G1 F3000
G1 X138.686 Y165.992 E0.33409
G1 X138.686 Y166.438 F48000
G1 F3000
G1 X146.89 Y166.438 E0.35331
G1 X147.336 Y166.885 F48000
G1 F3000
G1 X138.686 Y166.885 E0.37254
G1 X138.686 Y167.331 F48000
G1 F3000
G1 X147.782 Y167.331 E0.39176
G1 X147.676 Y167.777 F48000
G1 F3000
G1 X138.686 Y167.777 E0.38717
M73 P3 R23
G1 X138.686 Y168.224 F48000
G1 F3000
G1 X147.23 Y168.224 E0.36795
G1 X146.783 Y168.67 F48000
G1 F3000
G1 X138.686 Y168.67 E0.34872
G1 X138.686 Y169.116 F48000
G1 F3000
G1 X146.337 Y169.116 E0.3295
G1 X145.89 Y169.563 F48000
G1 F3000
G1 X138.686 Y169.563 E0.31028
G1 X138.686 Y170.009 F48000
G1 F3000
G1 X145.444 Y170.009 E0.29105
G1 X144.998 Y170.455 F48000
G1 F3000
G1 X138.686 Y170.455 E0.27183
G1 X138.686 Y170.902 F48000
G1 F3000
G1 X144.551 Y170.902 E0.25261
G1 X144.105 Y171.348 F48000
G1 F3000
G1 X138.686 Y171.348 E0.23338
G1 X138.686 Y171.794 F48000
G1 F3000
G1 X143.659 Y171.794 E0.21416
G1 X143.212 Y172.241 F48000
G1 F3000
G1 X138.686 Y172.241 E0.19494
G1 X138.686 Y172.687 F48000
G1 F3000
G1 X142.766 Y172.687 E0.17571
G1 X142.32 Y173.134 F48000
G1 F3000
G1 X138.686 Y173.134 E0.15649
G1 X138.686 Y173.58 F48000
G1 F3000
G1 X141.873 Y173.58 E0.13727
G1 X141.427 Y174.026 F48000
G1 F3000
G1 X139.092 Y174.026 E0.10055
G1 X139.539 Y174.473 F48000
G1 F3000
G1 X140.981 Y174.473 E0.06211
G1 X140.534 Y174.919 F48000
G1 F3000
G1 X139.985 Y174.919 E0.02366
G1 E-1.6 F1800
M204 S10000
G1 Z0.65 F48000
; acceleration to travel
G1 X151.755 Y141.858
; decel to extrusion
M204 S2000
G1 X154.109 Y135.245
; end travel
G1 Z0.25
G1 E1.6 F1800
;WIDTH:0.504529
G1 F3000
G1 X149.983 Y135.245 E0.17771
G1 X149.527 Y135.692 F48000
G1 F3000
G1 X154.574 Y135.692 E0.21739
G1 X155.021 Y136.138 F48000
G1 F3000
G1 X149.08 Y136.138 E0.25584
G1 X148.634 Y136.584 F48000
G1 F3000
G1 X155.467 Y136.584 E0.29429
G1 X155.914 Y137.031 F48000
G1 F3000
G1 X148.188 Y137.031 E0.33273
G1 X147.741 Y137.477 F48000
G1 F3000
G1 X156.36 Y137.477 E0.37118
G1 X156.806 Y137.924 F48000
G1 F3000
G1 X147.295 Y137.924 E0.40963
G1 X146.849 Y138.37 F48000
G1 F3000
G1 X152.335 Y138.37 E0.23627
G1 X151.888 Y138.816 F48000
G1 F3000
G1 X146.402 Y138.816 E0.23627
G1 X145.956 Y139.263 F48000
G1 F3000
G1 X151.442 Y139.263 E0.23627
G1 X150.996 Y139.709 F48000
G1 F3000
G1 X145.51 Y139.709 E0.23627
G1 X145.063 Y140.155 F48000
G1 F3000
G1 X150.549 Y140.155 E0.23627
G1 X150.103 Y140.602 F48000
G1 F3000
G1 X144.617 Y140.602 E0.23627
G1 X144.171 Y141.048 F48000
G1 F3000
G1 X149.657 Y141.048 E0.23627
G1 X149.21 Y141.494 F48000
G1 F3000
G1 X143.724 Y141.494 E0.23627
G1 X143.278 Y141.941 F48000
G1 F3000
G1 X148.764 Y141.941 E0.23627
G1 X148.317 Y142.387 F48000
G1 F3000
G1 X142.832 Y142.387 E0.23627
G1 X142.385 Y142.833 F48000
G1 F3000
G1 X147.871 Y142.833 E0.23627
G1 X147.425 Y143.28 F48000
G1 F3000
G1 X141.939 Y143.28 E0.23627
G1 X141.492 Y143.726 F48000
G1 F3000
G1 X146.978 Y143.726 E0.23627
G1 X146.532 Y144.172 F48000
G1 F3000
G1 X141.046 Y144.172 E0.23627
G1 X140.6 Y144.619 F48000
G1 F3000
G1 X146.086 Y144.619 E0.23627
G1 X145.639 Y145.065 F48000
G1 F3000
G1 X140.153 Y145.065 E0.23627
G1 X139.707 Y145.511 F48000
G1 F3000
G1 X145.193 Y145.511 E0.23627
G1 X144.747 Y145.958 F48000
G1 F3000
G1 X139.261 Y145.958 E0.23627
