; generated by SuperSlicer 2.4 on 2023-09-27 at 16:15:33 UTC


;
;

;
;
; 

; external perimeters extrusion width = 0.40mm
; perimeters extrusion width = 0.46mm
; infill extrusion width = 0.64mm
; solid infill extrusion width = 0.56mm
; top infill extrusion width = 0.40mm
; first layer extrusion width = 0.50mm

; external perimeters extrusion width = 0.40mm
; perimeters extrusion width = 0.46mm
; infill extrusion width = 0.64mm
; solid infill extrusion width = 0.56mm
; top infill extrusion width = 0.40mm
; first layer extrusion width = 0.50mm

; external perimeters extrusion width = 0.40mm
; perimeters extrusion width = 0.46mm
; infill extrusion width = 0.64mm
; solid infill extrusion width = 0.56mm
; top infill extrusion width = 0.40mm
; first layer extrusion width = 0.50mm

; object:{"name":"gear1","id":"gear1.stl id:0 copy 0","object_center":[160.682708,162.993299,0.000000],"boundingbox_center":[160.682708,162.993299,2.500000],"boundingbox_size":[20.052454,20.026539,5.000000]}
; object:{"name":"gear2","id":"gear2.stl id:1 copy 0","object_center":[160.669710,137.019683,0.000000],"boundingbox_center":[160.669710,137.019683,2.500000],"boundingbox_size":[20.026416,20.052509,5.000000]}
; object:{"name":"gear3","id":"gear3.stl id:2 copy 0","object_center":[138.798120,149.993678,0.000000],"boundingbox_center":[138.798120,149.993678,2.500000],"boundingbox_size":[19.016180,19.016182,5.000000]}
; plater:{"center":[149.999482,149.999998,0.000000],"boundingbox_center":[149.999482,149.999998,2.500000],"boundingbox_size":[41.418905,46.013140,5.000000]}

M73 P0 R13


; Pre-Processed for Cancel-Object support by preprocess_cancellation v0.2.0
; 3 known objects
EXCLUDE_OBJECT_DEFINE NAME=gear1_stl_id_0_copy_0 CENTER=160.658,162.934 POLYGON=[[150.869,153.195],[150.869,172.801],[170.502,172.801],[170.502,153.195]]
EXCLUDE_OBJECT_DEFINE NAME=gear3_stl_id_2_copy_0 CENTER=138.801,149.983 POLYGON=[[129.499,140.694],[129.499,159.288],[148.098,159.288],[148.098,140.694]]
EXCLUDE_OBJECT_DEFINE NAME=gear2_stl_id_1_copy_0 CENTER=160.724,136.977 POLYGON=[[150.86,127.2],[150.86,146.799],[170.468,146.799],[170.468,127.2]]
;TYPE:Custom
; custom gcode: start_gcode
M190 S0
M104 S0
PRINT_START EXTRUDER_TEMP=215 BED_TEMP=60 FILAMENT=PLA SIZE=124.583_122.277_175.434_177.731 ENCLOSURE_TEMP=0
; custom gcode end: start_gcode
M107
G21 ; set units to millimeters
G90 ; use absolute coordinates
M83 ; use relative distances for extrusion
;_TOOLCHANGE 0
;LAYER_CHANGE
;Z:0.25
;HEIGHT:0.25
G1 Z0.25 F48000
; custom gcode: layer_gcode
;DISPLAY_PROGRESS TOTAL_LAYERS=25 CURRENT_LAYER=0
; custom gcode end: layer_gcode

G92 E0
M73 P2 R12
G1 E-1.6 F1800
G1 Z0.65 F48000
M204 S2000
G1 X128.96 Y140.318
G1 Z0.25
G1 E1.6 F1800
; custom gcode: feature_gcode
; External perimeter
;Skirt
SET_VELOCITY_LIMIT ACCEL=7000 ACCEL_TO_DECEL=7000 SQUARE_CORNER_VELOCITY=8

; Support material
; custom gcode end: feature_gcode

;TYPE:Skirt
;WIDTH:0.46
G1 F3600
G1 X128.337 Y140.923 E0.03374
G1 X127.628 Y141.893 E0.0467
G1 X126.007 Y144.819 E0.12997
G1 X125.561 Y145.936 E0.04671
G1 X125.378 Y146.784 E0.03374
G1 X125 Y150.109 E0.12999
G1 X124.988 Y150.977 E0.03374
G1 X125.172 Y152.165 E0.0467
G1 X126.095 Y155.38 E0.12997
G1 X126.568 Y156.484 E0.0467
G1 X127.04 Y157.214 E0.03374
G1 X129.123 Y159.831 E0.12999
G1 X129.986 Y160.673 E0.04682
G1 X130.509 Y161.053 E0.02512
G1 X152.014 Y174.403 E0.98353
G1 X154.977 Y176.111 E0.13288
G1 X155.718 Y176.451 E0.03171
G1 X156.881 Y176.779 E0.04692
G1 X160.112 Y177.276 E0.12705
G1 X160.927 Y177.325 E0.03171
G1 X162.129 Y177.211 E0.04692
G1 X165.325 Y176.506 E0.12715
G1 X166.102 Y176.258 E0.03171
G1 X167.182 Y175.717 E0.04692
G1 X169.905 Y173.907 E0.12705
G1 X170.821 Y173.121 E0.04692
G1 X171.352 Y172.5 E0.03171
G1 X173.238 Y169.827 E0.12715
G1 X173.809 Y168.763 E0.04692
G1 X174.079 Y167.993 E0.03171
G1 X174.872 Y164.82 E0.12705
G1 X175.028 Y163.351 E0.05741
G1 X174.998 Y135.718 E1.07373
G1 X174.887 Y134.662 E0.04125
G1 X174.689 Y133.87 E0.03171
G1 X173.605 Y130.783 E0.12715
G1 X173.265 Y130.041 E0.03171
G1 X172.599 Y129.034 E0.04692
G1 X170.474 Y126.548 E0.12705
G1 X169.889 Y125.979 E0.03171
G1 X168.904 Y125.281 E0.04692
G1 X166.023 Y123.729 E0.12715
G1 X165.272 Y123.41 E0.03171
G1 X164.101 Y123.115 E0.04691
G1 X160.858 Y122.709 E0.12701
G1 X160.042 Y122.682 E0.03172
G1 X158.843 Y122.83 E0.04696
G1 X155.668 Y123.624 E0.12715
G1 X154.541 Y124.058 E0.04692
G1 X131.578 Y138.235 E1.04861
G1 X129.007 Y140.281 E0.12766
G1 X129.26 Y140.599 F48000
G1 F3600
G1 X129.213 Y140.636 E0.00233
G1 X128.648 Y141.186 E0.03064
G1 X127.983 Y142.09 E0.04361
G1 X126.362 Y145.016 E0.12997
G1 X125.948 Y146.059 E0.04362
G1 X125.782 Y146.83 E0.03064
G1 X125.404 Y150.154 E0.12999
G1 X125.392 Y150.943 E0.03064
G1 X125.562 Y152.052 E0.04361
G1 X126.485 Y155.268 E0.12997
G1 X126.929 Y156.298 E0.04361
G1 X127.358 Y156.961 E0.03064
G1 X129.441 Y159.578 E0.12999
G1 X130.248 Y160.362 E0.04372
G1 X152.228 Y174.058 E1.00629
M73 P3 R12
G1 X155.179 Y175.759 E0.13236
G1 X155.853 Y176.067 E0.0288
G1 X156.942 Y176.377 E0.04401
G1 X160.174 Y176.874 E0.12705
G1 X160.914 Y176.919 E0.0288
G1 X162.042 Y176.814 E0.04401
G1 X165.237 Y176.109 E0.12715
G1 X165.943 Y175.884 E0.0288
G1 X166.957 Y175.379 E0.04401
G1 X169.68 Y173.569 E0.12705
G1 X170.538 Y172.829 E0.04401
G1 X171.02 Y172.266 E0.0288
G1 X172.906 Y169.593 E0.12715
G1 X173.44 Y168.593 E0.04401
G1 X173.685 Y167.894 E0.0288
G1 X174.478 Y164.722 E0.12705
G1 X174.622 Y163.351 E0.05354
G1 X174.591 Y135.718 E1.07373
G1 X174.485 Y134.724 E0.03886
G1 X174.305 Y134.005 E0.0288
G1 X173.222 Y130.917 E0.12715
G1 X172.913 Y130.243 E0.0288
G1 X172.29 Y129.298 E0.04401
G1 X170.166 Y126.812 E0.12705
G1 X169.634 Y126.295 E0.02879
G1 X168.711 Y125.639 E0.04401
G1 X165.831 Y124.087 E0.12715
G1 X165.148 Y123.797 E0.0288
G1 X164.051 Y123.518 E0.044
G1 X160.808 Y123.112 E0.12701
G1 X160.067 Y123.088 E0.0288
G1 X158.941 Y123.224 E0.04405
G1 X155.767 Y124.018 E0.12715
G1 X154.71 Y124.427 E0.04401
G1 X131.831 Y138.553 E1.04479
G1 X129.307 Y140.562 E0.12533
G1 X129.56 Y140.88 F48000
G1 F3600
G1 X129.467 Y140.954 E0.00466
G1 X128.958 Y141.448 E0.02754
G1 X128.339 Y142.287 E0.04052
G1 X126.718 Y145.213 E0.12997
G1 X126.335 Y146.183 E0.04053
G1 X126.186 Y146.876 E0.02754
G1 X125.808 Y150.2 E0.12999
G1 X125.797 Y150.909 E0.02754
G1 X125.953 Y151.94 E0.04053
G1 X126.876 Y155.155 E0.12997
G1 X127.291 Y156.112 E0.04053
G1 X127.676 Y156.708 E0.02754
G1 X129.759 Y159.325 E0.12999
G1 X130.51 Y160.052 E0.04062
G1 X152.442 Y173.712 E1.00398
G1 X155.382 Y175.406 E0.13183
G1 X155.987 Y175.684 E0.02588
G1 X157.004 Y175.975 E0.0411
G1 X160.236 Y176.472 E0.12705
G1 X160.901 Y176.512 E0.02588
G1 X161.954 Y176.417 E0.0411
G1 X165.15 Y175.712 E0.12715
G1 X165.784 Y175.51 E0.02588
G1 X166.732 Y175.04 E0.0411
G1 X169.455 Y173.23 E0.12705
G1 X170.255 Y172.538 E0.0411
G1 X170.688 Y172.032 E0.02588
G1 X172.574 Y169.358 E0.12715
G1 X173.07 Y168.424 E0.0411
G1 X173.291 Y167.795 E0.02588
G1 X174.084 Y164.623 E0.12705
G1 X174.215 Y163.352 E0.04966
G1 X174.185 Y135.719 E1.07373
G1 X174.083 Y134.786 E0.03647
G1 X173.922 Y134.139 E0.02588
G1 X172.838 Y131.052 E0.12715
G1 X172.561 Y130.446 E0.02588
G1 X171.981 Y129.562 E0.0411
G1 X169.857 Y127.076 E0.12705
G1 X169.379 Y126.612 E0.02588
G1 X168.519 Y125.996 E0.0411
G1 X165.638 Y124.444 E0.12715
G1 X165.025 Y124.184 E0.02588
G1 X164 Y123.921 E0.04109
G1 X160.757 Y123.515 E0.12701
G1 X160.091 Y123.494 E0.02589
G1 X159.04 Y123.619 E0.04114
G1 X155.865 Y124.413 E0.12715
G1 X155.237 Y124.633 E0.02588
G1 X154.488 Y125.007 E0.03253
G1 X132.084 Y138.871 E1.02373
G1 X129.607 Y140.842 E0.123
G1 X129.86 Y141.16 F48000
G1 F3600
G1 X129.72 Y141.272 E0.00699
G1 X129.268 Y141.71 E0.02444
G1 X128.694 Y142.484 E0.03744
G1 X127.073 Y145.41 E0.12997
G1 X126.722 Y146.307 E0.03744
G1 X126.59 Y146.922 E0.02444
G1 X126.212 Y150.246 E0.12999
G1 X126.202 Y150.875 E0.02444
G1 X126.344 Y151.828 E0.03744
G1 X127.266 Y155.043 E0.12997
G1 X127.652 Y155.926 E0.03744
G1 X127.993 Y156.455 E0.02444
G1 X130.077 Y159.072 E0.12999
G1 X130.773 Y159.742 E0.03752
G1 X152.657 Y173.367 E1.00168
G1 X155.585 Y175.054 E0.1313
G1 X156.122 Y175.3 E0.02297
G1 X157.066 Y175.574 E0.03819
G1 X160.298 Y176.071 E0.12705
G1 X160.888 Y176.106 E0.02297
G1 X161.867 Y176.02 E0.03819
G1 X165.062 Y175.316 E0.12715
G1 X165.625 Y175.136 E0.02297
G1 X166.507 Y174.702 E0.03819
G1 X169.23 Y172.892 E0.12705
G1 X169.972 Y172.247 E0.03819
G1 X170.356 Y171.797 E0.02297
G1 X172.242 Y169.124 E0.12715
G1 X172.701 Y168.255 E0.03818
G1 X172.897 Y167.697 E0.02297
G1 X173.69 Y164.525 E0.12705
G1 X173.809 Y163.352 E0.04579
G1 X173.779 Y135.719 E1.07373
G1 X173.682 Y134.847 E0.03408
G1 X173.538 Y134.274 E0.02297
G1 X172.455 Y131.186 E0.12715
G1 X172.209 Y130.649 E0.02297
G1 X171.672 Y129.826 E0.03819
G1 X169.548 Y127.34 E0.12705
G1 X169.124 Y126.928 E0.02297
G1 X168.326 Y126.354 E0.03819
G1 X165.445 Y124.802 E0.12715
G1 X164.901 Y124.571 E0.02297
G1 X163.95 Y124.324 E0.03818
G1 X160.707 Y123.918 E0.12701
G1 X160.116 Y123.899 E0.02298
G1 X159.138 Y124.013 E0.03823
G1 X155.964 Y124.807 E0.12715
G1 X154.701 Y125.352 E0.05345
G1 X132.337 Y139.189 E1.02185
G1 X129.907 Y141.123 E0.12067
M104 S215 ; set temperature
G1 E-1.6 F1800
M204 S10000
G1 Z0.65 F48000
; printing object gear1.stl id:0 copy 0
EXCLUDE_OBJECT_START NAME=gear1_stl_id_0_copy_0
; acceleration to travel
G1 X155.638 Y156.239
; decel to extrusion
M204 S2000
G1 X160.784 Y159.262
; end travel
G1 Z0.25
G1 E1.6 F1800
; custom gcode: feature_gcode
; External perimeter
;Perimeter
SET_VELOCITY_LIMIT ACCEL=2000 ACCEL_TO_DECEL=2000 SQUARE_CORNER_VELOCITY=8

; Overhang perimeter
; custom gcode end: feature_gcode

;TYPE:Internal perimeter
;WIDTH:0.5
G1 F3600
G1 X160.367 Y159.276 E0.01783
G1 X159.819 Y159.356 E0.02364
G1 X159.334 Y159.507 E0.02168
G1 X158.886 Y159.714 E0.02105
G1 X158.47 Y159.98 E0.02105
G1 X158.094 Y160.298 E0.02106
G1 X157.763 Y160.664 E0.02106
G1 X157.484 Y161.071 E0.02105
G1 X157.261 Y161.511 E0.02105
G1 X157.099 Y161.977 E0.02106
G1 X157.001 Y162.46 E0.02105
G1 X156.968 Y162.953 E0.02106
G1 X157.001 Y163.445 E0.02106
G1 X157.099 Y163.928 E0.02105
G1 X157.261 Y164.394 E0.02106
G1 X157.484 Y164.835 E0.02105
G1 X157.763 Y165.241 E0.02105
G1 X158.094 Y165.607 E0.02106
G1 X158.47 Y165.926 E0.02106
G1 X158.886 Y166.191 E0.02105
G1 X159.334 Y166.399 E0.02106
G1 X159.805 Y166.545 E0.02105
G1 X160.291 Y166.627 E0.02106
G1 X160.784 Y166.643 E0.02106
G1 X161.275 Y166.594 E0.02105
G1 X161.755 Y166.48 E0.02106
G1 X162.215 Y166.302 E0.02106
G1 X162.648 Y166.065 E0.02105
G1 X163.045 Y165.773 E0.02106
G1 X163.4 Y165.43 E0.02106
G1 X163.705 Y165.043 E0.02105
G1 X163.957 Y164.618 E0.02105
G1 X164.149 Y164.164 E0.02106
G1 X164.28 Y163.688 E0.02105
G1 X164.346 Y163.199 E0.02106
G1 X164.346 Y162.706 E0.02105
G1 X164.28 Y162.217 E0.02106
G1 X164.149 Y161.741 E0.02105
G1 X163.957 Y161.287 E0.02106
G1 X163.705 Y160.863 E0.02105
G1 X163.4 Y160.476 E0.02106
G1 X163.045 Y160.133 E0.02106
G1 X162.648 Y159.84 E0.02105
G1 X162.215 Y159.603 E0.02106
G1 X161.755 Y159.426 E0.02105
G1 X161.275 Y159.311 E0.02106
G1 X160.844 Y159.268 E0.01849
G1 X160.769 Y159.709 F48000
G1 F3600
G1 X160.407 Y159.721 E0.01549
G1 X159.918 Y159.793 E0.02109
G1 X159.494 Y159.924 E0.01892
G1 X159.101 Y160.107 E0.0185
G1 X158.736 Y160.34 E0.0185
G1 X158.405 Y160.62 E0.01851
G1 X158.114 Y160.941 E0.0185
G1 X157.869 Y161.299 E0.0185
G1 X157.673 Y161.686 E0.0185
G1 X157.531 Y162.095 E0.01851
G1 X157.444 Y162.52 E0.0185
G1 X157.415 Y162.953 E0.0185
G1 X157.444 Y163.385 E0.01851
G1 X157.531 Y163.81 E0.0185
G1 X157.673 Y164.22 E0.01851
G1 X157.869 Y164.607 E0.0185
G1 X158.114 Y164.964 E0.0185
G1 X158.405 Y165.286 E0.0185
G1 X158.736 Y165.565 E0.0185
G1 X159.101 Y165.799 E0.0185
G1 X159.494 Y165.981 E0.0185
G1 X159.909 Y166.11 E0.0185
G1 X160.336 Y166.182 E0.01851
G1 X160.769 Y166.196 E0.0185
G1 X161.201 Y166.153 E0.0185
G1 X161.623 Y166.052 E0.01851
G1 X162.027 Y165.897 E0.0185
G1 X162.407 Y165.688 E0.0185
G1 X162.756 Y165.431 E0.0185
G1 X163.068 Y165.13 E0.0185
G1 X163.337 Y164.789 E0.0185
G1 X163.558 Y164.416 E0.0185
G1 X163.727 Y164.017 E0.0185
G1 X163.841 Y163.599 E0.0185
G1 X163.899 Y163.169 E0.0185
G1 X163.899 Y162.736 E0.0185
G1 X163.841 Y162.306 E0.0185
G1 X163.727 Y161.888 E0.0185
G1 X163.558 Y161.489 E0.0185
G1 X163.337 Y161.116 E0.0185
G1 X163.068 Y160.776 E0.0185
G1 X162.756 Y160.474 E0.0185
G1 X162.407 Y160.217 E0.0185
G1 X162.027 Y160.009 E0.01851
G1 X161.623 Y159.853 E0.0185
G1 X161.201 Y159.752 E0.0185
G1 X160.829 Y159.715 E0.01594
G1 X160.754 Y160.156 F48000
G1 F3600
G1 X160.447 Y160.166 E0.01314
G1 X160.017 Y160.229 E0.01854
G1 X159.655 Y160.341 E0.01616
G1 X159.316 Y160.499 E0.01595
G1 X159.001 Y160.7 E0.01595
G1 X158.716 Y160.941 E0.01595
G1 X158.465 Y161.219 E0.01595
G1 X158.253 Y161.527 E0.01595
G1 X158.085 Y161.86 E0.01595
G1 X157.962 Y162.213 E0.01595
G1 X157.888 Y162.58 E0.01595
G1 X157.863 Y162.953 E0.01595
G1 X157.888 Y163.326 E0.01595
G1 X157.962 Y163.692 E0.01595
G1 X158.085 Y164.045 E0.01595
G1 X158.253 Y164.379 E0.01595
G1 X158.465 Y164.687 E0.01595
G1 X158.716 Y164.964 E0.01595
G1 X159.001 Y165.205 E0.01595
G1 X159.316 Y165.406 E0.01595
G1 X159.655 Y165.564 E0.01595
G1 X160.012 Y165.675 E0.01595
G1 X160.381 Y165.737 E0.01595
G1 X160.754 Y165.749 E0.01595
G1 X161.126 Y165.712 E0.01595
G1 X161.49 Y165.625 E0.01595
G1 X161.839 Y165.491 E0.01595
G1 X162.167 Y165.311 E0.01595
G1 X162.467 Y165.089 E0.01595
G1 X162.736 Y164.83 E0.01595
G1 X162.968 Y164.536 E0.01595
G1 X163.158 Y164.215 E0.01595
G1 X163.304 Y163.871 E0.01595
G1 X163.403 Y163.51 E0.01595
G1 X163.453 Y163.14 E0.01595
G1 X163.453 Y162.766 E0.01595
G1 X163.403 Y162.395 E0.01595
G1 X163.304 Y162.035 E0.01595
G1 X163.158 Y161.691 E0.01595
G1 X162.968 Y161.369 E0.01595
G1 X162.736 Y161.076 E0.01595
G1 X162.467 Y160.816 E0.01595
G1 X162.167 Y160.594 E0.01595
G1 X161.839 Y160.414 E0.01595
G1 X161.49 Y160.28 E0.01595
G1 X161.126 Y160.193 E0.01595
G1 X160.814 Y160.162 E0.01339
G1 E-1.6 F1800
M204 S10000
G1 Z0.65 F48000
M204 S2000
G1 X160.74 Y165.302
M73 P4 R12
G1 Z0.25
G1 E1.6 F1800
; custom gcode: feature_gcode
; External perimeter
;ExternalPerimeter
SET_VELOCITY_LIMIT ACCEL=1000 ACCEL_TO_DECEL=1000 SQUARE_CORNER_VELOCITY=8

; Perimeter
; custom gcode end: feature_gcode

;TYPE:External perimeter
G1 F3600
G1 X161.052 Y165.271 E0.0134
G1 X161.357 Y165.198 E0.0134
G1 X161.65 Y165.085 E0.0134
G1 X161.926 Y164.934 E0.0134
G1 X162.179 Y164.748 E0.0134
G1 X162.404 Y164.53 E0.0134
G1 X162.599 Y164.283 E0.0134
G1 X162.759 Y164.013 E0.0134
G1 X162.882 Y163.724 E0.0134
G1 X162.965 Y163.421 E0.0134
G1 X163.006 Y163.11 E0.0134
G1 X163.006 Y162.796 E0.0134
G1 X162.965 Y162.484 E0.0134
G1 X162.882 Y162.182 E0.0134
G1 X162.759 Y161.892 E0.0134
G1 X162.599 Y161.622 E0.0134
G1 X162.404 Y161.376 E0.0134
G1 X162.179 Y161.157 E0.0134
G1 X161.926 Y160.971 E0.0134
G1 X161.65 Y160.82 E0.0134
G1 X161.357 Y160.707 E0.0134
G1 X161.052 Y160.635 E0.0134
G1 X160.739 Y160.603 E0.0134
G1 X160.487 Y160.612 E0.0108
G1 X160.116 Y160.666 E0.01599
G1 X159.816 Y160.759 E0.0134
G1 X159.531 Y160.891 E0.0134
G1 X159.267 Y161.06 E0.0134
G1 X159.027 Y161.263 E0.0134
G1 X158.816 Y161.496 E0.0134
G1 X158.638 Y161.755 E0.0134
G1 X158.497 Y162.035 E0.0134
G1 X158.394 Y162.332 E0.0134
G1 X158.331 Y162.639 E0.0134
G1 X158.31 Y162.953 E0.0134
G1 X158.331 Y163.266 E0.0134
G1 X158.394 Y163.574 E0.0134
G1 X158.497 Y163.87 E0.0134
G1 X158.638 Y164.151 E0.0134
G1 X158.816 Y164.41 E0.0134
G1 X159.027 Y164.642 E0.0134
G1 X159.267 Y164.845 E0.0134
G1 X159.531 Y165.014 E0.0134
G1 X159.816 Y165.146 E0.0134
G1 X160.116 Y165.239 E0.0134
G1 X160.426 Y165.292 E0.0134
G1 X160.68 Y165.3 E0.01084
;WIPE_START
M204 S10000
G1 X160.958 Y165.637 F48000
;WIPE_END
G1 E-1.6 F1800
G1 Z0.65 F48000
M204 S2000
G1 X163.742 Y157.599
G1 Z0.25
G1 E1.6 F1800
; custom gcode: feature_gcode
; External perimeter
;Perimeter
SET_VELOCITY_LIMIT ACCEL=2000 ACCEL_TO_DECEL=2000 SQUARE_CORNER_VELOCITY=8

; Overhang perimeter
; custom gcode end: feature_gcode

;TYPE:Internal perimeter
G1 F3600
