; generated by SuperSlicer 2.4 on 2023-08-15 at 11:58:01 UTC


;
;

;
;
; 

; external perimeters extrusion width = 0.40mm
; perimeters extrusion width = 0.46mm
; infill extrusion width = 0.64mm
; solid infill extrusion width = 0.56mm
; top infill extrusion width = 0.40mm
; first layer extrusion width = 0.50mm

; object:{"name":"rear_drive_plate","id":"rear_drive_plate.stl id:0 copy 0","object_center":[149.999871,149.999912,0.000000],"boundingbox_center":[149.999871,149.999912,2.000008],"boundingbox_size":[49.005599,49.005556,4.000015]}
; plater:{"center":[149.999871,149.999912,0.000000],"boundingbox_center":[149.999871,149.999912,2.000008],"boundingbox_size":[49.005599,49.005556,4.000015]}

M73 P0 R9


; Pre-Processed for Cancel-Object support by preprocess_cancellation v0.2.0
; 1 known objects
EXCLUDE_OBJECT_DEFINE NAME=rear_drive_plate_stl_id_0_copy_0 CENTER=150.156,150.014 POLYGON=[[125.697,125.698],[125.697,174.298],[174.302,174.298],[174.302,125.698]]
;TYPE:Custom
; custom gcode: start_gcode
M190 S0
M104 S0
PRINT_START EXTRUDER_TEMP=240 BED_TEMP=110 FILAMENT=ABS SIZE=120.717_120.717_179.286_179.286 ENCLOSURE_TEMP=45
; custom gcode end: start_gcode
M107
G21 ; set units to millimeters
G90 ; use absolute coordinates
M83 ; use relative distances for extrusion
;_TOOLCHANGE 0
;LAYER_CHANGE
;Z:0.25
;HEIGHT:0.25
G1 Z0.25 F27000
; custom gcode: layer_gcode
;DISPLAY_PROGRESS TOTAL_LAYERS=20 CURRENT_LAYER=0
; custom gcode end: layer_gcode

G92 E0
M73 P3 R9
G1 E-1.6 F1800
G1 Z0.65 F27000
M204 S2000
G1 X129.739 Y130.581
M73 P3 R8
G1 Z0.25
G1 E1.6 F1800
; custom gcode: feature_gcode
; External perimeter
;Skirt
SET_VELOCITY_LIMIT ACCEL=7000 ACCEL_TO_DECEL=7000 SQUARE_CORNER_VELOCITY=8

; Support material
; custom gcode end: feature_gcode

;TYPE:Skirt
;WIDTH:0.46
G1 X127.608 Y132.698 E0.11547
G1 X126.263 Y134.255 E0.07904
G1 X125.134 Y136.02 E0.08055
G1 X124.525 Y137.285 E0.05394
G1 X122.249 Y142.634 E0.22344
G1 X121.67 Y144.152 E0.06246
G1 X121.298 Y145.549 E0.05556
G1 X121.135 Y146.943 E0.05392
G1 X121.143 Y147.949 E0.03868
G1 X121.419 Y149.372 E0.05571
G1 X121.601 Y149.926 E0.02241
G1 X122.097 Y150.961 E0.04413
G1 X122.942 Y152.161 E0.0564
G1 X123.616 Y152.919 E0.03896
G1 X147.978 Y176.595 E1.30568
M73 P4 R8
G1 X149.492 Y177.761 E0.07342
G1 X150.15 Y178.134 E0.02909
G1 X150.997 Y178.484 E0.03521
G1 X152.184 Y178.786 E0.04708
G1 X153.323 Y178.88 E0.04392
G1 X154.245 Y178.823 E0.0355
G1 X155.409 Y178.647 E0.04525
G1 X156.806 Y178.227 E0.05607
G1 X158.13 Y177.627 E0.05587
G1 X159.102 Y176.974 E0.04499
G1 X176.57 Y159.558 E0.94805
G1 X176.962 Y159.116 E0.02269
G1 X177.614 Y158.151 E0.0448
G1 X178.388 Y156.355 E0.07514
G1 X178.671 Y155.275 E0.04292
G1 X178.822 Y154.255 E0.03964
G1 X178.88 Y153.339 E0.03529
G1 X178.788 Y152.196 E0.04407
G1 X178.488 Y151.007 E0.04714
G1 X178.144 Y150.171 E0.03475
G1 X177.434 Y149.017 E0.05207
G1 X176.597 Y147.98 E0.05121
G1 X152.878 Y123.574 E1.30804
G1 X151.314 Y122.326 E0.07688
G1 X150.206 Y121.714 E0.04867
G1 X148.775 Y121.268 E0.0576
G1 X147.686 Y121.127 E0.0422
G1 X146.722 Y121.15 E0.03705
G1 X145.643 Y121.284 E0.0418
G1 X144.048 Y121.712 E0.06347
G1 X137.289 Y124.524 E0.28135
G1 X136.02 Y125.134 E0.05412
G1 X134.956 Y125.771 E0.04765
G1 X133.295 Y127.048 E0.08055
G1 X129.781 Y130.539 E0.19035
G1 X130.067 Y130.826 F27000
G1 F1800
G1 X127.895 Y132.986 E0.11774
G1 X126.596 Y134.488 E0.07632
G1 X125.486 Y136.224 E0.07919
G1 X124.899 Y137.444 E0.05202
G1 X122.623 Y142.793 E0.22344
G1 X122.05 Y144.296 E0.06183
G1 X121.699 Y145.616 E0.05248
G1 X121.541 Y146.96 E0.052
G1 X121.548 Y147.926 E0.03714
G1 X121.805 Y149.246 E0.05166
G1 X121.987 Y149.8 E0.02241
G1 X122.438 Y150.74 E0.04007
G1 X123.265 Y151.916 E0.05528
G1 X123.913 Y152.642 E0.0374
G1 X148.261 Y176.304 E1.30489
G1 X149.722 Y177.425 E0.07078
G1 X150.32 Y177.764 E0.02642
G1 X151.138 Y178.104 E0.03405
G1 X152.269 Y178.389 E0.04483
G1 X153.304 Y178.474 E0.03989
G1 X154.194 Y178.42 E0.0343
G1 X155.33 Y178.248 E0.04416
G1 X156.65 Y177.852 E0.05297
G1 X157.95 Y177.262 E0.05485
G1 X158.832 Y176.67 E0.04086
G1 X176.266 Y159.288 E0.94617
M73 P5 R8
G1 X176.658 Y158.847 E0.02269
G1 X177.251 Y157.97 E0.04068
G1 X178.006 Y156.216 E0.07337
G1 X178.275 Y155.184 E0.04102
G1 X178.419 Y154.204 E0.03805
G1 X178.475 Y153.319 E0.03411
G1 X178.391 Y152.281 E0.04002
G1 X178.107 Y151.148 E0.04489
G1 X177.774 Y150.338 E0.03363
G1 X177.099 Y149.246 E0.04933
G1 X176.306 Y148.263 E0.04856
G1 X152.587 Y123.857 E1.30804
G1 X151.551 Y122.986 E0.05199
G1 X150.81 Y122.486 E0.03439
G1 X150.052 Y122.09 E0.03282
G1 X148.676 Y121.663 E0.05538
G1 X147.661 Y121.533 E0.03935
G1 X146.759 Y121.555 E0.03466
G1 X145.7 Y121.686 E0.04102
G1 X144.176 Y122.097 E0.06066
G1 X137.448 Y124.898 E0.28012
G1 X136.224 Y125.486 E0.05218
G1 X135.19 Y126.103 E0.0463
G1 X133.556 Y127.359 E0.0792
G1 X130.11 Y130.784 E0.18674
G1 X130.393 Y131.068 F27000
G1 F1800
G1 X128.182 Y133.274 E0.12005
G1 X127.119 Y134.474 E0.06161
G1 X126.436 Y135.423 E0.04495
G1 X125.837 Y136.428 E0.04495
G1 X125.273 Y137.603 E0.0501
G1 X122.997 Y142.952 E0.22344
G1 X122.43 Y144.44 E0.0612
G1 X122.053 Y145.963 E0.0603
G1 X121.947 Y146.977 E0.03916
G1 X121.954 Y147.903 E0.03559
G1 X122.191 Y149.119 E0.04762
G1 X122.373 Y149.673 E0.02241
G1 X122.778 Y150.518 E0.03602
G1 X123.589 Y151.67 E0.05416
G1 X124.211 Y152.365 E0.03584
G1 X148.544 Y176.012 E1.3041
G1 X149.952 Y177.09 E0.06814
G1 X151.28 Y177.723 E0.05653
G1 X152.355 Y177.992 E0.04259
G1 X153.284 Y178.068 E0.03585
G1 X154.144 Y178.017 E0.0331
G1 X155.252 Y177.849 E0.04307
G1 X156.495 Y177.477 E0.04986
G1 X157.77 Y176.898 E0.05383
G1 X158.563 Y176.365 E0.03673
G1 X175.962 Y159.018 E0.94429
G1 X176.354 Y158.577 E0.02269
G1 X176.887 Y157.788 E0.03656
G1 X177.624 Y156.078 E0.0716
G1 X177.879 Y155.092 E0.03912
G1 X178.016 Y154.154 E0.03646
G1 X178.069 Y153.298 E0.03293
G1 X177.994 Y152.365 E0.03597
G1 X177.726 Y151.289 E0.04264
G1 X177.404 Y150.506 E0.03251
G1 X176.764 Y149.476 E0.0466
M73 P6 R8
G1 X176.014 Y148.547 E0.04591
G1 X152.295 Y124.14 E1.30804
G1 X151.319 Y123.32 E0.04901
G1 X150.605 Y122.837 E0.03313
G1 X149.899 Y122.467 E0.03062
G1 X148.578 Y122.057 E0.05317
G1 X147.636 Y121.938 E0.03649
G1 X146.797 Y121.959 E0.03227
G1 X145.758 Y122.089 E0.04024
G1 X144.162 Y122.534 E0.06367
G1 X137.607 Y125.272 E0.27305
G1 X135.687 Y126.267 E0.08312
G1 X134.722 Y126.928 E0.04495
G1 X133.59 Y127.878 E0.05678
G1 X130.435 Y131.025 E0.17127
G1 X130.722 Y131.313 F27000
G1 F1800
G1 X128.469 Y133.561 E0.12235
G1 X127.43 Y134.735 E0.06024
G1 X126.768 Y135.657 E0.0436
G1 X126.189 Y136.632 E0.0436
G1 X125.647 Y137.762 E0.04817
G1 X123.37 Y143.111 E0.22344
G1 X122.81 Y144.584 E0.06057
G1 X122.454 Y146.03 E0.05722
G1 X122.353 Y146.994 E0.03725
G1 X122.36 Y147.88 E0.03405
G1 X122.577 Y148.992 E0.04357
G1 X123.119 Y150.296 E0.05426
G1 X123.913 Y151.425 E0.05305
G1 X124.508 Y152.089 E0.03428
G1 X148.828 Y175.721 E1.30331
G1 X150.182 Y176.755 E0.06549
G1 X151.421 Y177.342 E0.0527
G1 X152.44 Y177.595 E0.04035
G1 X153.265 Y177.662 E0.03181
G1 X154.094 Y177.614 E0.0319
G1 X155.174 Y177.451 E0.04198
G1 X156.339 Y177.101 E0.04676
G1 X157.59 Y176.534 E0.05281
G1 X158.294 Y176.061 E0.03259
G1 X175.658 Y158.748 E0.94241
G1 X176.523 Y157.607 E0.05502
G1 X177.242 Y155.939 E0.06983
G1 X177.483 Y155.001 E0.03722
G1 X177.613 Y154.103 E0.03487
G1 X177.663 Y153.278 E0.03175
G1 X177.596 Y152.45 E0.03192
G1 X177.345 Y151.43 E0.04039
G1 X177.034 Y150.674 E0.0314
G1 X176.429 Y149.706 E0.04387
G1 X175.723 Y148.83 E0.04326
G1 X152.004 Y124.423 E1.30804
M73 P7 R8
G1 X151.086 Y123.653 E0.04603
G1 X149.746 Y122.843 E0.0602
G1 X148.48 Y122.451 E0.05095
G1 X147.611 Y122.344 E0.03363
G1 X145.815 Y122.491 E0.06925
G1 X144.307 Y122.913 E0.06021
G1 X137.765 Y125.646 E0.27247
G1 X135.89 Y126.619 E0.08119
G1 X134.955 Y127.261 E0.0436
G1 X133.877 Y128.166 E0.05409
G1 X130.765 Y131.271 E0.16896
M104 S240 ; set temperature
G1 E-1.6
M204 S4000
G1 Z0.65 F27000
; printing object rear_drive_plate.stl id:0 copy 0
EXCLUDE_OBJECT_START NAME=rear_drive_plate_stl_id_0_copy_0
; acceleration to travel
M204 S10000
G1 X147.491 Y141.213
; decel to extrusion
M204 S2000
G1 X150.836 Y143.202
; end travel
G1 Z0.25
G1 E1.6 F1800
; custom gcode: feature_gcode
; External perimeter
;Perimeter
SET_VELOCITY_LIMIT ACCEL=2000 ACCEL_TO_DECEL=2000 SQUARE_CORNER_VELOCITY=8

; Overhang perimeter
; custom gcode end: feature_gcode

;TYPE:Internal perimeter
;WIDTH:0.5
G1 X150.558 Y143.218 E0.01175
G1 X150.344 Y143.23 E0.00903
G1 X149.477 Y143.357 E0.03698
G1 X148.998 Y143.471 E0.02079
G1 X148.149 Y143.752 E0.03775
G1 X147.323 Y144.138 E0.03851
G1 X146.546 Y144.617 E0.03851
G1 X145.831 Y145.182 E0.03851
G1 X145.189 Y145.824 E0.0383
G1 X144.617 Y146.547 E0.03894
G1 X144.141 Y147.32 E0.0383
G1 X143.755 Y148.146 E0.03851
G1 X143.468 Y149.012 E0.03851
G1 X143.287 Y149.888 E0.03775
G1 X143.23 Y150.377 E0.02079
G1 X143.205 Y151.253 E0.03698
G1 X143.232 Y151.726 E0.02002
G1 X143.287 Y152.197 E0.02003
G1 X143.465 Y153.055 E0.03698
G1 X143.606 Y153.527 E0.02079
G1 X143.929 Y154.341 E0.03698
G1 X144.15 Y154.781 E0.02079
G1 X144.62 Y155.542 E0.03775
G1 X145.185 Y156.258 E0.03851
G1 X145.831 Y156.903 E0.03851
G1 X146.532 Y157.458 E0.03775
G1 X146.943 Y157.728 E0.02079
G1 X147.73 Y158.153 E0.03775
G1 X148.561 Y158.483 E0.03775
G1 X149.033 Y158.624 E0.02079
G1 X149.909 Y158.805 E0.03775
G1 X150.818 Y158.884 E0.03851
G1 X151.711 Y158.858 E0.03775
G1 X152.2 Y158.801 E0.02079
G1 X153.076 Y158.62 E0.03775
G1 X153.942 Y158.333 E0.03851
G1 X154.769 Y157.948 E0.03851
G1 X155.53 Y157.478 E0.03775
G1 X155.925 Y157.184 E0.02079
G1 X156.593 Y156.59 E0.03775
G1 X157.199 Y155.908 E0.03851
G1 X157.723 Y155.161 E0.03851
G1 X158.147 Y154.374 E0.03775
G1 X158.342 Y153.922 E0.02079
G1 X158.623 Y153.073 E0.03775
G1 X158.804 Y152.197 E0.03775
G1 X158.859 Y151.726 E0.02003
G1 X158.887 Y151.253 E0.02002
G1 X158.861 Y150.377 E0.03698
G1 X158.804 Y149.888 E0.02079
G1 X158.623 Y149.012 E0.03775
G1 X158.336 Y148.146 E0.03852
G1 X157.951 Y147.32 E0.03851
G1 X157.481 Y146.559 E0.03775
G1 X157.187 Y146.164 E0.02079
G1 X156.593 Y145.496 E0.03775
G1 X155.911 Y144.889 E0.03851
G1 X155.164 Y144.366 E0.03851
G1 X154.377 Y143.942 E0.03775
G1 X153.925 Y143.746 E0.02079
G1 X153.076 Y143.465 E0.03775
G1 X152.2 Y143.284 E0.03775
G1 X151.711 Y143.227 E0.02079
G1 X150.896 Y143.204 E0.03445
G1 X150.842 Y143.649 F27000
G1 F1800
G1 X150.584 Y143.664 E0.01093
G1 X150.39 Y143.675 E0.00821
G1 X149.561 Y143.796 E0.03534
G1 X149.12 Y143.901 E0.01914
G1 X148.314 Y144.168 E0.03583
G1 X147.535 Y144.531 E0.03632
G1 X146.803 Y144.983 E0.03632
G1 X146.128 Y145.516 E0.03632
G1 X145.523 Y146.121 E0.0361
G1 X144.983 Y146.804 E0.03675
G1 X144.534 Y147.532 E0.0361
G1 X144.171 Y148.311 E0.03632
G1 X143.9 Y149.128 E0.03632
G1 X143.728 Y149.959 E0.03583
G1 X143.676 Y150.41 E0.01915
G1 X143.652 Y151.246 E0.03534
G1 X143.677 Y151.687 E0.01865
G1 X143.729 Y152.126 E0.01865
G1 X143.898 Y152.946 E0.03534
G1 X144.028 Y153.38 E0.01914
G1 X144.337 Y154.158 E0.03534
G1 X144.54 Y154.564 E0.01914
G1 X144.986 Y155.286 E0.03583
G1 X145.519 Y155.961 E0.03632
G1 X146.128 Y156.569 E0.03632
G1 X146.793 Y157.095 E0.03583
G1 X147.172 Y157.345 E0.01914
G1 X147.919 Y157.747 E0.03583
G1 X148.708 Y158.061 E0.03583
G1 X149.142 Y158.191 E0.01914
G1 X149.974 Y158.362 E0.03583
G1 X150.831 Y158.437 E0.03632
G1 X151.679 Y158.413 E0.03583
G1 X152.129 Y158.36 E0.01914
G1 X152.96 Y158.188 E0.03583
G1 X153.777 Y157.918 E0.03632
G1 X154.557 Y157.554 E0.03632
G1 X155.279 Y157.109 E0.03583
G1 X155.643 Y156.838 E0.01914
G1 X156.277 Y156.274 E0.03583
G1 X156.849 Y155.631 E0.03632
G1 X157.342 Y154.926 E0.03632
G1 X157.745 Y154.179 E0.03583
G1 X157.924 Y153.763 E0.01914
G1 X158.191 Y152.957 E0.03583
G1 X158.363 Y152.126 E0.03583
G1 X158.414 Y151.687 E0.01866
G1 X158.44 Y151.246 E0.01865
G1 X158.416 Y150.41 E0.03534
G1 X158.363 Y149.959 E0.01914
G1 X158.191 Y149.128 E0.03583
G1 X157.921 Y148.311 E0.03632
G1 X157.557 Y147.532 E0.03632
G1 X157.112 Y146.81 E0.03583
G1 X156.841 Y146.446 E0.01915
G1 X156.277 Y145.812 E0.03583
G1 X155.634 Y145.24 E0.03632
G1 X154.929 Y144.746 E0.03632
G1 X154.182 Y144.344 E0.03583
G1 X153.766 Y144.164 E0.01914
G1 X152.96 Y143.897 E0.03583
G1 X152.129 Y143.725 E0.03583
G1 X151.679 Y143.673 E0.01914
G1 X150.902 Y143.65 E0.0328
G1 E-1.6
M204 S4000
G1 Z0.65 F27000
; acceleration to travel
M204 S10000
G1 X150.849 Y156.687
; decel to extrusion
M204 S1000
G1 X150.844 Y157.99
; end travel
G1 Z0.25
G1 E1.6 F1800
; custom gcode: feature_gcode
; External perimeter
;ExternalPerimeter
SET_VELOCITY_LIMIT ACCEL=1000 ACCEL_TO_DECEL=1000 SQUARE_CORNER_VELOCITY=8

; Perimeter
; custom gcode end: feature_gcode

;TYPE:External perimeter
G1 X151.646 Y157.967 E0.03391
G1 X152.058 Y157.919 E0.0175
G1 X152.845 Y157.757 E0.03391
G1 X153.612 Y157.502 E0.03412
G1 X154.345 Y157.161 E0.03412
G1 X155.028 Y156.739 E0.03391
G1 X155.361 Y156.492 E0.0175
G1 X155.961 Y155.958 E0.03391
G1 X156.498 Y155.354 E0.03412
G1 X156.962 Y154.692 E0.03412
G1 X157.343 Y153.985 E0.03391
G1 X157.507 Y153.604 E0.0175
G1 X157.76 Y152.842 E0.03391
G1 X157.922 Y152.055 E0.03391
G1 X157.969 Y151.648 E0.01728
G1 X157.993 Y151.24 E0.01728
G1 X157.97 Y150.442 E0.03369
G1 X157.922 Y150.03 E0.0175
G1 X157.76 Y149.244 E0.03391
G1 X157.505 Y148.477 E0.03412
G1 X157.164 Y147.744 E0.03412
G1 X156.742 Y147.06 E0.03391
G1 X156.494 Y146.728 E0.0175
G1 X155.961 Y146.128 E0.03391
G1 X155.357 Y145.591 E0.03412
G1 X154.695 Y145.127 E0.03412
G1 X153.988 Y144.746 E0.03391
G1 X153.607 Y144.582 E0.0175
G1 X152.845 Y144.329 E0.03391
G1 X152.058 Y144.167 E0.03391
G1 X151.646 Y144.118 E0.0175
G1 X150.849 Y144.095 E0.03369
G1 X150.61 Y144.109 E0.01011
G1 X150.435 Y144.119 E0.00739
G1 X149.645 Y144.235 E0.03369
G1 X149.242 Y144.331 E0.0175
G1 X148.48 Y144.583 E0.03391
G1 X147.747 Y144.925 E0.03412
G1 X147.059 Y145.349 E0.03412
G1 X146.425 Y145.85 E0.03412
G1 X145.857 Y146.418 E0.03391
G1 X145.349 Y147.06 E0.03455
G1 X144.928 Y147.744 E0.03391
G1 X144.586 Y148.477 E0.03412
G1 X144.332 Y149.244 E0.03412
G1 X144.17 Y150.03 E0.03391
G1 X144.121 Y150.442 E0.0175
G1 X144.098 Y151.24 E0.03369
G1 X144.122 Y151.648 E0.01728
G1 X144.17 Y152.055 E0.01728
G1 X144.331 Y152.837 E0.03369
G1 X144.45 Y153.234 E0.0175
G1 X144.744 Y153.975 E0.03369
G1 X144.931 Y154.346 E0.0175
G1 X145.352 Y155.029 E0.03391
G1 X145.853 Y155.663 E0.03412
G1 X146.425 Y156.235 E0.03412
G1 X147.055 Y156.733 E0.03391
G1 X147.401 Y156.961 E0.0175
G1 X148.108 Y157.342 E0.03391
G1 X148.855 Y157.639 E0.03391
G1 X149.252 Y157.758 E0.0175
G1 X150.038 Y157.92 E0.03391
G1 X150.784 Y157.985 E0.03159
;WIPE_START
M204 S4000
M73 P8 R8
G1 X151.04 Y158.339 F27000
;WIPE_END
; acceleration to travel
M204 S10000
G1 X162.957 Y155.59
; decel to extrusion
M204 S2000
G1 X165.34 Y155.04
; end travel
; custom gcode: feature_gcode
; External perimeter
;Perimeter
SET_VELOCITY_LIMIT ACCEL=2000 ACCEL_TO_DECEL=2000 SQUARE_CORNER_VELOCITY=8

; Overhang perimeter
; custom gcode end: feature_gcode

;TYPE:Internal perimeter
G1 F1800
G1 X167.47 Y157.17 E0.12717
G1 X166.884 Y157.319 E0.02551
G1 X165.783 Y157.674 E0.04886
G1 X164.7 Y158.131 E0.04963
G1 X163.659 Y158.678 E0.04963
G1 X162.685 Y159.303 E0.04886
G1 X162.182 Y159.673 E0.02635
G1 X161.296 Y160.417 E0.04886
G1 X160.465 Y161.248 E0.04963
G1 X159.708 Y162.147 E0.04963
G1 X159.041 Y163.093 E0.04886
G1 X158.715 Y163.626 E0.02634
G1 X158.175 Y164.649 E0.04886
G1 X157.718 Y165.732 E0.04963
G1 X157.355 Y166.851 E0.04963
G1 X157.204 Y167.504 E0.0283
G1 X155.04 Y165.34 E0.12918
G1 X150.719 Y166.498 E0.18888
G1 X150.116 Y162.112 E0.18692
G1 X149.904 Y161.206 E0.03927
G1 X149.694 Y160.583 E0.02774
G1 X149.45 Y160.012 E0.02623
G1 X148.985 Y159.07 E0.04436
G1 X149.844 Y159.247 E0.03704
G1 X150.805 Y159.331 E0.04071
G1 X151.744 Y159.304 E0.03967
G1 X152.272 Y159.242 E0.02244
G1 X153.192 Y159.052 E0.03967
G1 X154.107 Y158.749 E0.04071
G1 X154.981 Y158.341 E0.04071
G1 X155.781 Y157.848 E0.03967
G1 X156.207 Y157.531 E0.02243
G1 X156.909 Y156.906 E0.03967
G1 X157.55 Y156.186 E0.04071
G1 X158.103 Y155.396 E0.04071
