; generated by SuperSlicer 2.4 on 2023-10-28 at 06:24:05 UTC


;
;

;
;
; 

; external perimeters extrusion width = 0.40mm
; perimeters extrusion width = 0.46mm
; infill extrusion width = 0.64mm
; solid infill extrusion width = 0.56mm
; top infill extrusion width = 0.40mm
; first layer extrusion width = 0.50mm

; object:{"name":"Stem","id":"Stem.stl id:0 copy 0","object_center":[150.000000,150.000000,0.000000],"boundingbox_center":[150.000000,150.000000,11.900000],"boundingbox_size":[21.808901,21.808901,23.799999]}
; plater:{"center":[150.000000,150.000000,0.000000],"boundingbox_center":[150.000000,150.000000,11.900000],"boundingbox_size":[21.808901,21.808901,23.799999]}

M73 P0 R22


; Pre-Processed for Cancel-Object support by preprocess_cancellation v0.2.0
; 1 known objects
EXCLUDE_OBJECT_DEFINE NAME=Stem_stl_id_0_copy_0 CENTER=149.995,150.005 POLYGON=[[139.296,139.296],[139.296,160.704],[160.704,160.704],[160.704,139.296]]
;TYPE:Custom
; custom gcode: start_gcode
M190 S0
M104 S0
PRINT_START EXTRUDER_TEMP=225 BED_TEMP=60 FILAMENT=PLA SIZE=133.537_133.529_166.463_166.463 ENCLOSURE_TEMP=0
; custom gcode end: start_gcode
M107
G21 ; set units to millimeters
G90 ; use absolute coordinates
M83 ; use relative distances for extrusion
;_TOOLCHANGE 0
;LAYER_CHANGE
;Z:0.25
;HEIGHT:0.25
G1 Z0.25 F48000
; custom gcode: layer_gcode
;DISPLAY_PROGRESS TOTAL_LAYERS=119 CURRENT_LAYER=0
; custom gcode end: layer_gcode

G92 E0
M73 P1 R22
G1 E-1.6 F1800
G1 Z0.65 F48000
M204 S2000
G1 X140.854 Y140.123
G1 Z0.25
G1 E1.6 F1800
; custom gcode: feature_gcode
; External perimeter
;Skirt
SET_VELOCITY_LIMIT ACCEL=7000 ACCEL_TO_DECEL=7000 SQUARE_CORNER_VELOCITY=8

; Support material
; custom gcode end: feature_gcode

;TYPE:Skirt
;WIDTH:0.46
G1 F3600
G1 X135.58 Y145.425 E0.25898
G1 X134.987 Y146.258 E0.0354
G1 X134.435 Y147.35 E0.04239
G1 X134.124 Y148.339 E0.03591
G1 X133.952 Y149.419 E0.03785
G1 X133.965 Y150.691 E0.04405
G1 X134.124 Y151.662 E0.03407
G1 X134.458 Y152.703 E0.03786
G1 X135.013 Y153.791 E0.04231
G1 X136.027 Y155.071 E0.05656
G1 X145.425 Y164.42 E0.4591
G1 X146.258 Y165.013 E0.0354
G1 X147.35 Y165.565 E0.04239
G1 X148.339 Y165.876 E0.03591
G1 X149.419 Y166.048 E0.03786
G1 X150.691 Y166.035 E0.04404
G1 X151.662 Y165.876 E0.03408
G1 X152.702 Y165.542 E0.03785
G1 X153.791 Y164.987 E0.04232
G1 X155.071 Y163.973 E0.05655
G1 X164.42 Y154.575 E0.4591
G1 X165.013 Y153.742 E0.0354
G1 X165.565 Y152.65 E0.0424
G1 X165.876 Y151.661 E0.03591
G1 X166.048 Y150.581 E0.03786
G1 X166.035 Y149.309 E0.04404
G1 X165.876 Y148.338 E0.03408
G1 X165.542 Y147.298 E0.03785
G1 X164.986 Y146.209 E0.04233
G1 X163.973 Y144.929 E0.05655
G1 X154.574 Y135.579 E0.45915
G1 X153.681 Y134.947 E0.03788
G1 X152.704 Y134.458 E0.03786
G1 X151.756 Y134.15 E0.03452
G1 X150.477 Y133.943 E0.04486
G1 X149.487 Y133.948 E0.03429
G1 X148.538 Y134.082 E0.03319
G1 X147.296 Y134.458 E0.04493
G1 X146.209 Y135.013 E0.04227
G1 X144.929 Y136.027 E0.05655
G1 X140.896 Y140.081 E0.19804
G1 X141.184 Y140.367 F48000
G1 F3600
G1 X135.888 Y145.689 E0.26002
G1 X135.338 Y146.462 E0.03285
G1 X134.811 Y147.506 E0.0405
G1 X134.517 Y148.44 E0.03391
G1 X134.357 Y149.458 E0.0357
G1 X134.37 Y150.66 E0.04163
G1 X134.518 Y151.561 E0.03162
G1 X134.831 Y152.543 E0.03571
G1 X135.36 Y153.578 E0.04025
G1 X136.314 Y154.784 E0.05325
G1 X145.689 Y164.112 E0.45803
G1 X146.462 Y164.662 E0.03285
G1 X147.506 Y165.189 E0.0405
G1 X148.44 Y165.483 E0.03391
G1 X149.458 Y165.643 E0.03571
G1 X150.66 Y165.63 E0.04162
G1 X151.561 Y165.482 E0.03163
G1 X152.543 Y165.169 E0.0357
G1 X153.578 Y164.64 E0.04025
G1 X154.784 Y163.686 E0.05325
G1 X164.112 Y154.311 E0.45802
G1 X164.662 Y153.538 E0.03285
G1 X165.189 Y152.494 E0.0405
G1 X165.483 Y151.56 E0.0339
G1 X165.643 Y150.542 E0.03571
G1 X165.63 Y149.34 E0.04162
G1 X165.482 Y148.439 E0.03163
G1 X165.169 Y147.457 E0.0357
G1 X164.64 Y146.421 E0.04026
G1 X163.686 Y145.216 E0.05324
G1 X154.31 Y135.887 E0.45808
G1 X153.467 Y135.292 E0.03573
G1 X152.544 Y134.832 E0.03571
G1 X151.665 Y134.546 E0.03203
G1 X150.445 Y134.348 E0.04278
G1 X149.51 Y134.353 E0.0324
G1 X148.629 Y134.478 E0.0308
G1 X147.456 Y134.832 E0.04245
G1 X146.422 Y135.36 E0.04021
G1 X145.216 Y136.314 E0.05325
G1 X141.226 Y140.325 E0.19593
G1 X141.514 Y140.611 F48000
G1 F3600
G1 X136.197 Y145.954 E0.26106
G1 X135.69 Y146.667 E0.0303
G1 X135.186 Y147.661 E0.0386
G1 X134.911 Y148.54 E0.0319
G1 X134.761 Y149.498 E0.03355
G1 X134.775 Y150.63 E0.03921
G1 X134.911 Y151.461 E0.02917
G1 X135.205 Y152.384 E0.03356
G1 X135.706 Y153.366 E0.03818
G1 X136.602 Y154.496 E0.04994
G1 X145.954 Y163.803 E0.45695
G1 X146.667 Y164.31 E0.0303
G1 X147.661 Y164.814 E0.0386
G1 X148.54 Y165.089 E0.0319
G1 X149.498 Y165.239 E0.03356
G1 X150.629 Y165.225 E0.0392
G1 X151.461 Y165.089 E0.02917
G1 X152.384 Y164.795 E0.03355
G1 X153.366 Y164.294 E0.03819
G1 X154.496 Y163.398 E0.04994
G1 X163.803 Y154.046 E0.45695
G1 X164.31 Y153.333 E0.0303
G1 X164.814 Y152.339 E0.03861
G1 X165.089 Y151.46 E0.0319
G1 X165.239 Y150.502 E0.03356
G1 X165.225 Y149.371 E0.0392
G1 X165.089 Y148.539 E0.02917
G1 X164.795 Y147.616 E0.03355
G1 X164.294 Y146.634 E0.0382
G1 X163.398 Y145.504 E0.04993
G1 X154.045 Y136.196 E0.457
G1 X153.252 Y135.637 E0.03358
G1 X152.385 Y135.206 E0.03356
G1 X151.279 Y134.874 E0.03999
G1 X150.413 Y134.753 E0.03026
G1 X149.532 Y134.759 E0.03051
G1 X148.72 Y134.874 E0.02841
G1 X147.615 Y135.206 E0.03996
G1 X146.634 Y135.706 E0.03815
G1 X145.504 Y136.602 E0.04994
G1 X141.556 Y140.568 E0.19382
G1 X141.844 Y140.855 F48000
G1 F3600
G1 X136.505 Y146.218 E0.26209
G1 X136.041 Y146.871 E0.02775
G1 X135.562 Y147.817 E0.03671
G1 X135.305 Y148.641 E0.02989
G1 X135.166 Y149.537 E0.0314
G1 X135.18 Y150.599 E0.03678
G1 X135.305 Y151.36 E0.02671
G1 X135.579 Y152.225 E0.03141
G1 X136.053 Y153.154 E0.03612
G1 X136.889 Y154.209 E0.04663
G1 X146.218 Y163.495 E0.45587
G1 X146.871 Y163.959 E0.02775
G1 X147.817 Y164.438 E0.03671
G1 X148.641 Y164.695 E0.02989
G1 X149.537 Y164.834 E0.0314
G1 X150.599 Y164.82 E0.03678
G1 X151.36 Y164.695 E0.02672
G1 X152.224 Y164.421 E0.0314
G1 X153.154 Y163.947 E0.03613
G1 X154.209 Y163.111 E0.04663
G1 X163.495 Y153.782 E0.45587
G1 X163.959 Y153.129 E0.02775
G1 X164.438 Y152.183 E0.03671
G1 X164.695 Y151.359 E0.02989
G1 X164.834 Y150.463 E0.0314
G1 X164.82 Y149.401 E0.03678
G1 X164.695 Y148.64 E0.02672
G1 X164.421 Y147.776 E0.0314
G1 X163.947 Y146.846 E0.03613
G1 X163.111 Y145.791 E0.04663
G1 X153.78 Y136.504 E0.45592
G1 X153.038 Y135.982 E0.03143
G1 X152.225 Y135.579 E0.0314
G1 X151.188 Y135.27 E0.03751
G1 X150.382 Y135.158 E0.02818
G1 X149.555 Y135.165 E0.02862
G1 X148.811 Y135.27 E0.02602
G1 X147.774 Y135.58 E0.03747
G1 X146.846 Y136.053 E0.03608
G1 X145.791 Y136.889 E0.04663
G1 X141.886 Y140.812 E0.1917
G1 X142.174 Y141.099 F48000
G1 F3600
G1 X136.814 Y146.483 E0.26313
G1 X136.392 Y147.076 E0.0252
G1 X135.937 Y147.972 E0.03481
G1 X135.698 Y148.741 E0.02789
G1 X135.57 Y149.576 E0.02925
G1 X135.585 Y150.568 E0.03436
G1 X135.699 Y151.26 E0.02426
G1 X135.953 Y152.065 E0.02926
G1 X136.399 Y152.941 E0.03406
G1 X137.176 Y153.922 E0.04332
G1 X146.483 Y163.186 E0.4548
G1 X147.076 Y163.608 E0.0252
G1 X147.972 Y164.063 E0.03481
G1 X148.742 Y164.302 E0.02789
G1 X149.576 Y164.43 E0.02925
G1 X150.568 Y164.415 E0.03436
G1 X151.26 Y164.301 E0.02426
G1 X152.065 Y164.047 E0.02925
G1 X152.941 Y163.601 E0.03406
G1 X153.922 Y162.824 E0.04332
G1 X163.186 Y153.517 E0.4548
M73 P2 R22
G1 X163.608 Y152.924 E0.0252
G1 X164.063 Y152.028 E0.03482
G1 X164.302 Y151.258 E0.02788
G1 X164.43 Y150.424 E0.02925
G1 X164.415 Y149.432 E0.03436
G1 X164.301 Y148.74 E0.02426
G1 X164.047 Y147.935 E0.02925
G1 X163.601 Y147.058 E0.03407
G1 X162.824 Y146.078 E0.04332
G1 X153.516 Y136.813 E0.45485
G1 X152.824 Y136.327 E0.02928
G1 X152.066 Y135.953 E0.02925
G1 X151.097 Y135.666 E0.03502
G1 X150.35 Y135.563 E0.02611
G1 X149.578 Y135.57 E0.02673
G1 X148.902 Y135.666 E0.02363
G1 X147.934 Y135.953 E0.03499
G1 X147.059 Y136.399 E0.03402
G1 X146.078 Y137.176 E0.04332
G1 X142.216 Y141.056 E0.18959
G1 X142.504 Y141.342 F48000
G1 F3600
G1 X137.122 Y146.748 E0.26416
G1 X136.743 Y147.28 E0.02265
G1 X136.312 Y148.128 E0.03292
G1 X136.092 Y148.842 E0.02588
G1 X135.975 Y149.616 E0.0271
G1 X135.991 Y150.538 E0.03194
G1 X136.092 Y151.159 E0.0218
G1 X136.327 Y151.906 E0.0271
G1 X136.746 Y152.729 E0.03199
G1 X137.464 Y153.634 E0.04002
G1 X146.748 Y162.878 E0.45372
M73 P2 R21
G1 X147.28 Y163.257 E0.02265
G1 X148.128 Y163.688 E0.03292
G1 X148.842 Y163.908 E0.02588
G1 X149.616 Y164.025 E0.0271
G1 X150.538 Y164.009 E0.03193
G1 X151.159 Y163.908 E0.02181
G1 X151.906 Y163.673 E0.0271
G1 X152.729 Y163.254 E0.032
G1 X153.634 Y162.536 E0.04001
G1 X162.878 Y153.253 E0.45372
G1 X163.257 Y152.72 E0.02265
G1 X163.688 Y151.872 E0.03292
G1 X163.908 Y151.158 E0.02588
G1 X164.025 Y150.384 E0.0271
G1 X164.009 Y149.462 E0.03193
G1 X163.908 Y148.841 E0.02181
G1 X163.673 Y148.094 E0.0271
G1 X163.254 Y147.271 E0.03201
G1 X162.536 Y146.366 E0.04001
G1 X153.251 Y137.121 E0.45377
G1 X152.609 Y136.672 E0.02713
G1 X151.907 Y136.327 E0.0271
G1 X151.005 Y136.062 E0.03254
G1 X150.318 Y135.969 E0.02404
G1 X148.993 Y136.062 E0.04598
G1 X148.093 Y136.327 E0.0325
G1 X147.271 Y136.746 E0.03196
G1 X146.366 Y137.464 E0.04001
G1 X142.546 Y141.3 E0.18749
G1 X142.828 Y141.581 F48000
G1 F3600
G1 X137.583 Y146.834 E0.25706
G1 X137.094 Y147.485 E0.02821
G1 X136.75 Y148.133 E0.02541
G1 X136.486 Y148.943 E0.02949
G1 X136.379 Y149.655 E0.02495
G1 X136.396 Y150.507 E0.02952
G1 X136.7 Y151.746 E0.0442
G1 X137.092 Y152.517 E0.02993
G1 X137.751 Y153.347 E0.03671
G1 X146.834 Y162.417 E0.44453
G1 X147.485 Y162.906 E0.02821
G1 X148.133 Y163.25 E0.02541
G1 X148.943 Y163.514 E0.02949
G1 X149.655 Y163.621 E0.02495
G1 X150.507 Y163.604 E0.02951
G1 X151.746 Y163.3 E0.0442
G1 X152.517 Y162.908 E0.02993
G1 X153.347 Y162.249 E0.03671
G1 X162.417 Y153.166 E0.44453
G1 X162.906 Y152.515 E0.02821
G1 X163.25 Y151.867 E0.02542
G1 X163.514 Y151.057 E0.02948
G1 X163.621 Y150.345 E0.02495
G1 X163.604 Y149.493 E0.02951
G1 X163.3 Y148.254 E0.04419
G1 X162.908 Y147.483 E0.02994
G1 X162.249 Y146.653 E0.0367
G1 X153.166 Y137.583 E0.44453
G1 X152.592 Y137.14 E0.02512
G1 X151.747 Y136.701 E0.03297
G1 X150.914 Y136.458 E0.03005
G1 X150.286 Y136.374 E0.02196
G1 X149.085 Y136.458 E0.04171
G1 X148.252 Y136.701 E0.03002
G1 X147.483 Y137.092 E0.02989
G1 X146.653 Y137.751 E0.03671
G1 X142.87 Y141.539 E0.1854
M104 S225 ; set temperature
G1 E-1.6 F1800
M204 S10000
G1 Z0.65 F48000
; printing object Stem.stl id:0 copy 0
EXCLUDE_OBJECT_START NAME=Stem_stl_id_0_copy_0
M204 S2000
G1 X150.2 Y146.861
G1 Z0.25
G1 E1.6 F1800
; custom gcode: feature_gcode
; External perimeter
;Perimeter
SET_VELOCITY_LIMIT ACCEL=2000 ACCEL_TO_DECEL=2000 SQUARE_CORNER_VELOCITY=8

; Overhang perimeter
; custom gcode end: feature_gcode

;TYPE:Internal perimeter
;WIDTH:0.5
G1 F3600
G1 X149.667 Y146.873 E0.02029
G1 X149.143 Y146.974 E0.0203
G1 X148.644 Y147.162 E0.02029
G1 X148.184 Y147.432 E0.02029
G1 X147.776 Y147.776 E0.02029
G1 X147.432 Y148.184 E0.02029
G1 X147.162 Y148.644 E0.02029
G1 X146.974 Y149.143 E0.02029
G1 X146.873 Y149.667 E0.02029
G1 X146.861 Y150.2 E0.02029
G1 X146.94 Y150.728 E0.02029
G1 X147.107 Y151.234 E0.02029
G1 X147.357 Y151.706 E0.02029
G1 X147.684 Y152.128 E0.02029
G1 X148.077 Y152.488 E0.02029
G1 X148.525 Y152.778 E0.02029
G1 X149.015 Y152.987 E0.0203
G1 X149.534 Y153.11 E0.02029
G1 X150.067 Y153.144 E0.02029
G1 X150.597 Y153.088 E0.02029
G1 X151.11 Y152.943 E0.02029
G1 X151.592 Y152.713 E0.0203
G1 X152.027 Y152.405 E0.02029
G1 X152.405 Y152.027 E0.02029
G1 X152.713 Y151.592 E0.02029
G1 X152.943 Y151.11 E0.02029
G1 X153.088 Y150.597 E0.02029
G1 X153.144 Y150.067 E0.02029
G1 X153.111 Y149.534 E0.02029
G1 X152.987 Y149.015 E0.02029
G1 X152.778 Y148.525 E0.02029
G1 X152.477 Y148.059 E0.0211
G1 X152.056 Y147.628 E0.0229
G1 X151.706 Y147.357 E0.01685
G1 X151.234 Y147.107 E0.02029
G1 X150.728 Y146.94 E0.02029
G1 X150.26 Y146.87 E0.01801
G1 X150.172 Y147.308 F48000
G1 F3600
G1 X149.714 Y147.318 E0.0174
G1 X149.265 Y147.405 E0.0174
G1 X148.837 Y147.566 E0.0174
G1 X148.443 Y147.798 E0.0174
G1 X148.093 Y148.093 E0.0174
G1 X147.798 Y148.443 E0.0174
G1 X147.566 Y148.837 E0.0174
G1 X147.405 Y149.265 E0.0174
G1 X147.318 Y149.714 E0.0174
G1 X147.308 Y150.172 E0.0174
G1 X147.376 Y150.624 E0.0174
G1 X147.519 Y151.059 E0.0174
G1 X147.734 Y151.463 E0.0174
G1 X148.014 Y151.825 E0.0174
G1 X148.35 Y152.134 E0.0174
G1 X148.735 Y152.382 E0.0174
G1 X149.156 Y152.562 E0.01741
G1 X149.601 Y152.667 E0.0174
G1 X150.057 Y152.697 E0.0174
G1 X150.512 Y152.648 E0.0174
G1 X150.952 Y152.523 E0.0174
G1 X151.365 Y152.326 E0.0174
G1 X151.739 Y152.062 E0.0174
G1 X152.062 Y151.739 E0.0174
G1 X152.326 Y151.365 E0.0174
G1 X152.523 Y150.952 E0.0174
G1 X152.648 Y150.512 E0.0174
G1 X152.697 Y150.057 E0.0174
G1 X152.667 Y149.601 E0.0174
G1 X152.562 Y149.156 E0.0174
G1 X152.382 Y148.735 E0.0174
G1 X152.126 Y148.339 E0.01794
G1 X151.759 Y147.963 E0.02001
G1 X151.463 Y147.734 E0.01423
G1 X151.059 Y147.519 E0.0174
G1 X150.624 Y147.376 E0.0174
G1 X150.231 Y147.317 E0.01512
G1 X150.143 Y147.755 F48000
G1 F3600
G1 X149.762 Y147.763 E0.01451
G1 X149.387 Y147.836 E0.01451
G1 X149.03 Y147.971 E0.01451
G1 X148.701 Y148.164 E0.01451
G1 X148.41 Y148.41 E0.01451
G1 X148.164 Y148.701 E0.01451
G1 X147.971 Y149.03 E0.01451
G1 X147.836 Y149.387 E0.01451
G1 X147.763 Y149.762 E0.01451
G1 X147.755 Y150.143 E0.01451
G1 X147.812 Y150.52 E0.01451
G1 X147.931 Y150.883 E0.01451
G1 X148.11 Y151.22 E0.01451
G1 X148.343 Y151.522 E0.01451
G1 X148.624 Y151.78 E0.01451
G1 X148.945 Y151.986 E0.01451
G1 X149.296 Y152.136 E0.01451
G1 X149.667 Y152.224 E0.01451
G1 X150.048 Y152.249 E0.01451
G1 X150.427 Y152.208 E0.01451
G1 X150.794 Y152.104 E0.01451
G1 X151.138 Y151.94 E0.01451
G1 X151.45 Y151.72 E0.01451
G1 X151.72 Y151.45 E0.01451
G1 X151.94 Y151.138 E0.01451
G1 X152.104 Y150.794 E0.01451
G1 X152.208 Y150.427 E0.01451
G1 X152.249 Y150.048 E0.01451
G1 X152.224 Y149.667 E0.01451
G1 X152.136 Y149.296 E0.01451
G1 X151.986 Y148.945 E0.01451
G1 X151.776 Y148.619 E0.01478
G1 X151.461 Y148.297 E0.01712
G1 X151.22 Y148.11 E0.01161
G1 X150.883 Y147.931 E0.01451
G1 X150.52 Y147.812 E0.01451
G1 X150.202 Y147.764 E0.01223
G1 E-1.6 F1800
M204 S10000
G1 Z0.65 F48000
M204 S2000
G1 X150.038 Y151.801
G1 Z0.25
G1 E1.6 F1800
; custom gcode: feature_gcode
; External perimeter
;ExternalPerimeter
SET_VELOCITY_LIMIT ACCEL=1000 ACCEL_TO_DECEL=1000 SQUARE_CORNER_VELOCITY=8

; Perimeter
; custom gcode end: feature_gcode

;TYPE:External perimeter
G1 F3600
G1 X150.342 Y151.768 E0.01162
G1 X150.636 Y151.685 E0.01162
G1 X150.912 Y151.554 E0.01162
G1 X151.161 Y151.377 E0.01162
G1 X151.377 Y151.161 E0.01162
G1 X151.554 Y150.912 E0.01162
G1 X151.685 Y150.636 E0.01162
G1 X151.768 Y150.342 E0.01162
G1 X151.801 Y150.038 E0.01162
G1 X151.781 Y149.733 E0.01162
G1 X151.711 Y149.436 E0.01162
G1 X151.591 Y149.155 E0.01162
G1 X151.425 Y148.898 E0.01162
G1 X151.164 Y148.631 E0.01423
G1 X150.977 Y148.487 E0.00898
G1 X150.707 Y148.343 E0.01162
G1 X150.417 Y148.248 E0.01162
G1 X150.115 Y148.202 E0.01162
G1 X149.809 Y148.209 E0.01162
G1 X149.509 Y148.267 E0.01162
G1 X149.223 Y148.375 E0.01162
G1 X148.96 Y148.529 E0.01162
G1 X148.726 Y148.726 E0.01162
G1 X148.529 Y148.96 E0.01162
G1 X148.375 Y149.223 E0.01162
G1 X148.267 Y149.509 E0.01162
G1 X148.209 Y149.809 E0.01162
G1 X148.202 Y150.115 E0.01162
G1 X148.248 Y150.417 E0.01162
G1 X148.343 Y150.707 E0.01162
G1 X148.487 Y150.977 E0.01162
G1 X148.673 Y151.218 E0.01162
G1 X148.898 Y151.425 E0.01162
G1 X149.155 Y151.591 E0.01162
G1 X149.436 Y151.711 E0.01162
G1 X149.733 Y151.781 E0.01162
G1 X149.978 Y151.797 E0.00934
;WIPE_START
M204 S10000
G1 X150.255 Y152.137 F48000
;WIPE_END
M204 S2000
G1 X158.819 Y150
; custom gcode: feature_gcode
; External perimeter
;Perimeter
SET_VELOCITY_LIMIT ACCEL=2000 ACCEL_TO_DECEL=2000 SQUARE_CORNER_VELOCITY=8

; Overhang perimeter
; custom gcode end: feature_gcode

;TYPE:Internal perimeter
G1 F3600
G1 X150 Y158.819 E0.47446
G1 X141.181 Y150 E0.47446
G1 X150 Y141.181 E0.47446
G1 X158.777 Y149.958 E0.47217
