; generated by SuperSlicer 2.4 on 2023-10-28 at 06:03:59 UTC


;
;

;
;
; 

; external perimeters extrusion width = 0.40mm
; perimeters extrusion width = 0.46mm
; infill extrusion width = 0.64mm
; solid infill extrusion width = 0.56mm
; top infill extrusion width = 0.40mm
; first layer extrusion width = 0.50mm

; object:{"name":"Stem","id":"Stem.stl id:0 copy 0","object_center":[150.000000,150.000000,0.000000],"boundingbox_center":[150.000000,150.000000,11.900000],"boundingbox_size":[16.600005,16.600002,23.799999]}
; plater:{"center":[150.000000,150.000000,0.000000],"boundingbox_center":[150.000000,150.000000,11.900000],"boundingbox_size":[16.600005,16.600002,23.799999]}

M73 P0 R22


; Pre-Processed for Cancel-Object support by preprocess_cancellation v0.2.0
; 1 known objects
EXCLUDE_OBJECT_DEFINE NAME=Stem_stl_id_0_copy_0 CENTER=149.999,149.999 POLYGON=[[141.9,141.9],[141.9,158.1],[158.1,158.1],[158.1,141.9]]
;TYPE:Custom
; custom gcode: start_gcode
M190 S0
M104 S0
PRINT_START EXTRUDER_TEMP=225 BED_TEMP=60 FILAMENT=PLA SIZE=136.127_136.127_163.873_163.873 ENCLOSURE_TEMP=0
; custom gcode end: start_gcode
M107
G21 ; set units to millimeters
G90 ; use absolute coordinates
M83 ; use relative distances for extrusion
;_TOOLCHANGE 0
;LAYER_CHANGE
;Z:0.25
;HEIGHT:0.25
G1 Z0.25 F48000
; custom gcode: layer_gcode
;DISPLAY_PROGRESS TOTAL_LAYERS=119 CURRENT_LAYER=0
; custom gcode end: layer_gcode

G92 E0
M73 P1 R22
G1 E-1.6 F1800
G1 Z0.65 F48000
M204 S2000
G1 X138.242 Y139.064
G1 Z0.25
G1 E1.6 F1800
; custom gcode: feature_gcode
; External perimeter
;Skirt
SET_VELOCITY_LIMIT ACCEL=7000 ACCEL_TO_DECEL=7000 SQUARE_CORNER_VELOCITY=8

; Support material
; custom gcode end: feature_gcode

;TYPE:Skirt
;WIDTH:0.46
G1 F3600
G1 X137.6 Y139.948 E0.03877
G1 X137.121 Y140.868 E0.03679
G1 X136.816 Y141.738 E0.0327
G1 X136.55 Y143.273 E0.05527
G1 X136.566 Y156.898 E0.48341
G1 X136.722 Y157.917 E0.03655
G1 X137.012 Y158.863 E0.03511
G1 X137.599 Y160.051 E0.04701
G1 X138.369 Y161.079 E0.04557
G1 X139.064 Y161.758 E0.03446
G1 X139.948 Y162.4 E0.03877
G1 X140.868 Y162.879 E0.03679
G1 X141.738 Y163.184 E0.0327
G1 X143.273 Y163.45 E0.05527
G1 X156.898 Y163.434 E0.48341
G1 X157.917 Y163.278 E0.03655
G1 X158.863 Y162.988 E0.03511
G1 X160.051 Y162.401 E0.04701
G1 X161.079 Y161.631 E0.04557
G1 X161.758 Y160.937 E0.03445
G1 X162.401 Y160.052 E0.03878
G1 X162.879 Y159.132 E0.03678
G1 X163.184 Y158.262 E0.03271
G1 X163.45 Y156.727 E0.05527
G1 X163.461 Y143.631 E0.46464
G1 X163.431 Y143.026 E0.02149
G1 X163.247 Y141.959 E0.03841
G1 X162.901 Y140.921 E0.03882
G1 X162.401 Y139.948 E0.03881
G1 X161.758 Y139.063 E0.03878
G1 X160.85 Y138.173 E0.04512
G1 X159.852 Y137.481 E0.04309
G1 X158.864 Y137.012 E0.03881
G1 X157.815 Y136.7 E0.03883
G1 X156.369 Y136.539 E0.05159
G1 X143.708 Y136.534 E0.44921
G1 X142.083 Y136.722 E0.05801
G1 X141.137 Y137.012 E0.03512
G1 X140.148 Y137.481 E0.03883
G1 X139.15 Y138.173 E0.04309
G1 X138.285 Y139.022 E0.043
G1 X138.567 Y139.31 F48000
G1 F3600
G1 X137.949 Y140.155 E0.03714
G1 X137.496 Y141.023 E0.03474
G1 X137.208 Y141.841 E0.03076
G1 X136.955 Y143.304 E0.05265
G1 X136.97 Y156.855 E0.48076
G1 X137.118 Y157.822 E0.0347
G1 X137.389 Y158.711 E0.033
G1 X137.948 Y159.844 E0.04481
G1 X138.677 Y160.814 E0.04306
G1 X139.322 Y161.445 E0.03198
G1 X140.155 Y162.051 E0.03657
G1 X141.023 Y162.504 E0.03474
G1 X141.841 Y162.792 E0.03076
G1 X143.304 Y163.045 E0.05265
G1 X156.855 Y163.03 E0.48076
G1 X157.822 Y162.882 E0.0347
G1 X158.711 Y162.611 E0.033
G1 X159.844 Y162.052 E0.04481
G1 X160.814 Y161.322 E0.04306
G1 X161.444 Y160.678 E0.03197
G1 X162.051 Y159.845 E0.03658
G1 X162.504 Y158.977 E0.03473
G1 X162.792 Y158.159 E0.03077
G1 X163.045 Y156.696 E0.05266
G1 X163.055 Y143.631 E0.46353
G1 X162.852 Y142.051 E0.0565
G1 X162.524 Y141.072 E0.03661
G1 X162.051 Y140.155 E0.03661
G1 X161.444 Y139.322 E0.03658
G1 X160.586 Y138.481 E0.04264
G1 X159.645 Y137.83 E0.04058
G1 X158.712 Y137.389 E0.03661
G1 X157.722 Y137.095 E0.03662
G1 X156.369 Y136.945 E0.0483
G1 X143.707 Y136.94 E0.44921
G1 X142.178 Y137.118 E0.05462
G1 X141.072 Y137.476 E0.04124
G1 X140.156 Y137.948 E0.03657
G1 X139.415 Y138.481 E0.03239
G1 X138.61 Y139.268 E0.03994
G1 X138.898 Y139.55 F48000
G1 F3600
G1 X138.869 Y139.58 E0.00146
G1 X138.299 Y140.362 E0.03437
G1 X137.871 Y141.179 E0.03268
G1 X137.601 Y141.945 E0.02882
G1 X137.361 Y143.335 E0.05004
G1 X137.374 Y156.811 E0.47812
G1 X137.513 Y157.727 E0.03285
G1 X137.766 Y158.56 E0.03088
G1 X138.298 Y159.636 E0.0426
G1 X138.986 Y160.549 E0.04054
G1 X139.58 Y161.131 E0.0295
G1 X140.363 Y161.702 E0.03437
G1 X141.179 Y162.129 E0.03268
G1 X141.945 Y162.399 E0.02882
G1 X143.335 Y162.639 E0.05004
G1 X156.811 Y162.626 E0.47812
G1 X157.727 Y162.487 E0.03285
G1 X158.56 Y162.234 E0.03088
G1 X159.637 Y161.702 E0.04261
G1 X160.549 Y161.014 E0.04054
G1 X161.131 Y160.42 E0.02949
G1 X161.702 Y159.637 E0.03438
G1 X162.129 Y158.821 E0.03267
G1 X162.399 Y158.055 E0.02883
G1 X162.639 Y156.665 E0.05004
G1 X162.648 Y143.631 E0.46242
G1 X162.456 Y142.143 E0.05321
G1 X162.147 Y141.224 E0.03441
G1 X161.702 Y140.363 E0.03441
G1 X161.131 Y139.58 E0.03437
G1 X160.321 Y138.789 E0.04016
G1 X159.437 Y138.18 E0.03807
G1 X158.56 Y137.766 E0.03441
G1 X157.63 Y137.491 E0.03442
G1 X156.369 Y137.352 E0.045
G1 X143.707 Y137.346 E0.44921
M73 P1 R21
G1 X142.883 Y137.407 E0.02931
G1 X142.115 Y137.551 E0.02774
G1 X141.44 Y137.766 E0.02513
G1 X140.364 Y138.298 E0.0426
G1 X139.451 Y138.986 E0.04054
G1 X138.94 Y139.507 E0.0259
G1 X139.229 Y139.791 F48000
G1 F3600
G1 X139.183 Y139.838 E0.00235
G1 X138.648 Y140.57 E0.03216
G1 X138.247 Y141.334 E0.03063
G1 X137.994 Y142.049 E0.02688
G1 X137.766 Y143.366 E0.04743
G1 X137.778 Y156.768 E0.47547
G1 X137.908 Y157.632 E0.031
G1 X138.143 Y158.408 E0.02877
G1 X138.647 Y159.429 E0.0404
G1 X139.294 Y160.284 E0.03803
G1 X139.838 Y160.817 E0.02702
G1 X140.57 Y161.352 E0.03216
G1 X141.334 Y161.753 E0.03063
G1 X142.049 Y162.006 E0.02688
G1 X143.366 Y162.234 E0.04743
G1 X156.768 Y162.222 E0.47547
G1 X157.632 Y162.092 E0.031
G1 X158.408 Y161.857 E0.02877
G1 X159.429 Y161.353 E0.0404
G1 X160.284 Y160.706 E0.03803
G1 X160.817 Y160.162 E0.02701
G1 X161.352 Y159.43 E0.03217
G1 X161.753 Y158.666 E0.03062
G1 X162.006 Y157.951 E0.02689
G1 X162.234 Y156.634 E0.04743
G1 X162.242 Y143.631 E0.46132
G1 X162.113 Y142.462 E0.04171
G1 X161.857 Y141.591 E0.03221
G1 X161.352 Y140.57 E0.04042
G1 X160.817 Y139.838 E0.03217
G1 X160.056 Y139.097 E0.03768
G1 X159.23 Y138.529 E0.03555
G1 X158.409 Y138.143 E0.03221
G1 X157.537 Y137.887 E0.03222
G1 X156.369 Y137.758 E0.04171
G1 X143.707 Y137.753 E0.44921
G1 X142.927 Y137.811 E0.02775
G1 X141.592 Y138.143 E0.04881
G1 X140.571 Y138.647 E0.0404
G1 X139.716 Y139.294 E0.03803
G1 X139.271 Y139.748 E0.02253
G1 X139.561 Y140.031 F48000
G1 F3600
G1 X139.497 Y140.096 E0.00324
G1 X138.997 Y140.777 E0.02996
G1 X138.622 Y141.49 E0.02857
G1 X138.387 Y142.152 E0.02494
G1 X138.171 Y143.397 E0.04482
G1 X138.182 Y156.724 E0.47283
G1 X138.303 Y157.537 E0.02915
G1 X138.52 Y158.257 E0.02665
G1 X138.997 Y159.222 E0.0382
G1 X139.602 Y160.019 E0.03552
G1 X140.096 Y160.503 E0.02453
G1 X140.777 Y161.003 E0.02996
G1 X141.49 Y161.378 E0.02857
G1 X142.152 Y161.613 E0.02494
G1 X143.397 Y161.829 E0.04482
G1 X156.724 Y161.818 E0.47283
G1 X157.537 Y161.697 E0.02915
G1 X158.257 Y161.48 E0.02665
G1 X159.222 Y161.003 E0.0382
G1 X160.019 Y160.398 E0.03552
G1 X160.503 Y159.904 E0.02453
G1 X161.003 Y159.223 E0.02997
G1 X161.378 Y158.51 E0.02856
G1 X161.613 Y157.848 E0.02495
G1 X161.829 Y156.603 E0.04482
M73 P2 R21
G1 X161.836 Y143.631 E0.46021
G1 X161.718 Y142.555 E0.03842
G1 X161.48 Y141.743 E0.03001
G1 X161.003 Y140.777 E0.03822
G1 X160.503 Y140.096 E0.02997
G1 X159.791 Y139.405 E0.03519
G1 X159.023 Y138.879 E0.03304
G1 X158.257 Y138.52 E0.03
G1 X157.445 Y138.282 E0.03001
G1 X156.369 Y138.164 E0.03841
G1 X143.707 Y138.159 E0.44921
G1 X142.97 Y138.215 E0.0262
G1 X141.743 Y138.52 E0.04486
G1 X140.778 Y138.997 E0.03819
G1 X139.981 Y139.602 E0.03552
G1 X139.603 Y139.988 E0.01916
G1 X139.906 Y140.288 F48000
G1 F3600
G1 X139.664 Y140.533 E0.01223
G1 X139.228 Y141.185 E0.02782
G1 X138.935 Y141.795 E0.02402
G1 X138.703 Y142.549 E0.02797
G1 X138.576 Y143.428 E0.03151
G1 X138.565 Y156.295 E0.45648
G1 X138.698 Y157.442 E0.04099
G1 X138.984 Y158.321 E0.03278
G1 X139.346 Y159.015 E0.02776
G1 X139.714 Y159.526 E0.02234
G1 X140.533 Y160.336 E0.04089
G1 X141.185 Y160.772 E0.02781
G1 X141.795 Y161.065 E0.02402
G1 X142.549 Y161.297 E0.02797
G1 X143.428 Y161.424 E0.03151
G1 X156.295 Y161.435 E0.45648
G1 X157.442 Y161.302 E0.04099
G1 X158.321 Y161.016 E0.03278
G1 X159.015 Y160.654 E0.02777
G1 X159.526 Y160.286 E0.02234
G1 X160.336 Y159.467 E0.04088
G1 X160.772 Y158.815 E0.02782
G1 X161.065 Y158.205 E0.02401
G1 X161.297 Y157.451 E0.02798
G1 X161.424 Y156.572 E0.03151
G1 X161.429 Y143.631 E0.4591
G1 X161.322 Y142.647 E0.03512
G1 X161.103 Y141.895 E0.02781
G1 X160.653 Y140.985 E0.03602
G1 X160.189 Y140.354 E0.02777
G1 X159.526 Y139.714 E0.03271
G1 X158.816 Y139.228 E0.03052
G1 X158.105 Y138.897 E0.0278
G1 X157.353 Y138.678 E0.02781
G1 X156.369 Y138.571 E0.03512
G1 X143.707 Y138.565 E0.44921
G1 X143.014 Y138.619 E0.02465
G1 X141.895 Y138.897 E0.0409
G1 X141.184 Y139.228 E0.02781
G1 X140.474 Y139.714 E0.03052
G1 X139.948 Y140.245 E0.02653
G1 X140.236 Y140.53 F48000
G1 F3600
G1 X139.978 Y140.791 E0.01304
G1 X139.578 Y141.392 E0.02561
G1 X139.311 Y141.951 E0.02197
G1 X139.096 Y142.652 E0.02603
G1 X138.981 Y143.459 E0.0289
G1 X138.972 Y156.295 E0.45538
G1 X139.093 Y157.348 E0.0376
G1 X139.361 Y158.169 E0.03066
G1 X140.022 Y159.261 E0.04527
G1 X140.791 Y160.022 E0.03841
G1 X141.392 Y160.422 E0.02561
G1 X141.951 Y160.689 E0.02197
G1 X142.652 Y160.904 E0.02603
G1 X143.459 Y161.019 E0.0289
G1 X156.295 Y161.028 E0.45538
G1 X157.348 Y160.907 E0.0376
G1 X158.169 Y160.639 E0.03066
G1 X159.261 Y159.978 E0.04528
G1 X160.022 Y159.209 E0.0384
G1 X160.423 Y158.608 E0.02562
G1 X160.689 Y158.049 E0.02196
G1 X160.904 Y157.348 E0.02604
G1 X161.019 Y156.541 E0.0289
G1 X161.023 Y143.632 E0.45799
G1 X160.926 Y142.74 E0.03183
G1 X160.726 Y142.046 E0.0256
G1 X160.304 Y141.192 E0.03382
G1 X159.875 Y140.612 E0.02556
G1 X159.261 Y140.022 E0.03023
G1 X158.608 Y139.578 E0.02801
G1 X157.954 Y139.274 E0.0256
G1 X157.26 Y139.074 E0.02561
G1 X156.368 Y138.977 E0.03182
G1 X143.707 Y138.972 E0.44921
G1 X143.057 Y139.023 E0.0231
G1 X142.047 Y139.274 E0.03695
G1 X141.392 Y139.578 E0.02561
G1 X140.739 Y140.022 E0.02801
G1 X140.278 Y140.487 E0.02324
M104 S225 ; set temperature
G1 E-1.6 F1800
M204 S10000
G1 Z0.65 F48000
; printing object Stem.stl id:0 copy 0
EXCLUDE_OBJECT_START NAME=Stem_stl_id_0_copy_0
M204 S2000
G1 X149.866 Y146.858
G1 Z0.25
G1 E1.6 F1800
; custom gcode: feature_gcode
; External perimeter
;Perimeter
SET_VELOCITY_LIMIT ACCEL=2000 ACCEL_TO_DECEL=2000 SQUARE_CORNER_VELOCITY=8

; Overhang perimeter
; custom gcode end: feature_gcode

;TYPE:Internal perimeter
;WIDTH:0.5
G1 F3600
G1 X149.337 Y146.925 E0.02079
G1 X148.827 Y147.082 E0.02079
G1 X148.351 Y147.322 E0.02079
G1 X147.922 Y147.639 E0.02079
G1 X147.553 Y148.024 E0.02079
G1 X147.254 Y148.466 E0.02079
G1 X147.035 Y148.952 E0.02079
G1 X146.9 Y149.468 E0.02079
G1 X146.855 Y150 E0.02079
G1 X146.9 Y150.532 E0.02079
G1 X147.035 Y151.048 E0.02079
G1 X147.254 Y151.534 E0.02079
G1 X147.553 Y151.976 E0.02079
G1 X147.922 Y152.361 E0.02079
G1 X148.351 Y152.678 E0.02079
G1 X148.827 Y152.918 E0.02079
G1 X149.337 Y153.075 E0.02079
G1 X149.867 Y153.142 E0.02079
G1 X150.399 Y153.12 E0.02079
G1 X150.921 Y153.007 E0.02079
G1 X151.416 Y152.808 E0.02079
G1 X151.87 Y152.529 E0.02079
G1 X152.271 Y152.176 E0.02079
G1 X152.606 Y151.761 E0.02079
G1 X152.866 Y151.296 E0.02079
G1 X153.044 Y150.792 E0.02079
G1 X153.134 Y150.267 E0.02079
G1 X153.134 Y149.733 E0.02079
G1 X153.044 Y149.208 E0.02079
G1 X152.866 Y148.704 E0.02079
G1 X152.606 Y148.239 E0.02079
G1 X152.271 Y147.824 E0.02079
G1 X151.87 Y147.471 E0.02079
G1 X151.416 Y147.192 E0.02079
G1 X150.921 Y146.993 E0.02079
G1 X150.4 Y146.88 E0.02079
G1 X149.926 Y146.86 E0.01845
G1 X149.886 Y147.305 F48000
G1 F3600
G1 X149.432 Y147.363 E0.01783
G1 X148.994 Y147.497 E0.01783
G1 X148.586 Y147.703 E0.01783
G1 X148.218 Y147.975 E0.01783
G1 X147.901 Y148.306 E0.01783
G1 X147.645 Y148.685 E0.01783
G1 X147.457 Y149.101 E0.01783
G1 X147.342 Y149.544 E0.01783
G1 X147.303 Y150 E0.01783
G1 X147.342 Y150.456 E0.01783
G1 X147.457 Y150.899 E0.01783
G1 X147.645 Y151.315 E0.01783
G1 X147.902 Y151.694 E0.01783
G1 X148.218 Y152.025 E0.01783
G1 X148.586 Y152.297 E0.01783
G1 X148.994 Y152.503 E0.01783
G1 X149.432 Y152.637 E0.01783
G1 X149.886 Y152.695 E0.01783
G1 X150.343 Y152.675 E0.01783
G1 X150.79 Y152.579 E0.01783
G1 X151.214 Y152.408 E0.01783
G1 X151.604 Y152.169 E0.01783
G1 X151.947 Y151.866 E0.01783
G1 X152.235 Y151.51 E0.01783
G1 X152.458 Y151.111 E0.01783
G1 X152.61 Y150.68 E0.01783
G1 X152.687 Y150.229 E0.01783
G1 X152.687 Y149.771 E0.01783
G1 X152.61 Y149.32 E0.01783
G1 X152.458 Y148.889 E0.01783
G1 X152.235 Y148.49 E0.01783
G1 X151.947 Y148.134 E0.01783
G1 X151.604 Y147.831 E0.01783
G1 X151.214 Y147.592 E0.01783
G1 X150.79 Y147.421 E0.01783
G1 X150.343 Y147.325 E0.01783
G1 X149.945 Y147.308 E0.01549
G1 X149.905 Y147.753 F48000
G1 F3600
G1 X149.526 Y147.801 E0.01487
G1 X149.161 Y147.913 E0.01487
G1 X148.821 Y148.085 E0.01487
G1 X148.514 Y148.312 E0.01487
G1 X148.25 Y148.587 E0.01487
G1 X148.036 Y148.903 E0.01487
G1 X147.879 Y149.251 E0.01487
G1 X147.783 Y149.62 E0.01487
G1 X147.751 Y150 E0.01487
G1 X147.783 Y150.38 E0.01487
G1 X147.879 Y150.749 E0.01487
G1 X148.036 Y151.097 E0.01487
G1 X148.25 Y151.413 E0.01487
G1 X148.514 Y151.688 E0.01487
G1 X148.821 Y151.915 E0.01487
G1 X149.161 Y152.087 E0.01487
G1 X149.526 Y152.199 E0.01487
G1 X149.905 Y152.247 E0.01487
G1 X150.286 Y152.231 E0.01487
G1 X150.659 Y152.151 E0.01487
G1 X151.013 Y152.008 E0.01487
G1 X151.337 Y151.808 E0.01487
G1 X151.624 Y151.556 E0.01487
G1 X151.863 Y151.26 E0.01487
G1 X152.05 Y150.926 E0.01487
G1 X152.177 Y150.567 E0.01487
G1 X152.241 Y150.191 E0.01487
G1 X152.241 Y149.809 E0.01487
G1 X152.177 Y149.433 E0.01487
G1 X152.05 Y149.074 E0.01487
G1 X151.863 Y148.74 E0.01487
G1 X151.624 Y148.444 E0.01487
G1 X151.337 Y148.192 E0.01487
G1 X151.013 Y147.992 E0.01487
G1 X150.659 Y147.849 E0.01487
G1 X150.286 Y147.769 E0.01487
G1 X149.964 Y147.755 E0.01253
G1 E-1.6 F1800
M204 S10000
G1 Z0.65 F48000
M204 S2000
G1 X149.924 Y151.8
G1 Z0.25
G1 E1.6 F1800
; custom gcode: feature_gcode
; External perimeter
;ExternalPerimeter
SET_VELOCITY_LIMIT ACCEL=1000 ACCEL_TO_DECEL=1000 SQUARE_CORNER_VELOCITY=8

; Perimeter
; custom gcode end: feature_gcode

;TYPE:External perimeter
G1 F3600
G1 X150.229 Y151.787 E0.01191
G1 X150.527 Y151.722 E0.01191
G1 X150.811 Y151.608 E0.01191
G1 X151.071 Y151.448 E0.01191
G1 X151.3 Y151.246 E0.01191
G1 X151.492 Y151.009 E0.01191
G1 X151.641 Y150.742 E0.01191
G1 X151.743 Y150.454 E0.01191
G1 X151.795 Y150.153 E0.01191
G1 X151.795 Y149.847 E0.01191
G1 X151.743 Y149.546 E0.01191
G1 X151.641 Y149.258 E0.01191
G1 X151.492 Y148.991 E0.01191
G1 X151.3 Y148.754 E0.01191
G1 X151.071 Y148.552 E0.01191
G1 X150.811 Y148.392 E0.01191
G1 X150.527 Y148.278 E0.01191
G1 X150.229 Y148.213 E0.01191
G1 X149.924 Y148.2 E0.01191
G1 X149.621 Y148.239 E0.01191
G1 X149.328 Y148.329 E0.01191
G1 X149.056 Y148.466 E0.01191
G1 X148.81 Y148.648 E0.01191
G1 X148.599 Y148.868 E0.01191
G1 X148.427 Y149.122 E0.01191
G1 X148.302 Y149.4 E0.01191
G1 X148.225 Y149.696 E0.01191
G1 X148.199 Y150 E0.01191
G1 X148.225 Y150.304 E0.01191
G1 X148.302 Y150.6 E0.01191
G1 X148.427 Y150.878 E0.01191
G1 X148.599 Y151.132 E0.01191
G1 X148.81 Y151.352 E0.01191
G1 X149.056 Y151.534 E0.01191
G1 X149.328 Y151.671 E0.01191
G1 X149.621 Y151.761 E0.01191
G1 X149.864 Y151.792 E0.00957
;WIPE_START
M204 S10000
G1 X150.119 Y152.149 F48000
;WIPE_END
M204 S2000
G1 X156.236 Y156.236
; custom gcode: feature_gcode
; External perimeter
;Perimeter
SET_VELOCITY_LIMIT ACCEL=2000 ACCEL_TO_DECEL=2000 SQUARE_CORNER_VELOCITY=8

; Overhang perimeter
; custom gcode end: feature_gcode

;TYPE:Internal perimeter
G1 F3600
