; generated by SuperSlicer 2.4 on 2023-10-28 at 05:29:58 UTC


;
;

;
;
; 

; external perimeters extrusion width = 0.40mm
; perimeters extrusion width = 0.46mm
; infill extrusion width = 0.64mm
; solid infill extrusion width = 0.56mm
; top infill extrusion width = 0.40mm
; first layer extrusion width = 0.50mm

; object:{"name":"Stem","id":"Stem.stl id:0 copy 0","object_center":[150.000000,150.000002,0.000000],"boundingbox_center":[150.000000,150.000002,11.900000],"boundingbox_size":[21.808901,21.808901,23.799999]}
; plater:{"center":[150.000000,150.000002,0.000000],"boundingbox_center":[150.000000,150.000002,11.900000],"boundingbox_size":[21.808901,21.808901,23.799999]}

M73 P0 R21


; Pre-Processed for Cancel-Object support by preprocess_cancellation v0.2.0
; 1 known objects
EXCLUDE_OBJECT_DEFINE NAME=Stem_stl_id_0_copy_0 CENTER=150.010,149.993 POLYGON=[[139.296,139.296],[139.296,160.704],[160.704,160.704],[160.704,139.296]]
;TYPE:Custom
; custom gcode: start_gcode
M190 S0
M104 S0
PRINT_START EXTRUDER_TEMP=225 BED_TEMP=60 FILAMENT=PLA SIZE=133.537_133.529_166.463_166.463 ENCLOSURE_TEMP=0
; custom gcode end: start_gcode
M107
G21 ; set units to millimeters
G90 ; use absolute coordinates
M83 ; use relative distances for extrusion
;_TOOLCHANGE 0
;LAYER_CHANGE
;Z:0.25
;HEIGHT:0.25
G1 Z0.25 F48000
; custom gcode: layer_gcode
;DISPLAY_PROGRESS TOTAL_LAYERS=119 CURRENT_LAYER=0
; custom gcode end: layer_gcode

G92 E0
M73 P1 R21
G1 E-1.6 F1800
G1 Z0.65 F48000
M204 S2000
G1 X140.854 Y140.123
G1 Z0.25
G1 E1.6 F1800
; custom gcode: feature_gcode
; External perimeter
;Skirt
SET_VELOCITY_LIMIT ACCEL=7000 ACCEL_TO_DECEL=7000 SQUARE_CORNER_VELOCITY=8

; Support material
; custom gcode end: feature_gcode

;TYPE:Skirt
;WIDTH:0.46
G1 F3600
G1 X135.58 Y145.425 E0.27162
G1 X134.987 Y146.258 E0.03712
G1 X134.435 Y147.35 E0.04446
G1 X134.124 Y148.339 E0.03766
G1 X133.952 Y149.419 E0.0397
G1 X133.965 Y150.691 E0.04619
G1 X134.124 Y151.662 E0.03574
G1 X134.458 Y152.702 E0.0397
G1 X135.013 Y153.791 E0.04438
G1 X136.027 Y155.071 E0.05931
G1 X145.425 Y164.42 E0.48149
G1 X146.258 Y165.013 E0.03713
G1 X147.35 Y165.565 E0.04447
G1 X148.339 Y165.876 E0.03766
G1 X149.419 Y166.048 E0.0397
G1 X150.691 Y166.035 E0.04619
G1 X151.662 Y165.876 E0.03574
G1 X152.702 Y165.542 E0.03969
G1 X153.791 Y164.987 E0.04439
G1 X155.071 Y163.973 E0.05931
G1 X164.42 Y154.575 E0.4815
G1 X165.013 Y153.742 E0.03712
G1 X165.565 Y152.649 E0.04448
G1 X165.876 Y151.661 E0.03766
G1 X166.048 Y150.581 E0.0397
G1 X166.035 Y149.309 E0.0462
G1 X165.876 Y148.338 E0.03573
G1 X165.542 Y147.297 E0.03971
G1 X164.987 Y146.209 E0.04438
G1 X163.973 Y144.929 E0.05932
G1 X154.574 Y135.579 E0.48155
G1 X153.681 Y134.946 E0.03974
G1 X152.704 Y134.458 E0.03969
G1 X151.756 Y134.15 E0.03621
G1 X150.513 Y133.948 E0.04573
G1 X149.523 Y133.943 E0.03597
G1 X148.539 Y134.082 E0.03608
G1 X147.296 Y134.458 E0.04717
G1 X146.209 Y135.013 E0.04433
G1 X144.929 Y136.027 E0.05932
G1 X140.896 Y140.081 E0.2077
G1 X141.184 Y140.367 F48000
G1 F3600
G1 X135.888 Y145.689 E0.27271
G1 X135.338 Y146.462 E0.03445
G1 X134.811 Y147.506 E0.04247
G1 X134.517 Y148.44 E0.03556
G1 X134.357 Y149.458 E0.03745
G1 X134.37 Y150.66 E0.04365
G1 X134.518 Y151.561 E0.03317
G1 X134.831 Y152.543 E0.03744
G1 X135.36 Y153.578 E0.04222
G1 X136.314 Y154.784 E0.05584
G1 X145.689 Y164.112 E0.48037
G1 X146.462 Y164.662 E0.03445
G1 X147.506 Y165.189 E0.04248
G1 X148.44 Y165.483 E0.03556
G1 X149.458 Y165.643 E0.03745
G1 X150.66 Y165.63 E0.04365
G1 X151.561 Y165.482 E0.03317
G1 X152.543 Y165.169 E0.03744
G1 X153.579 Y164.64 E0.04223
G1 X154.784 Y163.686 E0.05584
G1 X164.112 Y154.311 E0.48037
G1 X164.661 Y153.538 E0.03444
G1 X165.189 Y152.494 E0.04249
G1 X165.483 Y151.56 E0.03555
G1 X165.643 Y150.542 E0.03745
G1 X165.63 Y149.34 E0.04366
G1 X165.482 Y148.439 E0.03316
G1 X165.169 Y147.457 E0.03745
G1 X164.64 Y146.422 E0.04221
G1 X163.686 Y145.216 E0.05585
G1 X154.31 Y135.887 E0.48042
G1 X153.467 Y135.292 E0.03748
G1 X152.544 Y134.832 E0.03743
G1 X151.665 Y134.546 E0.0336
G1 X150.49 Y134.353 E0.04323
G1 X149.555 Y134.348 E0.03399
G1 X148.63 Y134.478 E0.0339
G1 X147.456 Y134.832 E0.04456
G1 X146.422 Y135.36 E0.04217
G1 X145.216 Y136.314 E0.05585
G1 X141.226 Y140.325 E0.20548
G1 X141.514 Y140.611 F48000
G1 F3600
G1 X136.197 Y145.954 E0.27379
G1 X135.69 Y146.667 E0.03178
G1 X135.186 Y147.661 E0.04049
G1 X134.911 Y148.54 E0.03346
G1 X134.761 Y149.498 E0.03519
G1 X134.775 Y150.629 E0.04111
G1 X134.911 Y151.461 E0.03059
G1 X135.205 Y152.384 E0.03519
G1 X135.706 Y153.366 E0.04005
G1 X136.602 Y154.496 E0.05238
G1 X145.954 Y163.803 E0.47924
G1 X146.667 Y164.31 E0.03178
G1 X147.661 Y164.814 E0.04049
G1 X148.54 Y165.089 E0.03345
G1 X149.498 Y165.239 E0.03519
G1 X150.629 Y165.225 E0.04111
G1 X151.461 Y165.089 E0.03059
G1 X152.384 Y164.795 E0.03518
G1 X153.366 Y164.294 E0.04006
G1 X154.496 Y163.398 E0.05237
G1 X163.803 Y154.046 E0.47924
G1 X164.31 Y153.333 E0.03177
G1 X164.814 Y152.338 E0.0405
G1 X165.089 Y151.46 E0.03345
G1 X165.239 Y150.502 E0.03519
G1 X165.225 Y149.37 E0.04112
G1 X165.089 Y148.54 E0.03059
G1 X164.795 Y147.616 E0.0352
G1 X164.294 Y146.634 E0.04005
G1 X163.398 Y145.504 E0.05238
G1 X154.045 Y136.196 E0.47929
G1 X153.252 Y135.637 E0.03523
G1 X152.385 Y135.206 E0.03518
G1 X151.574 Y134.942 E0.03099
G1 X150.468 Y134.759 E0.04072
G1 X149.586 Y134.753 E0.03201
G1 X148.721 Y134.874 E0.03173
G1 X147.615 Y135.206 E0.04195
G1 X146.634 Y135.706 E0.04
G1 X145.504 Y136.602 E0.05238
G1 X141.556 Y140.568 E0.20327
G1 X141.844 Y140.855 F48000
G1 F3600
G1 X136.505 Y146.218 E0.27488
G1 X136.041 Y146.871 E0.0291
G1 X135.562 Y147.817 E0.0385
G1 X135.305 Y148.641 E0.03135
G1 X135.166 Y149.537 E0.03294
G1 X135.18 Y150.599 E0.03857
G1 X135.305 Y151.36 E0.02802
G1 X135.579 Y152.224 E0.03293
G1 X136.053 Y153.154 E0.03789
G1 X136.889 Y154.209 E0.04891
G1 X146.218 Y163.495 E0.47811
G1 X146.871 Y163.959 E0.0291
G1 X147.817 Y164.438 E0.0385
G1 X148.641 Y164.695 E0.03135
G1 X149.537 Y164.834 E0.03294
G1 X150.599 Y164.82 E0.03857
G1 X151.36 Y164.695 E0.02802
G1 X152.224 Y164.421 E0.03293
G1 X153.154 Y163.947 E0.0379
G1 X154.209 Y163.111 E0.0489
G1 X163.495 Y153.782 E0.47811
G1 X163.959 Y153.129 E0.0291
G1 X164.438 Y152.183 E0.03851
G1 X164.695 Y151.359 E0.03134
G1 X164.834 Y150.463 E0.03294
G1 X164.82 Y149.401 E0.03858
G1 X164.695 Y148.64 E0.02801
G1 X164.421 Y147.776 E0.03294
G1 X163.947 Y146.846 E0.03788
G1 X163.111 Y145.791 E0.04891
G1 X153.78 Y136.504 E0.47816
M73 P2 R21
G1 X153.038 Y135.982 E0.03297
G1 X152.226 Y135.58 E0.03292
G1 X151.483 Y135.338 E0.02838
G1 X150.445 Y135.165 E0.03821
G1 X149.618 Y135.158 E0.03002
G1 X148.812 Y135.27 E0.02955
G1 X147.774 Y135.58 E0.03934
G1 X146.846 Y136.053 E0.03784
G1 X145.791 Y136.889 E0.04891
G1 X141.886 Y140.812 E0.20105
G1 X142.174 Y141.098 F48000
G1 F3600
G1 X136.813 Y146.483 E0.27596
G1 X136.392 Y147.076 E0.02643
G1 X135.937 Y147.972 E0.03651
G1 X135.698 Y148.741 E0.02925
G1 X135.57 Y149.576 E0.03068
G1 X135.585 Y150.568 E0.03603
G1 X135.699 Y151.26 E0.02545
G1 X135.953 Y152.065 E0.03068
G1 X136.399 Y152.941 E0.03572
G1 X137.176 Y153.922 E0.04544
G1 X146.483 Y163.186 E0.47698
G1 X147.076 Y163.608 E0.02643
G1 X147.972 Y164.063 E0.03652
G1 X148.742 Y164.302 E0.02924
G1 X149.576 Y164.43 E0.03068
G1 X150.568 Y164.415 E0.03603
G1 X151.26 Y164.301 E0.02544
G1 X152.065 Y164.047 E0.03068
G1 X152.942 Y163.601 E0.03573
G1 X153.922 Y162.824 E0.04543
G1 X163.187 Y153.517 E0.47698
G1 X163.608 Y152.924 E0.02642
G1 X164.063 Y152.027 E0.03652
G1 X164.302 Y151.259 E0.02924
G1 X164.43 Y150.424 E0.03068
G1 X164.415 Y149.432 E0.03604
G1 X164.301 Y148.741 E0.02544
G1 X164.047 Y147.935 E0.03068
G1 X163.601 Y147.059 E0.03572
G1 X162.824 Y146.078 E0.04544
G1 X153.516 Y136.813 E0.47704
G1 X152.823 Y136.327 E0.03072
G1 X152.066 Y135.953 E0.03067
G1 X151.391 Y135.734 E0.02578
G1 X150.422 Y135.57 E0.0357
G1 X149.65 Y135.563 E0.02804
G1 X148.903 Y135.666 E0.02738
G1 X147.934 Y135.953 E0.03674
G1 X147.059 Y136.399 E0.03567
G1 X146.078 Y137.176 E0.04544
G1 X142.216 Y141.056 E0.19884
G1 X142.504 Y141.342 F48000
G1 F3600
G1 X137.122 Y146.748 E0.27705
G1 X136.743 Y147.28 E0.02375
G1 X136.312 Y148.128 E0.03453
G1 X136.092 Y148.842 E0.02714
G1 X135.975 Y149.616 E0.02843
G1 X135.991 Y150.538 E0.03349
G1 X136.092 Y151.159 E0.02287
G1 X136.327 Y151.906 E0.02842
G1 X136.746 Y152.729 E0.03356
G1 X137.464 Y153.634 E0.04197
G1 X146.747 Y162.878 E0.47585
G1 X147.28 Y163.257 E0.02376
G1 X148.128 Y163.688 E0.03453
G1 X148.842 Y163.908 E0.02714
G1 X149.616 Y164.025 E0.02843
G1 X150.538 Y164.009 E0.03349
G1 X151.159 Y163.908 E0.02287
G1 X151.906 Y163.673 E0.02842
G1 X152.729 Y163.254 E0.03357
G1 X153.634 Y162.536 E0.04196
G1 X162.878 Y153.252 E0.47586
G1 X163.257 Y152.72 E0.02375
G1 X163.688 Y151.872 E0.03454
G1 X163.908 Y151.158 E0.02714
G1 X164.025 Y150.384 E0.02843
G1 X164.009 Y149.462 E0.0335
G1 X163.908 Y148.841 E0.02286
G1 X163.673 Y148.094 E0.02843
G1 X163.254 Y147.271 E0.03356
G1 X162.536 Y146.366 E0.04197
G1 X153.251 Y137.121 E0.47591
G1 X152.609 Y136.672 E0.02846
G1 X151.907 Y136.327 E0.02842
G1 X151.3 Y136.13 E0.02317
G1 X150.399 Y135.976 E0.0332
G1 X149.52 Y135.981 E0.03193
G1 X148.7 Y136.13 E0.03029
G1 X148.093 Y136.327 E0.02317
G1 X147.271 Y136.746 E0.03351
G1 X146.366 Y137.464 E0.04197
G1 X142.546 Y141.3 E0.19663
G1 X142.828 Y141.581 F48000
G1 F3600
G1 X137.583 Y146.834 E0.2696
G1 X137.094 Y147.485 E0.02959
G1 X136.75 Y148.133 E0.02665
G1 X136.486 Y148.943 E0.03092
G1 X136.379 Y149.655 E0.02617
G1 X136.396 Y150.507 E0.03095
G1 X136.7 Y151.746 E0.04635
G1 X137.092 Y152.517 E0.03139
G1 X137.751 Y153.347 E0.0385
G1 X146.834 Y162.417 E0.46622
G1 X147.485 Y162.906 E0.02959
G1 X148.133 Y163.25 E0.02666
G1 X148.943 Y163.514 E0.03092
G1 X149.655 Y163.621 E0.02617
G1 X150.507 Y163.604 E0.03095
G1 X151.746 Y163.3 E0.04635
G1 X152.517 Y162.908 E0.0314
G1 X153.347 Y162.249 E0.03849
G1 X162.417 Y153.166 E0.46622
G1 X162.906 Y152.515 E0.02958
G1 X163.25 Y151.867 E0.02666
G1 X163.514 Y151.057 E0.03092
G1 X163.621 Y150.345 E0.02617
G1 X163.604 Y149.493 E0.03096
G1 X163.3 Y148.254 E0.04635
G1 X162.908 Y147.483 E0.03139
G1 X162.249 Y146.653 E0.0385
G1 X153.166 Y137.583 E0.46622
G1 X152.592 Y137.14 E0.02635
G1 X151.96 Y136.792 E0.0262
G1 X151.209 Y136.526 E0.02894
G1 X150.377 Y136.382 E0.03069
G1 X149.552 Y136.386 E0.02995
G1 X148.252 Y136.701 E0.04857
G1 X147.483 Y137.092 E0.03135
G1 X146.653 Y137.751 E0.0385
G1 X142.87 Y141.539 E0.19444
M104 S225 ; set temperature
G1 E-1.6 F1800
M204 S10000
G1 Z0.65 F48000
; printing object Stem.stl id:0 copy 0
EXCLUDE_OBJECT_START NAME=Stem_stl_id_0_copy_0
M204 S2000
G1 X149.8 Y146.861
G1 Z0.25
G1 E1.6 F1800
; custom gcode: feature_gcode
; External perimeter
;Perimeter
SET_VELOCITY_LIMIT ACCEL=2000 ACCEL_TO_DECEL=2000 SQUARE_CORNER_VELOCITY=8

; Overhang perimeter
; custom gcode end: feature_gcode

;TYPE:Internal perimeter
;WIDTH:0.5
G1 F3600
G1 X149.272 Y146.94 E0.02128
G1 X148.766 Y147.107 E0.02128
G1 X148.294 Y147.357 E0.02128
G1 X147.872 Y147.684 E0.02128
G1 X147.512 Y148.077 E0.02128
G1 X147.222 Y148.525 E0.02128
G1 X147.013 Y149.015 E0.02129
G1 X146.89 Y149.534 E0.02128
G1 X146.856 Y150.067 E0.02128
G1 X146.912 Y150.597 E0.02128
G1 X147.057 Y151.11 E0.02128
G1 X147.287 Y151.592 E0.02129
G1 X147.595 Y152.027 E0.02128
G1 X147.973 Y152.405 E0.02128
G1 X148.408 Y152.713 E0.02128
G1 X148.89 Y152.943 E0.02128
G1 X149.403 Y153.088 E0.02128
G1 X149.933 Y153.144 E0.02128
G1 X150.466 Y153.111 E0.02128
G1 X150.985 Y152.987 E0.02128
G1 X151.475 Y152.778 E0.02128
G1 X151.942 Y152.477 E0.02216
G1 X152.374 Y152.053 E0.02415
G1 X152.643 Y151.705 E0.01752
G1 X152.893 Y151.234 E0.02128
G1 X153.06 Y150.728 E0.02128
G1 X153.139 Y150.2 E0.02128
G1 X153.127 Y149.667 E0.02128
G1 X153.026 Y149.143 E0.02129
G1 X152.838 Y148.644 E0.02128
G1 X152.699 Y148.407 E0.01094
G1 X152.568 Y148.184 E0.01034
G1 X152.224 Y147.776 E0.02128
G1 X151.816 Y147.432 E0.02128
G1 X151.356 Y147.162 E0.02128
G1 X150.857 Y146.974 E0.02128
G1 X150.333 Y146.873 E0.02128
G1 X149.86 Y146.863 E0.01889
G1 X149.828 Y147.308 F48000
G1 F3600
G1 X149.376 Y147.376 E0.01825
G1 X148.941 Y147.519 E0.01825
G1 X148.537 Y147.734 E0.01825
G1 X148.175 Y148.014 E0.01825
G1 X147.866 Y148.35 E0.01825
G1 X147.618 Y148.735 E0.01825
G1 X147.438 Y149.156 E0.01825
G1 X147.333 Y149.601 E0.01825
G1 X147.303 Y150.057 E0.01825
G1 X147.352 Y150.512 E0.01825
G1 X147.477 Y150.952 E0.01825
G1 X147.674 Y151.365 E0.01825
G1 X147.938 Y151.739 E0.01825
G1 X148.261 Y152.062 E0.01825
G1 X148.635 Y152.326 E0.01825
G1 X149.048 Y152.523 E0.01825
G1 X149.488 Y152.648 E0.01825
G1 X149.943 Y152.697 E0.01825
G1 X150.399 Y152.667 E0.01825
G1 X150.844 Y152.562 E0.01825
G1 X151.265 Y152.382 E0.01825
G1 X151.662 Y152.126 E0.01884
G1 X152.04 Y151.756 E0.02112
G1 X152.266 Y151.463 E0.01478
G1 X152.481 Y151.059 E0.01825
G1 X152.624 Y150.624 E0.01825
G1 X152.692 Y150.172 E0.01825
G1 X152.682 Y149.714 E0.01825
G1 X152.595 Y149.265 E0.01825
G1 X152.434 Y148.837 E0.01825
G1 X152.314 Y148.633 E0.00942
G1 X152.202 Y148.443 E0.00883
G1 X151.907 Y148.093 E0.01825
G1 X151.557 Y147.798 E0.01825
G1 X151.163 Y147.566 E0.01825
G1 X150.735 Y147.405 E0.01825
G1 X150.286 Y147.318 E0.01825
G1 X149.888 Y147.31 E0.01586
G1 X149.857 Y147.755 F48000
G1 F3600
G1 X149.48 Y147.812 E0.01522
G1 X149.117 Y147.931 E0.01522
G1 X148.78 Y148.11 E0.01522
G1 X148.478 Y148.343 E0.01522
G1 X148.22 Y148.624 E0.01522
G1 X148.014 Y148.945 E0.01522
G1 X147.864 Y149.296 E0.01522
G1 X147.776 Y149.667 E0.01522
G1 X147.751 Y150.048 E0.01522
G1 X147.792 Y150.427 E0.01522
G1 X147.896 Y150.794 E0.01522
G1 X148.06 Y151.138 E0.01522
G1 X148.28 Y151.45 E0.01522
G1 X148.55 Y151.72 E0.01522
G1 X148.862 Y151.94 E0.01522
G1 X149.206 Y152.104 E0.01522
G1 X149.573 Y152.208 E0.01522
G1 X149.952 Y152.249 E0.01522
G1 X150.333 Y152.224 E0.01522
G1 X150.704 Y152.136 E0.01522
G1 X151.055 Y151.986 E0.01522
G1 X151.382 Y151.776 E0.01551
G1 X151.705 Y151.458 E0.01808
G1 X151.89 Y151.22 E0.01204
G1 X152.069 Y150.883 E0.01522
G1 X152.188 Y150.52 E0.01522
G1 X152.245 Y150.143 E0.01522
G1 X152.237 Y149.762 E0.01522
G1 X152.164 Y149.387 E0.01522
G1 X152.029 Y149.03 E0.01522
G1 X151.929 Y148.859 E0.00791
G1 X151.836 Y148.701 E0.00731
G1 X151.59 Y148.41 E0.01522
G1 X151.299 Y148.164 E0.01522
G1 X150.97 Y147.971 E0.01522
G1 X150.613 Y147.836 E0.01522
G1 X150.238 Y147.763 E0.01522
G1 X149.917 Y147.757 E0.01283
G1 E-1.6 F1800
M204 S10000
G1 Z0.65 F48000
M204 S2000
G1 X149.962 Y151.801
G1 Z0.25
G1 E1.6 F1800
; custom gcode: feature_gcode
; External perimeter
;ExternalPerimeter
SET_VELOCITY_LIMIT ACCEL=1000 ACCEL_TO_DECEL=1000 SQUARE_CORNER_VELOCITY=8

; Perimeter
; custom gcode end: feature_gcode

;TYPE:External perimeter
G1 F3600
G1 X150.267 Y151.781 E0.01219
G1 X150.564 Y151.711 E0.01219
G1 X150.845 Y151.591 E0.01219
G1 X151.102 Y151.425 E0.01219
G1 X151.371 Y151.161 E0.01505
G1 X151.513 Y150.977 E0.00929
G1 X151.657 Y150.707 E0.01219
G1 X151.752 Y150.417 E0.01219
G1 X151.798 Y150.115 E0.01219
G1 X151.791 Y149.809 E0.01219
G1 X151.733 Y149.509 E0.01219
G1 X151.625 Y149.223 E0.01219
G1 X151.544 Y149.085 E0.00639
G1 X151.471 Y148.96 E0.0058
G1 X151.274 Y148.726 E0.01219
G1 X151.04 Y148.529 E0.01219
G1 X150.777 Y148.375 E0.01219
G1 X150.491 Y148.267 E0.01219
G1 X150.191 Y148.209 E0.01219
G1 X149.885 Y148.202 E0.01219
G1 X149.583 Y148.248 E0.01219
G1 X149.293 Y148.343 E0.01219
G1 X149.023 Y148.487 E0.01219
G1 X148.782 Y148.673 E0.01219
G1 X148.575 Y148.898 E0.01219
G1 X148.409 Y149.155 E0.01219
G1 X148.289 Y149.436 E0.01219
G1 X148.219 Y149.733 E0.01219
G1 X148.199 Y150.038 E0.01219
G1 X148.232 Y150.342 E0.01219
G1 X148.315 Y150.636 E0.01219
G1 X148.446 Y150.912 E0.01219
G1 X148.623 Y151.161 E0.01219
G1 X148.839 Y151.377 E0.01219
G1 X149.088 Y151.554 E0.01219
G1 X149.364 Y151.685 E0.01219
G1 X149.658 Y151.768 E0.01219
G1 X149.902 Y151.795 E0.00979
;WIPE_START
M204 S10000
G1 X150.164 Y152.146 F48000
;WIPE_END
M204 S2000
G1 X158.819 Y150
; custom gcode: feature_gcode
; External perimeter
;Perimeter
SET_VELOCITY_LIMIT ACCEL=2000 ACCEL_TO_DECEL=2000 SQUARE_CORNER_VELOCITY=8

; Overhang perimeter
