; generated by SuperSlicer 2.4 on 2023-10-26 at 22:52:52 UTC


;
;

;
;
; 

; external perimeters extrusion width = 0.40mm
; perimeters extrusion width = 0.46mm
; infill extrusion width = 0.64mm
; solid infill extrusion width = 0.56mm
; top infill extrusion width = 0.40mm
; first layer extrusion width = 0.50mm

; object:{"name":"Calibration","id":"Calibration.stl id:0 copy 0","object_center":[150.000000,150.000000,0.000000],"boundingbox_center":[150.000000,150.000000,5.000000],"boundingbox_size":[42.890872,42.890872,10.000000]}
; plater:{"center":[150.000000,150.000000,0.000000],"boundingbox_center":[150.000000,150.000000,5.000000],"boundingbox_size":[42.890872,42.890872,10.000000]}

M73 P0 R17


; Pre-Processed for Cancel-Object support by preprocess_cancellation v0.2.0
; 1 known objects
EXCLUDE_OBJECT_DEFINE NAME=Calibration_stl_id_0_copy_0 CENTER=148.754,148.707 POLYGON=[[128.76,128.76],[128.76,171.238],[171.24,171.238],[171.24,128.76]]
;TYPE:Custom
; custom gcode: start_gcode
M190 S0
M104 S0
PRINT_START EXTRUDER_TEMP=225 BED_TEMP=60 FILAMENT=PLA SIZE=123.834_123.834_176.166_176.166 ENCLOSURE_TEMP=0
; custom gcode end: start_gcode
M107
G21 ; set units to millimeters
G90 ; use absolute coordinates
M83 ; use relative distances for extrusion
;_TOOLCHANGE 0
;LAYER_CHANGE
;Z:0.25
;HEIGHT:0.25
G1 Z0.25 F48000
; custom gcode: layer_gcode
;DISPLAY_PROGRESS TOTAL_LAYERS=50 CURRENT_LAYER=0
; custom gcode end: layer_gcode

G92 E0
M73 P1 R16
G1 E-1.6 F1800
G1 Z0.65 F48000
M204 S2000
G1 X134.749 Y134.411
M73 P2 R16
G1 Z0.25
G1 E1.6 F1800
; custom gcode: feature_gcode
; External perimeter
;Skirt
SET_VELOCITY_LIMIT ACCEL=7000 ACCEL_TO_DECEL=7000 SQUARE_CORNER_VELOCITY=8

; Support material
; custom gcode end: feature_gcode

;TYPE:Skirt
;WIDTH:0.46
G1 F3600
G1 X125.692 Y143.491 E0.47666
G1 X125.168 Y144.222 E0.03344
G1 X124.646 Y145.298 E0.04442
G1 X124.308 Y146.604 E0.05017
G1 X124.255 Y147.955 E0.05024
G1 X124.411 Y149 E0.03928
G1 X124.683 Y149.86 E0.03351
G1 X125.074 Y150.67 E0.03344
G1 X125.512 Y151.325 E0.0293
G1 X126.088 Y151.999 E0.03294
G1 X148.001 Y173.912 E1.15178
G1 X148.673 Y174.487 E0.03288
G1 X149.469 Y174.998 E0.03514
G1 X150.567 Y175.469 E0.04442
G1 X151.708 Y175.717 E0.04341
G1 X152.905 Y175.745 E0.04449
G1 X153.95 Y175.589 E0.03928
G1 X154.808 Y175.318 E0.03344
G1 X155.871 Y174.768 E0.04449
G1 X156.717 Y174.129 E0.03941
G1 X173.912 Y156.949 E0.9034
G1 X174.488 Y156.275 E0.03294
G1 X174.926 Y155.62 E0.0293
G1 X175.317 Y154.809 E0.03344
G1 X175.692 Y153.396 E0.05437
G1 X175.745 Y152.045 E0.05024
G1 X175.589 Y151 E0.03928
G1 X175.317 Y150.14 E0.0335
G1 X174.926 Y149.33 E0.03344
G1 X174.488 Y148.675 E0.0293
G1 X173.912 Y148.001 E0.03294
G1 X151.999 Y126.088 E1.15178
G1 X151.325 Y125.512 E0.03294
G1 X150.434 Y124.945 E0.03928
G1 X149.607 Y124.589 E0.03344
G1 X148.446 Y124.308 E0.04442
G1 X147.097 Y124.255 E0.05017
G1 X145.768 Y124.49 E0.05017
G1 X144.519 Y125.002 E0.05017
G1 X143.723 Y125.513 E0.03514
G1 X143.051 Y126.088 E0.03288
G1 X134.791 Y134.368 E0.43469
G1 X135.078 Y134.655 F48000
G1 F3600
G1 X125.999 Y143.757 E0.47783
G1 X125.51 Y144.442 E0.03129
G1 X125.022 Y145.453 E0.04173
G1 X124.708 Y146.677 E0.04694
G1 X124.661 Y147.941 E0.04701
G1 X124.808 Y148.914 E0.03659
G1 X125.064 Y149.718 E0.03135
G1 X125.431 Y150.475 E0.03129
G1 X126.375 Y151.712 E0.05784
G1 X148.288 Y173.625 E1.15178
G1 X148.928 Y174.17 E0.03126
G1 X149.65 Y174.634 E0.03191
G1 X150.681 Y175.079 E0.04173
G1 X151.766 Y175.315 E0.04126
G1 X152.89 Y175.339 E0.0418
G1 X153.864 Y175.192 E0.03659
G1 X154.666 Y174.937 E0.03129
G1 X155.664 Y174.419 E0.04179
G1 X156.451 Y173.821 E0.03672
G1 X173.625 Y156.662 E0.90232
G1 X174.569 Y155.425 E0.05783
G1 X175.03 Y154.415 E0.04126
G1 X175.292 Y153.323 E0.04173
G1 X175.339 Y152.059 E0.04701
G1 X175.192 Y151.086 E0.03659
G1 X174.936 Y150.282 E0.03135
G1 X174.569 Y149.525 E0.03129
G1 X173.625 Y148.288 E0.05784
G1 X151.712 Y126.375 E1.15178
G1 X151.07 Y125.829 E0.03133
G1 X150.239 Y125.302 E0.03659
G1 X149.465 Y124.97 E0.03128
G1 X148.374 Y124.708 E0.04173
G1 X147.111 Y124.661 E0.04694
G1 X145.868 Y124.884 E0.04694
G1 X144.701 Y125.366 E0.04694
G1 X143.978 Y125.83 E0.03191
G1 X143.338 Y126.375 E0.03126
G1 X135.121 Y134.613 E0.43245
G1 X135.401 Y134.893 F48000
G1 F3600
G1 X126.486 Y143.815 E0.46881
G1 X125.852 Y144.662 E0.0393
G1 X125.397 Y145.609 E0.03904
G1 X125.108 Y146.749 E0.04372
G1 X125.067 Y147.926 E0.04378
G1 X125.205 Y148.828 E0.03389
G1 X125.445 Y149.576 E0.0292
G1 X125.788 Y150.28 E0.02913
G1 X126.663 Y151.425 E0.05354
G1 X148.575 Y173.337 E1.15178
G1 X149.183 Y173.854 E0.02964
G1 X149.832 Y174.271 E0.02868
G1 X150.796 Y174.689 E0.03904
G1 X151.824 Y174.913 E0.03911
G1 X152.876 Y174.933 E0.0391
G1 X153.777 Y174.795 E0.03389
G1 X154.524 Y174.556 E0.02913
G1 X155.457 Y174.069 E0.0391
G1 X156.185 Y173.514 E0.03403
G1 X173.337 Y156.374 E0.90125
G1 X174.212 Y155.23 E0.05354
G1 X174.65 Y154.273 E0.0391
G1 X174.892 Y153.251 E0.03904
G1 X174.933 Y152.074 E0.04378
G1 X174.795 Y151.172 E0.0339
G1 X174.555 Y150.424 E0.0292
G1 X174.212 Y149.72 E0.02913
G1 X173.337 Y148.575 E0.05354
G1 X151.425 Y126.663 E1.15178
G1 X150.815 Y126.145 E0.02971
G1 X150.044 Y125.658 E0.03389
G1 X149.323 Y125.35 E0.02913
G1 X148.302 Y125.108 E0.03904
G1 X147.126 Y125.067 E0.04372
G1 X145.969 Y125.278 E0.04372
G1 X144.883 Y125.729 E0.04372
G1 X144.233 Y126.146 E0.02868
G1 X143.626 Y126.663 E0.02964
G1 X135.444 Y134.85 E0.43021
G1 X135.731 Y135.137 F48000
G1 F3600
G1 X126.793 Y144.081 E0.46996
G1 X126.193 Y144.881 E0.03715
G1 X125.773 Y145.764 E0.03635
G1 X125.508 Y146.821 E0.04049
G1 X125.473 Y147.912 E0.04056
G1 X125.602 Y148.741 E0.0312
G1 X126.015 Y149.849 E0.04396
G1 X126.461 Y150.561 E0.0312
G1 X126.95 Y151.137 E0.02809
G1 X148.863 Y173.05 E1.15178
G1 X149.438 Y173.537 E0.02803
G1 X150.014 Y173.908 E0.02545
G1 X150.91 Y174.299 E0.03635
G1 X151.882 Y174.511 E0.03695
G1 X152.861 Y174.527 E0.03641
G1 X153.691 Y174.398 E0.0312
G1 X154.382 Y174.175 E0.02698
G1 X155.249 Y173.72 E0.03641
G1 X155.919 Y173.207 E0.03134
G1 X173.05 Y156.087 E0.90017
G1 X173.856 Y155.036 E0.04924
G1 X174.269 Y154.131 E0.03695
G1 X174.492 Y153.179 E0.03635
G1 X174.527 Y152.088 E0.04056
G1 X174.398 Y151.259 E0.0312
G1 X173.985 Y150.151 E0.04396
G1 X173.539 Y149.439 E0.0312
G1 X173.05 Y148.863 E0.02809
G1 X151.137 Y126.95 E1.15178
G1 X150.561 Y126.461 E0.02809
G1 X149.849 Y126.015 E0.0312
G1 X149.181 Y125.731 E0.02698
G1 X148.229 Y125.508 E0.03635
G1 X147.14 Y125.473 E0.04049
G1 X146.069 Y125.671 E0.04049
G1 X145.064 Y126.092 E0.04049
G1 X144.488 Y126.463 E0.02545
G1 X143.913 Y126.95 E0.02803
G1 X135.773 Y135.095 E0.42797
M104 S225 ; set temperature
G1 E-1.6 F1800
M204 S10000
G1 Z0.65 F48000
; printing object Calibration.stl id:0 copy 0
EXCLUDE_OBJECT_START NAME=Calibration_stl_id_0_copy_0
; acceleration to travel
G1 X149.496 Y149.424
; decel to extrusion
M204 S2000
G1 X152.241 Y152.289
; end travel
G1 Z0.25
G1 E1.6 F1800
; custom gcode: feature_gcode
; External perimeter
;Perimeter
SET_VELOCITY_LIMIT ACCEL=2000 ACCEL_TO_DECEL=2000 SQUARE_CORNER_VELOCITY=8

; Overhang perimeter
; custom gcode end: feature_gcode

;TYPE:Internal perimeter
;WIDTH:0.5
G1 F3600
G1 X151.691 Y152.337 E0.02253
G1 X151.155 Y152.435 E0.02222
G1 X150.632 Y152.583 E0.02221
G1 X150.124 Y152.778 E0.02222
G1 X149.636 Y153.02 E0.02221
G1 X149.174 Y153.306 E0.02221
G1 X148.732 Y153.639 E0.02258
G1 X148.161 Y154.184 E0.03223
G1 X147.807 Y154.61 E0.02259
G1 X147.496 Y155.065 E0.02253
G1 X147.233 Y155.542 E0.02222
G1 X147.015 Y156.04 E0.02221
G1 X146.844 Y156.557 E0.02221
G1 X146.722 Y157.087 E0.02221
G1 X146.648 Y157.635 E0.02258
G1 X146.635 Y158.425 E0.03223
G1 X146.689 Y158.975 E0.02258
G1 X146.792 Y159.509 E0.02221
G1 X146.945 Y160.031 E0.02221
G1 X147.146 Y160.537 E0.02222
G1 X147.396 Y161.029 E0.02254
G1 X147.688 Y161.489 E0.02222
G1 X148.02 Y161.919 E0.02221
G1 X148.398 Y162.324 E0.02258
G1 X149 Y162.835 E0.03223
G1 X149.46 Y163.142 E0.02258
G1 X149.938 Y163.4 E0.02221
G1 X150.439 Y163.613 E0.02221
G1 X150.958 Y163.779 E0.02222
G1 X151.497 Y163.897 E0.02254
G1 X152.037 Y163.963 E0.02223
G1 X152.59 Y163.978 E0.02258
G1 X153.377 Y163.909 E0.03222
G1 X153.918 Y163.798 E0.02258
G1 X154.439 Y163.639 E0.02221
G1 X154.942 Y163.433 E0.02221
G1 X155.424 Y163.18 E0.02223
G1 X155.887 Y162.88 E0.02254
G1 X156.314 Y162.542 E0.02222
G1 X156.714 Y162.16 E0.02258
G1 X157.218 Y161.552 E0.03223
G1 X157.519 Y161.088 E0.02258
G1 X157.772 Y160.607 E0.02221
G1 X157.98 Y160.103 E0.02223
G1 X158.141 Y159.575 E0.02254
G1 X158.251 Y159.042 E0.02223
G1 X158.31 Y158.501 E0.02221
G1 X158.319 Y157.957 E0.02221
G1 X158.278 Y157.415 E0.02221
G1 X158.186 Y156.879 E0.02221
G1 X158.043 Y156.344 E0.02258
G1 X157.751 Y155.611 E0.03223
G1 X157.489 Y155.124 E0.02259
G1 X157.183 Y154.664 E0.02253
G1 X156.84 Y154.241 E0.02223
G1 X156.46 Y153.852 E0.02221
G1 X156.038 Y153.495 E0.02258
G1 X155.381 Y153.057 E0.03223
G1 X154.888 Y152.806 E0.02258
G1 X154.383 Y152.604 E0.02221
G1 X153.861 Y152.451 E0.02221
G1 X153.327 Y152.347 E0.02221
G1 X152.785 Y152.293 E0.02221
G1 X152.301 Y152.29 E0.01978
G1 E-1.6 F1800
M204 S10000
G1 Z0.65 F48000
M204 S2000
G1 X152.197 Y163.521
G1 Z0.25
G1 E1.6 F1800
; custom gcode: feature_gcode
; External perimeter
;ExternalPerimeter
SET_VELOCITY_LIMIT ACCEL=1000 ACCEL_TO_DECEL=1000 SQUARE_CORNER_VELOCITY=8

; Perimeter
; custom gcode end: feature_gcode

;TYPE:External perimeter
G1 F3600
G1 X152.577 Y163.531 E0.01552
G1 X153.312 Y163.467 E0.03012
G1 X153.808 Y163.365 E0.02068
G1 X154.289 Y163.218 E0.02052
G1 X154.754 Y163.028 E0.02051
G1 X155.199 Y162.795 E0.02052
G1 X155.627 Y162.517 E0.02083
G1 X156.021 Y162.205 E0.02052
G1 X156.387 Y161.855 E0.02067
G1 X156.858 Y161.287 E0.03012
G1 X157.134 Y160.862 E0.02068
G1 X157.368 Y160.418 E0.02051
G1 X157.559 Y159.953 E0.02052
G1 X157.708 Y159.465 E0.02083
G1 X157.809 Y158.973 E0.02052
G1 X157.864 Y158.473 E0.02051
G1 X157.873 Y157.971 E0.02051
G1 X157.834 Y157.47 E0.02052
G1 X157.75 Y156.974 E0.02052
G1 X157.618 Y156.485 E0.02068
G1 X157.346 Y155.8 E0.03012
G1 X157.106 Y155.354 E0.02068
G1 X156.823 Y154.929 E0.02082
G1 X156.506 Y154.539 E0.02052
G1 X156.155 Y154.179 E0.02052
G1 X155.769 Y153.852 E0.02067
G1 X155.155 Y153.443 E0.03012
G1 X154.704 Y153.213 E0.02068
G1 X154.237 Y153.027 E0.02052
G1 X153.755 Y152.885 E0.02051
G1 X153.261 Y152.789 E0.02051
G1 X152.761 Y152.739 E0.02052
G1 X152.259 Y152.736 E0.02052
G1 X151.751 Y152.78 E0.02082
G1 X151.256 Y152.871 E0.02052
G1 X150.773 Y153.007 E0.02051
G1 X150.303 Y153.187 E0.02052
G1 X149.853 Y153.41 E0.02052
G1 X149.426 Y153.674 E0.02051
G1 X149.022 Y153.98 E0.02068
G1 X148.488 Y154.489 E0.03012
G1 X148.164 Y154.879 E0.02068
G1 X147.877 Y155.3 E0.02082
G1 X147.633 Y155.74 E0.02052
G1 X147.432 Y156.2 E0.02051
G1 X147.274 Y156.677 E0.02052
M73 P3 R16
G1 X147.161 Y157.167 E0.02052
G1 X147.094 Y157.669 E0.02068
G1 X147.081 Y158.406 E0.03012
G1 X147.131 Y158.911 E0.02068
G1 X147.227 Y159.404 E0.02051
G1 X147.367 Y159.886 E0.02052
G1 X147.553 Y160.353 E0.02052
G1 X147.784 Y160.808 E0.02083
G1 X148.053 Y161.232 E0.02052
G1 X148.361 Y161.63 E0.02052
G1 X148.706 Y162 E0.02068
G1 X149.269 Y162.478 E0.03012
G1 X149.69 Y162.759 E0.02068
G1 X150.132 Y162.997 E0.02051
G1 X150.595 Y163.194 E0.02052
G1 X151.073 Y163.347 E0.02052
G1 X151.572 Y163.456 E0.02082
G1 X152.071 Y163.517 E0.02052
G1 X152.137 Y163.519 E0.00271
;WIPE_START
M204 S10000
G1 X152.387 Y163.872 F48000
;WIPE_END
G1 E-1.6 F1800
G1 Z0.65 F48000
; acceleration to travel
G1 X156.412 Y144.507
; decel to extrusion
M204 S2000
G1 X157.217 Y140.634
; end travel
G1 Z0.25
G1 E1.6 F1800
; custom gcode: feature_gcode
; External perimeter
;Perimeter
SET_VELOCITY_LIMIT ACCEL=2000 ACCEL_TO_DECEL=2000 SQUARE_CORNER_VELOCITY=8

; Overhang perimeter
; custom gcode end: feature_gcode

;TYPE:Internal perimeter
G1 F3600
G1 X156.81 Y140.643 E0.01662
G1 X156.275 Y140.77 E0.02248
G1 X155.892 Y140.953 E0.01731
G1 X155.456 Y141.29 E0.02248
G1 X155.194 Y141.601 E0.01662
G1 X154.988 Y141.952 E0.01662
G1 X154.815 Y142.475 E0.02248
G1 X154.772 Y142.88 E0.01662
G1 X154.797 Y143.269 E0.01592
G1 X154.887 Y143.649 E0.01592
G1 X155.04 Y144.007 E0.01592
G1 X155.261 Y144.349 E0.01662
G1 X155.651 Y144.739 E0.02248
G1 X156.007 Y144.969 E0.01731
G1 X156.522 Y145.163 E0.02248
G1 X156.925 Y145.223 E0.01662
G1 X157.315 Y145.215 E0.01592
G1 X157.698 Y145.141 E0.01592
G1 X158.078 Y144.997 E0.01662
G1 X158.541 Y144.699 E0.02248
G1 X158.841 Y144.399 E0.01731
G1 X159.14 Y143.936 E0.02248
G1 X159.289 Y143.539 E0.01731
G1 X159.371 Y142.995 E0.02248
G1 X159.344 Y142.572 E0.01731
G1 X159.194 Y142.042 E0.02248
G1 X159.003 Y141.682 E0.01662
G1 X158.764 Y141.374 E0.01592
G1 X158.477 Y141.11 E0.01592
G1 X158.135 Y140.889 E0.01662
G1 X157.62 Y140.695 E0.02248
G1 X157.277 Y140.643 E0.01417
G1 E-1.6 F1800
M204 S10000
G1 Z0.65 F48000
M204 S2000
G1 X156.953 Y144.776
G1 Z0.25
G1 E1.6 F1800
; custom gcode: feature_gcode
; External perimeter
;ExternalPerimeter
SET_VELOCITY_LIMIT ACCEL=1000 ACCEL_TO_DECEL=1000 SQUARE_CORNER_VELOCITY=8

; Perimeter
; custom gcode end: feature_gcode

;TYPE:External perimeter
G1 F3600
G1 X157.267 Y144.77 E0.01282
G1 X157.575 Y144.71 E0.01282
G1 X157.876 Y144.597 E0.01313
G1 X158.259 Y144.35 E0.0186
G1 X158.492 Y144.117 E0.01343
G1 X158.739 Y143.734 E0.0186
G1 X158.855 Y143.426 E0.01343
G1 X158.922 Y142.976 E0.0186
G1 X158.901 Y142.647 E0.01343
G1 X158.777 Y142.209 E0.0186
G1 X158.627 Y141.925 E0.01313
G1 X158.434 Y141.677 E0.01282
G1 X158.203 Y141.464 E0.01282
G1 X157.933 Y141.29 E0.01313
G1 X157.507 Y141.129 E0.0186
G1 X157.189 Y141.081 E0.01313
G1 X156.867 Y141.088 E0.01313
G1 X156.424 Y141.194 E0.0186
G1 X156.127 Y141.336 E0.01343
G1 X155.767 Y141.614 E0.0186
G1 X155.56 Y141.86 E0.01313
G1 X155.397 Y142.137 E0.01312
G1 X155.254 Y142.57 E0.0186
G1 X155.22 Y142.89 E0.01313
G1 X155.24 Y143.203 E0.01282
G1 X155.313 Y143.508 E0.01282
G1 X155.436 Y143.797 E0.01282
G1 X155.61 Y144.067 E0.01313
G1 X155.933 Y144.39 E0.0186
G1 X156.209 Y144.568 E0.01343
G1 X156.635 Y144.729 E0.0186
G1 X156.894 Y144.768 E0.01068
;WIPE_START
M204 S10000
G1 X157.141 Y145.13 F48000
;WIPE_END
G1 E-1.6 F1800
G1 Z0.65 F48000
M204 S2000
G1 X150.096 Y133.81
G1 Z0.25
G1 E1.6 F1800
; custom gcode: feature_gcode
; External perimeter
;Perimeter
SET_VELOCITY_LIMIT ACCEL=2000 ACCEL_TO_DECEL=2000 SQUARE_CORNER_VELOCITY=8

; Overhang perimeter
; custom gcode end: feature_gcode

;TYPE:Internal perimeter
G1 F3600
G1 X149.718 Y133.828 E0.01545
G1 X149.349 Y133.914 E0.01545
G1 X149.003 Y134.067 E0.01545
G1 X148.691 Y134.281 E0.01545
G1 X148.423 Y134.548 E0.01545
G1 X148.199 Y134.876 E0.01621
G1 X148.007 Y135.371 E0.02166
G1 X147.952 Y135.764 E0.01621
G1 X147.97 Y136.142 E0.01545
G1 X148.057 Y136.511 E0.01545
G1 X148.21 Y136.857 E0.01545
G1 X148.435 Y137.184 E0.01618
G1 X148.821 Y137.537 E0.02139
G1 X149.174 Y137.734 E0.01648
G1 X149.534 Y137.854 E0.0155
G1 X149.909 Y137.906 E0.01545
G1 X150.287 Y137.887 E0.01545
G1 X150.655 Y137.8 E0.01545
G1 X151.001 Y137.646 E0.01545
G1 X151.327 Y137.422 E0.01618
G1 X151.68 Y137.035 E0.02136
G1 X151.873 Y136.69 E0.01618
G1 X151.994 Y136.331 E0.01545
G1 X152.047 Y135.956 E0.01545
G1 X152.031 Y135.578 E0.01545
G1 X151.944 Y135.209 E0.01545
G1 X151.792 Y134.863 E0.01545
G1 X151.578 Y134.549 E0.0155
G1 X151.292 Y134.265 E0.01647
G1 X150.846 Y133.989 E0.02138
G1 X150.471 Y133.863 E0.01618
G1 X150.155 Y133.819 E0.013
G1 E-1.6 F1800
M204 S10000
G1 Z0.65 F48000
M204 S2000
G1 X149.929 Y137.458
G1 Z0.25
G1 E1.6 F1800
; custom gcode: feature_gcode
; External perimeter
;ExternalPerimeter
SET_VELOCITY_LIMIT ACCEL=1000 ACCEL_TO_DECEL=1000 SQUARE_CORNER_VELOCITY=8

; Perimeter
; custom gcode end: feature_gcode

;TYPE:External perimeter
G1 F3600
G1 X150.224 Y137.444 E0.01207
G1 X150.512 Y137.375 E0.01207
G1 X150.782 Y137.255 E0.01207
G1 X151.032 Y137.083 E0.01239
G1 X151.315 Y136.773 E0.01717
G1 X151.464 Y136.508 E0.01239
G1 X151.558 Y136.227 E0.01207
G1 X151.6 Y135.935 E0.01207
G1 X151.586 Y135.639 E0.01207
G1 X151.519 Y135.351 E0.01207
G1 X151.4 Y135.08 E0.01207
G1 X151.233 Y134.836 E0.01209
