; HEADER_BLOCK_START
; generated by OrcaSlicer 1.7.0 on 2023-10-02 at 10:45:00
; total layer number: 75
; HEADER_BLOCK_END

; THUMBNAIL_BLOCK_START
; THUMBNAIL_BLOCK_END

; external perimeters extrusion width = 0.40mm
; perimeters extrusion width = 0.40mm
; infill extrusion width = 0.64mm
; solid infill extrusion width = 0.56mm
; top infill extrusion width = 0.40mm
; first layer extrusion width = 0.50mm

; EXECUTABLE_BLOCK_START
EXCLUDE_OBJECT_DEFINE NAME=LED_Lamp_Kit-001_Design_Guide.stl_id_0_copy_0 CENTER=150,150 POLYGON=[[115.102,150.363],[115.107,149.306],[115.144,148.25],[115.213,147.196],[115.313,146.146],[115.446,145.101],[115.609,144.063],[115.803,143.033],[116.026,142.012],[116.28,141.002],[116.562,140.004],[116.875,139.013],[117.221,138.019],[117.595,137.041],[117.996,136.081],[118.422,135.139],[118.873,134.215],[119.348,133.312],[119.845,132.43],[120.364,131.569],[120.902,130.73],[121.459,129.914],[122.034,129.121],[122.625,128.352],[123.286,127.541],[123.936,126.79],[124.203,126.494],[124.278,126.413],[124.386,126.295],[124.404,126.276],[124.456,126.22],[124.541,126.129],[124.622,126.042],[124.656,126.006],[124.797,125.858],[124.959,125.69],[125.136,125.509],[125.322,125.322],[125.509,125.136],[125.69,124.959],[125.729,124.921],[125.858,124.797],[126.006,124.656],[126.129,124.541],[126.22,124.456],[126.276,124.404],[126.295,124.386],[126.44,124.253],[126.494,124.203],[126.801,123.927],[127.169,123.604],[127.932,122.963],[128.719,122.339],[129.527,121.736],[130.355,121.154],[131.164,120.619],[131.994,120.103],[132.846,119.607],[133.717,119.131],[134.608,118.678],[135.517,118.247],[136.445,117.84],[137.389,117.458],[138.35,117.102],[139.325,116.773],[140.314,116.471],[141.316,116.198],[142.33,115.953],[143.354,115.739],[144.386,115.554],[145.427,115.401],[146.473,115.279],[147.525,115.188],[148.58,115.129],[149.637,115.102],[150.694,115.107],[151.75,115.144],[152.804,115.213],[153.854,115.313],[154.899,115.446],[155.937,115.609],[156.967,115.803],[157.988,116.026],[158.998,116.28],[159.996,116.562],[160.987,116.875],[161.981,117.221],[162.959,117.595],[163.919,117.996],[164.861,118.422],[165.785,118.873],[166.688,119.348],[167.57,119.845],[168.431,120.364],[169.27,120.902],[170.086,121.459],[170.879,122.034],[171.648,122.625],[172.459,123.286],[173.21,123.936],[173.958,124.622],[174.678,125.322],[174.879,125.524],[175.079,125.729],[175.747,126.44],[176.396,127.169],[177.037,127.932],[177.661,128.719],[178.264,129.527],[178.846,130.355],[179.381,131.164],[179.897,131.994],[180.393,132.846],[180.869,133.717],[181.322,134.608],[181.753,135.517],[182.16,136.445],[182.542,137.389],[182.898,138.35],[183.227,139.325],[183.529,140.314],[183.802,141.316],[184.047,142.33],[184.261,143.354],[184.446,144.386],[184.599,145.427],[184.721,146.473],[184.812,147.525],[184.871,148.58],[184.898,149.637],[184.893,150.694],[184.856,151.75],[184.787,152.804],[184.687,153.854],[184.554,154.899],[184.391,155.937],[184.197,156.967],[183.974,157.988],[183.72,158.998],[183.438,159.996],[183.125,160.987],[182.779,161.981],[182.405,162.959],[182.004,163.919],[181.578,164.861],[181.127,165.785],[180.652,166.688],[180.155,167.57],[179.636,168.431],[179.098,169.27],[178.541,170.086],[177.966,170.879],[177.375,171.648],[176.714,172.459],[176.064,173.21],[175.797,173.506],[175.722,173.587],[175.614,173.705],[175.596,173.724],[175.544,173.78],[175.459,173.871],[175.378,173.958],[175.344,173.994],[175.203,174.142],[175.041,174.31],[174.864,174.491],[174.678,174.678],[174.491,174.864],[174.31,175.041],[174.271,175.079],[174.142,175.203],[173.994,175.344],[173.871,175.459],[173.78,175.544],[173.724,175.596],[173.705,175.614],[173.56,175.747],[173.506,175.797],[173.199,176.073],[172.831,176.396],[172.068,177.037],[171.281,177.661],[170.473,178.264],[169.645,178.846],[168.836,179.381],[168.006,179.897],[167.154,180.393],[166.283,180.869],[165.392,181.322],[164.483,181.753],[163.555,182.16],[162.611,182.542],[161.65,182.898],[160.675,183.227],[159.686,183.529],[158.684,183.802],[157.67,184.047],[156.646,184.261],[155.614,184.446],[154.573,184.599],[153.527,184.721],[152.475,184.812],[151.42,184.871],[150.363,184.898],[149.306,184.893],[148.25,184.856],[147.196,184.787],[146.146,184.687],[145.101,184.554],[144.063,184.391],[143.033,184.197],[142.012,183.974],[141.002,183.72],[140.004,183.438],[139.013,183.125],[138.019,182.779],[137.041,182.405],[136.081,182.004],[135.139,181.578],[134.215,181.127],[133.312,180.652],[132.43,180.155],[131.569,179.636],[130.73,179.098],[129.914,178.541],[129.121,177.966],[128.352,177.375],[127.541,176.714],[126.79,176.064],[126.042,175.378],[125.678,175.029],[125.322,174.678],[125.121,174.476],[124.921,174.271],[124.253,173.56],[123.604,172.831],[122.963,172.068],[122.339,171.281],[121.736,170.473],[121.154,169.645],[120.619,168.836],[120.103,168.006],[119.607,167.154],[119.131,166.283],[118.678,165.392],[118.247,164.483],[117.84,163.555],[117.458,162.611],[117.102,161.65],[116.773,160.675],[116.471,159.686],[116.198,158.684],[115.953,157.67],[115.739,156.646],[115.554,155.614],[115.401,154.573],[115.279,153.527],[115.188,152.475],[115.129,151.42],[115.102,150.363]]
M73 P0 R32
;TYPE:Custom
M190 S0
M104 S0
PRINT_START EXTRUDER_TEMP=225 BED_TEMP=60 FILAMENT=PLA ENCLOSURE_TEMP=45
G90
G21
M83 ; use relative distances for extrusion
; Filament gcode
M106 S0
;LAYER_CHANGE
;Z:0.25
;HEIGHT:0.25
;BEFORE_LAYER_CHANGE
;0.25
G92 E0

G1 E-.8 F1800
;AFTER_LAYER_CHANGE
;0.25
;_SET_FAN_SPEED_CHANGING_LAYER
SET_VELOCITY_LIMIT ACCEL=1000 ACCEL_TO_DECEL=500
SET_VELOCITY_LIMIT SQUARE_CORNER_VELOCITY=9
G1 X122.905 Y122.29 F30000
G1 Z.25
G1 E.8 F1800
;TYPE:Skirt
;WIDTH:0.5
G1 F2400
G1 X123.728 Y121.463 E.04926
G1 X126.301 Y119.288 E.1422
G1 X129.109 Y117.313 E.14495
G1 X130.981 Y116.19 E.09214
G1 X132.841 Y115.209 E.08879
G1 X136.036 Y113.808 E.14728
G1 X138.189 Y113.049 E.09639
G1 X140.292 Y112.442 E.09239
G1 X143.703 Y111.722 E.14717
G1 X147.19 Y111.31 E.14826
G1 X150.679 Y111.214 E.14733
G1 X154.225 Y111.439 E.15003
G1 X157.801 Y112 E.15281
G1 X159.945 Y112.504 E.09299
G1 X162.158 Y113.162 E.09744
G1 X165.418 Y114.403 E.14729
G1 X168.598 Y115.957 E.14941
G1 X170.439 Y117.029 E.08992
G1 X172.281 Y118.244 E.09317
G1 X175.006 Y120.343 E.14519
G1 X177.854 Y122.999 E.16442
G1 X180.088 Y125.514 E.142
G1 X181.384 Y127.198 E.08973
G1 X182.628 Y129.018 E.09306
G1 X184.337 Y131.95 E.14329
G1 X185.318 Y133.953 E.09416
G1 X186.151 Y135.93 E.09054
G1 X187.285 Y139.29 E.14971
G1 X187.857 Y141.531 E.09767
G1 X188.278 Y143.703 E.09337
G1 X188.69 Y147.19 E.14826
G1 X188.786 Y150.712 E.14875
G1 X188.561 Y154.225 E.14862
G1 X188 Y157.801 E.15281
G1 X187.496 Y159.945 E.09299
G1 X186.838 Y162.158 E.09744
G1 X185.55 Y165.524 E.15217
G1 X184.624 Y167.494 E.09189
G1 X183.546 Y169.481 E.09543
G1 X181.692 Y172.371 E.14495
G1 X180.391 Y174.108 E.09164
G1 X178.715 Y176.082 E.10931
G1 X176.272 Y178.537 E.14626
G1 X173.699 Y180.712 E.1422
G1 X170.891 Y182.687 E.14495
G1 X169.019 Y183.81 E.09214
G1 X167.159 Y184.791 E.08879
G1 X163.964 Y186.192 E.14728
G1 X161.811 Y186.951 E.09639
G1 X159.708 Y187.558 E.09239
G1 X156.297 Y188.278 E.14717
G1 X152.81 Y188.69 E.14826
G1 X149.288 Y188.786 E.14875
G1 X145.775 Y188.561 E.14862
G1 X142.199 Y188 E.15281
G1 X140.055 Y187.496 E.09299
G1 X137.842 Y186.838 E.09744
G1 X134.582 Y185.597 E.14729
G1 X131.402 Y184.043 E.14942
G1 X129.561 Y182.971 E.08992
G1 X127.719 Y181.756 E.09317
G1 X124.994 Y179.657 E.14519
G1 X122.146 Y177.001 E.16442
G1 X119.912 Y174.486 E.142
G1 X118.616 Y172.802 E.08973
G1 X117.372 Y170.982 E.09306
G1 X115.663 Y168.05 E.14329
G1 X114.682 Y166.047 E.09416
G1 X113.849 Y164.07 E.09054
G1 X112.715 Y160.71 E.14971
G1 X112.143 Y158.469 E.09767
G1 X111.722 Y156.297 E.09337
G1 X111.31 Y152.81 E.14826
G1 X111.214 Y149.291 E.14859
G1 X111.439 Y145.775 E.14878
G1 X112 Y142.199 E.15281
G1 X112.504 Y140.055 E.09299
G1 X113.162 Y137.842 E.09745
G1 X114.45 Y134.476 E.15217
G1 X115.376 Y132.506 E.09189
G1 X116.454 Y130.519 E.09543
G1 X118.308 Y127.629 E.14494
G1 X119.609 Y125.892 E.09164
G1 X121.285 Y123.918 E.10931
G1 X122.877 Y122.318 E.09531
G1 X123.193 Y122.633 F30000
G1 F2400
G1 X124.044 Y121.778 E.0509
G1 X126.578 Y119.638 E.14003
G1 X129.345 Y117.692 E.1428
G1 X131.194 Y116.582 E.09108
G1 X133.044 Y115.607 E.08826
G1 X136.191 Y114.227 E.14509
G1 X138.32 Y113.476 E.09528
G1 X140.409 Y112.873 E.09183
G1 X143.781 Y112.162 E.14548
G1 X147.229 Y111.754 E.14655
G1 X150.677 Y111.66 E.14562
G1 X154.183 Y111.883 E.14832
G1 X157.706 Y112.436 E.15054
G1 X159.837 Y112.937 E.09242
G1 X162.024 Y113.588 E.09632
G1 X165.246 Y114.815 E.14559
G1 X168.379 Y116.346 E.1472
G1 X170.209 Y117.411 E.08938
G1 X172.029 Y118.613 E.0921
G1 X174.714 Y120.68 E.14304
G1 X177.535 Y123.312 E.16291
G1 X179.738 Y125.791 E.13998
G1 X181.026 Y127.465 E.08919
G1 X182.256 Y129.264 E.09198
G1 X183.94 Y132.153 E.14116
G1 X184.909 Y134.133 E.09307
G1 X185.737 Y136.097 E.08999
G1 X186.854 Y139.407 E.14749
G1 X187.42 Y141.623 E.09654
G1 X187.838 Y143.781 E.09281
G1 X188.246 Y147.229 E.14655
G1 X188.339 Y150.71 E.14704
G1 X188.117 Y154.183 E.14691
G1 X187.564 Y157.706 E.15054
G1 X187.063 Y159.837 E.09242
G1 X186.412 Y162.024 E.09632
G1 X185.144 Y165.34 E.14991
G1 X183.654 Y168.379 E.14288
G1 X182.537 Y170.293 E.09355
G1 X181.331 Y172.109 E.09203
G1 X180.045 Y173.826 E.09057
G1 X178.379 Y175.788 E.10866
G1 X175.956 Y178.222 E.145
G1 X173.422 Y180.362 E.14003
G1 X170.655 Y182.308 E.1428
G1 X168.806 Y183.418 E.09108
G1 X166.956 Y184.393 E.08826
G1 X163.809 Y185.773 E.14509
G1 X161.68 Y186.524 E.09528
G1 X159.591 Y187.127 E.09183
G1 X156.219 Y187.838 E.14548
G1 X152.771 Y188.246 E.14655
G1 X149.29 Y188.339 E.14704
G1 X145.817 Y188.117 E.14691
G1 X142.294 Y187.564 E.15054
G1 X140.163 Y187.063 E.09242
G1 X137.976 Y186.412 E.09632
G1 X134.754 Y185.185 E.14559
G1 X131.621 Y183.654 E.1472
G1 X129.791 Y182.589 E.08938
G1 X127.971 Y181.387 E.0921
G1 X125.286 Y179.32 E.14304
G1 X122.465 Y176.688 E.16291
G1 X120.262 Y174.209 E.13998
G1 X118.974 Y172.535 E.08919
G1 X117.744 Y170.736 E.09198
G1 X116.06 Y167.847 E.14116
G1 X115.091 Y165.867 E.09307
G1 X114.263 Y163.903 E.08999
G1 X113.146 Y160.593 E.14749
G1 X112.58 Y158.377 E.09654
G1 X112.162 Y156.219 E.09281
G1 X111.754 Y152.772 E.14655
G1 X111.661 Y149.293 E.1469
G1 X111.883 Y145.817 E.14705
G1 X112.436 Y142.294 E.15054
G1 X112.937 Y140.163 E.09242
G1 X113.588 Y137.976 E.09632
G1 X114.856 Y134.66 E.14991
G1 X116.346 Y131.621 E.14288
G1 X117.463 Y129.707 E.09355
G1 X118.669 Y127.891 E.09203
G1 X119.955 Y126.174 E.09057
G1 X121.621 Y124.212 E.10866
G1 X123.165 Y122.661 E.0924
; printing object LED Lamp Kit-001 Design Guide.stl id:0 copy 0
G1 E-.56 F1800
;WIPE_START
G1 F2400
G1 X123.871 Y121.952 E-.24
;WIPE_END
EXCLUDE_OBJECT_START NAME=LED_Lamp_Kit-001_Design_Guide.stl_id_0_copy_0
G1 Z.65 F30000
G1 X130.039 Y125.526 Z.65
G1 Z.25
G1 E.8 F1800
;TYPE:Inner wall
;WIDTH:0.499999
G1 F2400
G1 X128.812 Y124.299 E.07324
G1 X129.688 Y123.599 E.04734
G1 X130.459 Y123.023 E.04066
G1 X131.25 Y122.467 E.04079
G1 X132.022 Y121.957 E.03905
G1 X132.814 Y121.465 E.0394
G1 X133.627 Y120.991 E.0397
G1 X134.458 Y120.537 E.03999
G1 X135.309 Y120.104 E.04029
G1 X136.177 Y119.693 E.04055
G1 X137.062 Y119.304 E.04081
G1 X137.963 Y118.94 E.04105
G1 X138.88 Y118.6 E.04128
G1 X139.811 Y118.286 E.04148
G1 X140.755 Y117.998 E.04168
G1 X141.712 Y117.737 E.04185
G1 X142.679 Y117.504 E.04201
G1 X143.656 Y117.299 E.04215
G1 X144.642 Y117.123 E.04228
G1 X145.635 Y116.976 E.04237
G1 X146.634 Y116.86 E.04246
G1 X147.638 Y116.773 E.04252
G1 X148.644 Y116.717 E.04257
G1 X149.653 Y116.691 E.0426
G1 X150.629 Y116.696 E.04122
G1 X151.671 Y116.731 E.04401
G1 X152.676 Y116.797 E.04252
G1 X153.679 Y116.893 E.04251
G1 X154.676 Y117.019 E.04244
G1 X155.667 Y117.175 E.04235
G1 X156.65 Y117.36 E.04223
G1 X157.624 Y117.573 E.04211
G1 X158.588 Y117.815 E.04196
G1 X159.541 Y118.085 E.0418
G1 X160.487 Y118.383 E.04188
G1 X161.436 Y118.714 E.04241
G1 X162.369 Y119.071 E.04218
G1 X163.285 Y119.453 E.04194
G1 X164.185 Y119.86 E.04168
G1 X165.066 Y120.291 E.0414
G1 X165.928 Y120.744 E.04111
G1 X166.77 Y121.219 E.04081
G1 X167.592 Y121.713 E.04049
G1 X168.392 Y122.227 E.04017
G1 X169.171 Y122.759 E.03981
G1 X169.928 Y123.308 E.03947
G1 X170.662 Y123.871 E.03906
G1 X171.436 Y124.503 E.0422
G1 X172.153 Y125.123 E.03998
G1 X172.839 Y125.752 E.03933
G1 X173.942 Y126.84 E.06538
G1 X174.575 Y127.512 E.03899
G1 X175.194 Y128.209 E.03936
G1 X175.806 Y128.936 E.04012
G1 X176.401 Y129.688 E.04047
G1 X176.977 Y130.459 E.04066
G1 X177.533 Y131.25 E.04079
G1 X178.043 Y132.022 E.03905
G1 X178.535 Y132.814 E.0394
G1 X179.009 Y133.627 E.0397
G1 X179.463 Y134.458 E.03999
G1 X179.896 Y135.309 E.04029
G1 X180.307 Y136.177 E.04055
G1 X180.696 Y137.062 E.04081
G1 X181.06 Y137.963 E.04105
G1 X181.4 Y138.88 E.04128
G1 X181.714 Y139.811 E.04148
G1 X182.002 Y140.755 E.04168
G1 X182.263 Y141.712 E.04185
G1 X182.496 Y142.679 E.04201
G1 X182.701 Y143.656 E.04215
G1 X182.877 Y144.642 E.04228
G1 X183.024 Y145.635 E.04237
G1 X183.14 Y146.634 E.04246
G1 X183.227 Y147.638 E.04252
G1 X183.283 Y148.644 E.04257
G1 X183.309 Y149.653 E.0426
G1 X183.304 Y150.662 E.0426
G1 X183.269 Y151.67 E.04259
G1 X183.203 Y152.676 E.04256
G1 X183.107 Y153.679 E.04251
G1 X182.981 Y154.676 E.04244
G1 X182.825 Y155.667 E.04235
G1 X182.64 Y156.65 E.04223
G1 X182.427 Y157.624 E.04211
G1 X182.185 Y158.588 E.04196
G1 X181.915 Y159.541 E.04179
G1 X181.617 Y160.487 E.04188
G1 X181.286 Y161.436 E.04241
G1 X180.929 Y162.369 E.04218
G1 X180.547 Y163.285 E.04194
G1 X180.14 Y164.185 E.04168
G1 X179.709 Y165.066 E.0414
G1 X179.256 Y165.928 E.04111
G1 X178.781 Y166.77 E.04081
G1 X178.287 Y167.592 E.04049
G1 X177.773 Y168.392 E.04017
G1 X177.241 Y169.171 E.03982
G1 X176.692 Y169.928 E.03947
G1 X175.7 Y171.187 E.06768
G1 X174.474 Y169.961 E.07318
G1 X175.006 Y169.3 E.03582
G1 X176.529 Y167.148 E.11129
G1 X176.771 Y166.711 E.02112
G1 X177.114 Y166.006 E.03309
G1 X177.418 Y165.054 E.04216
G1 X177.564 Y164.151 E.03864
G1 X177.581 Y163.629 E.02203
G1 X177.547 Y162.789 E.03551
G1 X177.403 Y162.026 E.03276
G1 X177.243 Y161.461 E.0248
G1 X176.962 Y160.731 E.03302
G1 X176.652 Y160.19 E.02632
G1 X176.28 Y159.607 E.02921
G1 X175.668 Y158.893 E.0397
G1 X168.686 Y151.912 E.41681
G1 X168.189 Y151.434 E.02911
G1 X167.309 Y150.735 E.04744
G1 X166.243 Y150.164 E.05108
G1 X165.637 Y149.944 E.0272
G1 X164.968 Y149.775 E.02912
G1 X164.115 Y149.669 E.03628
G1 X163.614 Y149.651 E.02117
G1 X162.921 Y149.696 E.02933
G1 X162.243 Y149.813 E.02903
G1 X161.624 Y149.984 E.02714
G1 X160.93 Y150.263 E.03157
G1 X160.093 Y150.726 E.04037
G1 X159.812 Y150.925 E.01456
G1 X159.035 Y151.579 E.04285
G1 X151.579 Y159.035 E.44519
G1 X150.786 Y159.997 E.05263
G1 X150.44 Y160.571 E.0283
G1 X150.128 Y161.243 E.03128
G1 X149.773 Y162.435 E.05248
G1 X149.678 Y163.099 E.02832
G1 X149.655 Y163.858 E.03206
G1 X149.696 Y164.462 E.02555
G1 X149.813 Y165.144 E.02924
G1 X149.979 Y165.75 E.0265
G1 X150.176 Y166.215 E.02135
G1 X150.52 Y166.964 E.03478
G1 X150.916 Y167.57 E.03057
G1 X151.579 Y168.353 E.04328
G1 X158.985 Y175.752 E.44199
G1 X159.63 Y176.297 E.03566
G1 X159.94 Y176.506 E.01578
G1 X160.633 Y176.914 E.03393
G1 X161.157 Y177.125 E.02386
G1 X161.93 Y177.389 E.03447
G1 X162.596 Y177.514 E.02863
G1 X163.247 Y177.575 E.0276
G1 X164.178 Y177.563 E.03929
G1 X165.029 Y177.425 E.03641
G1 X165.587 Y177.257 E.02458
G1 X166.316 Y176.985 E.03283
G1 X167.208 Y176.489 E.04311
G1 X169.38 Y174.945 E.11248
G1 X169.961 Y174.474 E.0316
G1 X171.188 Y175.701 E.07324
G1 X170.312 Y176.401 E.04734
G1 X169.541 Y176.977 E.04066
G1 X168.75 Y177.533 E.04079
G1 X167.978 Y178.043 E.03905
G1 X167.186 Y178.535 E.0394
G1 X166.373 Y179.009 E.0397
G1 X165.542 Y179.463 E.03999
G1 X164.691 Y179.896 E.04029
G1 X163.823 Y180.307 E.04055
G1 X162.938 Y180.696 E.04081
G1 X162.037 Y181.06 E.04105
G1 X161.12 Y181.4 E.04128
G1 X160.189 Y181.714 E.04148
G1 X159.245 Y182.002 E.04168
G1 X158.288 Y182.263 E.04185
G1 X157.321 Y182.496 E.04201
G1 X156.344 Y182.701 E.04215
G1 X155.358 Y182.877 E.04228
