; generated by SuperSlicer 2.4 on 2023-12-30 at 16:12:54 UTC


;
;

;
;
; 

; external perimeters extrusion width = 0.40mm
; perimeters extrusion width = 0.46mm
; infill extrusion width = 0.64mm
; solid infill extrusion width = 0.56mm
; top infill extrusion width = 0.40mm
; first layer extrusion width = 0.50mm

; object:{"name":"single-1","id":"single-1.5-50.stl id:0 copy 0","object_center":[150.000000,150.000000,0.000000],"boundingbox_center":[150.000000,150.000000,25.000000],"boundingbox_size":[219.259920,219.259920,50.000000]}
; plater:{"center":[150.000000,150.000000,0.000000],"boundingbox_center":[150.000000,150.000000,25.000000],"boundingbox_size":[219.259920,219.259920,50.000000]}

M73 P0 R168


; Pre-Processed for Cancel-Object support by preprocess_cancellation v0.2.0
; 1 known objects
EXCLUDE_OBJECT_DEFINE NAME=single_1_5_50_stl_id_0_copy_0 CENTER=150.447,149.771 POLYGON=[[40.571,40.571],[40.571,259.423],[259.429,259.423],[259.429,40.571]]
;TYPE:Custom
; custom gcode: start_gcode
M190 S0
M104 S0
PRINT_START EXTRUDER_TEMP=225 BED_TEMP=60 FILAMENT=PLA SIZE=38.6773_38.6795_261.323_261.323 ENCLOSURE_TEMP=0
; custom gcode end: start_gcode
M107
G21 ; set units to millimeters
G90 ; use absolute coordinates
M83 ; use relative distances for extrusion
;_TOOLCHANGE 0
;LAYER_CHANGE
;Z:0.25
;HEIGHT:0.25
G1 Z0.25 F48000
; custom gcode: layer_gcode
;DISPLAY_PROGRESS TOTAL_LAYERS=250 CURRENT_LAYER=0
; custom gcode end: layer_gcode

G92 E0
M73 P0 R167
G1 E-1.6 F1800
G1 Z0.65 F48000
M204 S2000
G1 X87.551 Y87.551
G1 Z0.25
G1 E1.6 F1800
; custom gcode: feature_gcode
; External perimeter
;Skirt
SET_VELOCITY_LIMIT ACCEL=7000 ACCEL_TO_DECEL=7000 SQUARE_CORNER_VELOCITY=8

; Support material
; custom gcode end: feature_gcode

;TYPE:Skirt
;WIDTH:0.46
G1 F4200
G1 X41.611 Y133.492 E2.52447
G1 X40.654 Y134.65 E0.0584
G1 X40.177 Y135.409 E0.03484
G1 X39.72 Y136.354 E0.04077
G1 X39.423 Y137.201 E0.03486
G1 X39.188 Y138.223 E0.04077
G1 X39.086 Y139.114 E0.03485
G1 X39.084 Y140.163 E0.04074
G1 X39.183 Y141.06 E0.03508
G1 X39.421 Y142.106 E0.04166
G1 X39.72 Y142.963 E0.03529
G1 X40.177 Y143.908 E0.04077
G1 X40.654 Y144.667 E0.03483
G1 X41.611 Y145.826 E0.0584
G1 X154.174 Y258.389 E6.18549
G1 X155.333 Y259.346 E0.0584
G1 X156.092 Y259.823 E0.03483
G1 X157.037 Y260.28 E0.04077
G1 X157.884 Y260.577 E0.03486
G1 X158.906 Y260.812 E0.04077
G1 X159.797 Y260.914 E0.03485
G1 X160.846 Y260.916 E0.04074
G1 X161.743 Y260.817 E0.03509
G1 X162.789 Y260.579 E0.04166
G1 X163.646 Y260.28 E0.03528
G1 X164.591 Y259.823 E0.04077
G1 X165.35 Y259.346 E0.03484
G1 X166.508 Y258.389 E0.0584
G1 X258.389 Y166.508 E5.04894
G1 X259.346 Y165.35 E0.0584
G1 X259.823 Y164.591 E0.03484
G1 X260.28 Y163.646 E0.04077
G1 X260.577 Y162.799 E0.03486
G1 X260.812 Y161.777 E0.04077
G1 X260.914 Y160.886 E0.03485
G1 X260.916 Y159.837 E0.04074
G1 X260.817 Y158.94 E0.03509
G1 X260.579 Y157.894 E0.04166
G1 X260.28 Y157.037 E0.03528
G1 X259.823 Y156.092 E0.04077
G1 X259.346 Y155.333 E0.03483
G1 X258.389 Y154.174 E0.0584
G1 X145.826 Y41.611 E6.18548
G1 X144.634 Y40.633 E0.05992
G1 X143.883 Y40.164 E0.03438
G1 X142.959 Y39.719 E0.03986
G1 X142.116 Y39.423 E0.03471
G1 X141.094 Y39.188 E0.04077
G1 X140.194 Y39.086 E0.03518
G1 X139.123 Y39.086 E0.04163
G1 X138.223 Y39.188 E0.03518
G1 X137.201 Y39.423 E0.04077
G1 X136.354 Y39.72 E0.03486
G1 X135.409 Y40.177 E0.04077
G1 X134.65 Y40.654 E0.03484
G1 X133.492 Y41.611 E0.0584
G1 X87.594 Y87.509 E2.52214
G1 X87.881 Y87.796 F48000
G1 F4200
G1 X41.898 Y133.779 E2.5268
G1 X40.972 Y134.904 E0.05663
G1 X40.542 Y135.586 E0.03131
G1 X40.086 Y136.531 E0.04077
G1 X39.819 Y137.292 E0.03134
G1 X39.584 Y138.314 E0.04077
G1 X39.492 Y139.115 E0.03132
G1 X39.49 Y140.164 E0.04074
G1 X39.58 Y140.97 E0.03153
G1 X39.817 Y142.016 E0.04166
G1 X40.086 Y142.786 E0.03172
G1 X40.543 Y143.731 E0.04077
G1 X40.972 Y144.413 E0.03131
G1 X41.898 Y145.538 E0.05664
G1 X154.462 Y258.102 E6.18549
G1 X155.587 Y259.028 E0.05664
G1 X156.269 Y259.458 E0.03131
G1 X157.214 Y259.914 E0.04077
G1 X157.975 Y260.181 E0.03134
G1 X158.997 Y260.416 E0.04077
G1 X159.798 Y260.508 E0.03132
G1 X160.847 Y260.51 E0.04074
G1 X161.653 Y260.42 E0.03154
G1 X162.699 Y260.183 E0.04166
G1 X163.469 Y259.914 E0.03171
G1 X164.414 Y259.458 E0.04077
G1 X165.096 Y259.028 E0.03131
G1 X166.221 Y258.102 E0.05663
G1 X258.102 Y166.221 E5.04894
G1 X259.028 Y165.096 E0.05663
G1 X259.458 Y164.414 E0.03131
G1 X259.914 Y163.469 E0.04077
G1 X260.181 Y162.708 E0.03134
G1 X260.416 Y161.686 E0.04077
G1 X260.508 Y160.885 E0.03132
G1 X260.51 Y159.836 E0.04074
G1 X260.42 Y159.03 E0.03154
G1 X260.183 Y157.984 E0.04166
G1 X259.914 Y157.214 E0.03171
G1 X259.458 Y156.269 E0.04077
G1 X259.028 Y155.587 E0.03131
G1 X258.102 Y154.462 E0.05664
G1 X145.538 Y41.898 E6.18548
G1 X144.381 Y40.952 E0.05809
G1 X143.707 Y40.53 E0.0309
G1 X142.783 Y40.085 E0.03986
G1 X142.025 Y39.819 E0.0312
G1 X141.003 Y39.584 E0.04077
G1 X140.194 Y39.492 E0.03162
G1 X139.123 Y39.492 E0.04163
G1 X138.314 Y39.584 E0.03162
G1 X137.292 Y39.819 E0.04077
G1 X136.531 Y40.086 E0.03134
G1 X135.586 Y40.542 E0.04077
G1 X134.904 Y40.972 E0.03131
G1 X133.779 Y41.898 E0.05663
G1 X87.923 Y87.754 E2.51981
G1 X88.211 Y88.041 F48000
G1 F4200
G1 X42.186 Y134.066 E2.52913
G1 X41.289 Y135.157 E0.05487
G1 X40.908 Y135.763 E0.02779
G1 X40.452 Y136.708 E0.04077
G1 X40.215 Y137.383 E0.02781
G1 X39.98 Y138.405 E0.04077
G1 X39.899 Y139.116 E0.0278
G1 X39.896 Y140.165 E0.04074
G1 X39.976 Y140.88 E0.02798
G1 X40.213 Y141.926 E0.04166
G1 X40.452 Y142.61 E0.02814
G1 X40.908 Y143.555 E0.04077
G1 X41.289 Y144.16 E0.02778
G1 X42.186 Y145.251 E0.05487
G1 X154.749 Y257.814 E6.18549
G1 X155.84 Y258.711 E0.05487
G1 X156.446 Y259.092 E0.02778
G1 X157.39 Y259.548 E0.04077
G1 X158.066 Y259.785 E0.02781
G1 X159.088 Y260.02 E0.04077
G1 X159.799 Y260.101 E0.02779
G1 X160.848 Y260.104 E0.04074
G1 X161.563 Y260.024 E0.02799
G1 X162.609 Y259.787 E0.04166
G1 X163.293 Y259.548 E0.02814
G1 X164.237 Y259.092 E0.04077
G1 X164.843 Y258.711 E0.02779
G1 X165.934 Y257.814 E0.05487
G1 X257.814 Y165.934 E5.04894
G1 X258.711 Y164.843 E0.05487
G1 X259.092 Y164.237 E0.02779
G1 X259.548 Y163.292 E0.04077
G1 X259.785 Y162.617 E0.02781
G1 X260.02 Y161.595 E0.04077
G1 X260.101 Y160.884 E0.0278
G1 X260.104 Y159.835 E0.04074
G1 X260.024 Y159.12 E0.02799
G1 X259.787 Y158.074 E0.04166
G1 X259.548 Y157.39 E0.02814
G1 X259.092 Y156.446 E0.04077
G1 X258.711 Y155.84 E0.02778
G1 X257.814 Y154.749 E0.05487
G1 X145.251 Y42.186 E6.18548
G1 X144.129 Y41.27 E0.05626
G1 X143.531 Y40.896 E0.02743
G1 X142.607 Y40.451 E0.03986
G1 X141.934 Y40.215 E0.02769
G1 X140.912 Y39.98 E0.04077
G1 X140.194 Y39.899 E0.02806
G1 X139.123 Y39.899 E0.04163
G1 X138.405 Y39.98 E0.02806
G1 X137.383 Y40.215 E0.04077
G1 X136.708 Y40.452 E0.02781
G1 X135.763 Y40.908 E0.04077
G1 X135.157 Y41.289 E0.02779
G1 X134.066 Y42.186 E0.05487
G1 X88.253 Y87.999 E2.51748
M104 S225 ; set temperature
G1 E-1.6 F1800
M204 S10000
G1 Z0.65 F48000
; printing object single-1.5-50.stl id:0 copy 0
EXCLUDE_OBJECT_START NAME=single_1_5_50_stl_id_0_copy_0
; acceleration to travel
G1 X131.522 Y51.94
; decel to extrusion
M204 S2000
G1 X140.175 Y44.728
; end travel
G1 Z0.25
G1 E1.6 F1800
; custom gcode: feature_gcode
; External perimeter
;Perimeter
SET_VELOCITY_LIMIT ACCEL=2000 ACCEL_TO_DECEL=2000 SQUARE_CORNER_VELOCITY=8

; Overhang perimeter
; custom gcode end: feature_gcode

;TYPE:Internal perimeter
;WIDTH:0.5
G1 F4200
G1 X140.688 Y44.846 E0.02243
G1 X141.293 Y45.137 E0.02867
G1 X141.928 Y45.639 E0.03455
G1 X254.363 Y158.075 E6.78664
G1 X254.854 Y158.69 E0.03358
G1 X255.154 Y159.311 E0.02945
G1 X255.311 Y160.005 E0.03037
G1 X255.31 Y160.695 E0.02946
G1 X255.155 Y161.37 E0.02954
G1 X254.854 Y161.993 E0.02955
G1 X254.363 Y162.608 E0.03358
G1 X162.608 Y254.363 E5.53835
G1 X161.993 Y254.854 E0.03358
G1 X161.372 Y255.154 E0.02945
G1 X160.678 Y255.311 E0.03037
G1 X159.988 Y255.31 E0.02946
G1 X159.313 Y255.155 E0.02954
G1 X158.69 Y254.854 E0.02955
G1 X158.075 Y254.363 E0.03358
G1 X45.637 Y141.925 E6.78678
G1 X45.146 Y141.31 E0.03358
G1 X44.846 Y140.689 E0.02945
G1 X44.689 Y139.995 E0.03037
G1 X44.69 Y139.305 E0.02946
G1 X44.845 Y138.63 E0.02954
G1 X45.146 Y138.007 E0.02955
G1 X45.637 Y137.392 E0.03358
G1 X137.392 Y45.637 E5.53835
G1 X138.007 Y45.146 E0.03358
G1 X138.63 Y44.845 E0.02955
G1 X139.303 Y44.691 E0.02946
G1 X140.014 Y44.691 E0.03034
G1 X140.117 Y44.714 E0.00451
G1 X140.275 Y44.293 F48000
G1 F4200
G1 X140.836 Y44.422 E0.02456
G1 X141.531 Y44.756 E0.03291
G1 X142.225 Y45.306 E0.03777
G1 X254.696 Y157.777 E6.78881
G1 X255.234 Y158.451 E0.03679
G1 X255.578 Y159.163 E0.03375
G1 X255.758 Y159.955 E0.03469
G1 X255.756 Y160.746 E0.03375
G1 X255.578 Y161.519 E0.03382
G1 X255.234 Y162.232 E0.03383
G1 X254.696 Y162.906 E0.03679
G1 X162.906 Y254.696 E5.54049
G1 X162.232 Y255.234 E0.03679
G1 X161.52 Y255.578 E0.03375
G1 X160.727 Y255.758 E0.03469
G1 X159.937 Y255.756 E0.03375
G1 X159.164 Y255.578 E0.03382
G1 X158.451 Y255.234 E0.03383
G1 X157.777 Y254.696 E0.03679
G1 X45.304 Y142.223 E6.78891
G1 X44.766 Y141.549 E0.03679
G1 X44.422 Y140.837 E0.03375
G1 X44.242 Y140.045 E0.03469
G1 X44.244 Y139.254 E0.03375
G1 X44.422 Y138.481 E0.03382
G1 X44.766 Y137.768 E0.03383
G1 X45.304 Y137.094 E0.03679
G1 X137.094 Y45.304 E5.54049
G1 X137.768 Y44.766 E0.03679
G1 X138.481 Y44.422 E0.03383
G1 X139.252 Y44.244 E0.03377
G1 X140.065 Y44.244 E0.03467
G1 X140.217 Y44.279 E0.00667
G1 X140.375 Y43.858 F48000
G1 F4200
G1 X140.985 Y43.998 E0.02669
G1 X141.769 Y44.376 E0.03716
G1 X142.522 Y44.972 E0.04098
G1 X255.029 Y157.479 E6.79098
G1 X255.614 Y158.211 E0.04
G1 X256.002 Y159.014 E0.03806
G1 X256.204 Y159.906 E0.03901
G1 X256.202 Y160.797 E0.03805
G1 X256.002 Y161.667 E0.03811
G1 X255.614 Y162.472 E0.03811
G1 X255.029 Y163.204 E0.04
G1 X163.204 Y255.029 E5.54262
G1 X162.472 Y255.614 E0.04
G1 X161.668 Y256.002 E0.03806
G1 X160.777 Y256.204 E0.03901
G1 X159.886 Y256.202 E0.03805
G1 X159.015 Y256.002 E0.03811
G1 X158.211 Y255.614 E0.03811
G1 X157.479 Y255.029 E0.04
G1 X44.971 Y142.521 E6.79105
G1 X44.386 Y141.789 E0.04
G1 X43.998 Y140.986 E0.03806
G1 X43.796 Y140.094 E0.03901
G1 X43.798 Y139.203 E0.03805
G1 X43.998 Y138.333 E0.03811
G1 X44.386 Y137.528 E0.03811
G1 X44.971 Y136.796 E0.04
G1 X136.796 Y44.971 E5.54262
G1 X137.528 Y44.386 E0.04
G1 X138.333 Y43.998 E0.03811
G1 X139.202 Y43.798 E0.03807
G1 X140.115 Y43.798 E0.03899
G1 X140.317 Y43.844 E0.00883
; acceleration to travel
M204 S10000
G1 X156.582 Y221.181 F48000
; decel to extrusion
M204 S2000
G1 X159.834 Y256.648
; end travel
; custom gcode: feature_gcode
; External perimeter
;ExternalPerimeter
SET_VELOCITY_LIMIT ACCEL=1000 ACCEL_TO_DECEL=1000 SQUARE_CORNER_VELOCITY=8

; Perimeter
; custom gcode end: feature_gcode

;TYPE:External perimeter
G1 F4200
G1 X158.867 Y256.426 E0.04239
G1 X157.972 Y255.994 E0.04239
G1 X157.181 Y255.363 E0.0432
G1 X44.637 Y142.819 E6.79318
G1 X44.006 Y142.028 E0.0432
G1 X43.574 Y141.134 E0.04237
G1 X43.35 Y140.144 E0.04334
G1 X43.352 Y139.152 E0.04235
G1 X43.574 Y138.184 E0.04239
G1 X44.006 Y137.289 E0.04239
G1 X44.637 Y136.498 E0.0432
G1 X136.498 Y44.637 E5.54475
G1 X137.289 Y44.006 E0.0432
G1 X138.184 Y43.574 E0.04239
G1 X139.151 Y43.352 E0.04237
G1 X140.166 Y43.352 E0.04331
G1 X140.475 Y43.423 E0.01355
G1 X141.134 Y43.574 E0.02883
G1 X142.008 Y43.995 E0.0414
G1 X142.82 Y44.638 E0.0442
G1 X255.363 Y157.181 E6.79315
M73 P0 R166
G1 X255.994 Y157.972 E0.0432
G1 X256.426 Y158.866 E0.04237
G1 X256.65 Y159.856 E0.04334
G1 X256.648 Y160.848 E0.04235
G1 X256.426 Y161.816 E0.04239
G1 X255.994 Y162.711 E0.04239
G1 X255.363 Y163.502 E0.0432
G1 X163.502 Y255.363 E5.54475
G1 X162.711 Y255.994 E0.0432
G1 X161.817 Y256.426 E0.04237
G1 X160.827 Y256.65 E0.04334
G1 X159.894 Y256.648 E0.03979
;WIPE_START
M204 S10000
G1 X159.689 Y256.276 F48000
;WIPE_END
; acceleration to travel
G1 X143.913 Y80.215
; decel to extrusion
M204 S2000
G1 X140.758 Y45.003
; end travel
; custom gcode: feature_gcode
; External perimeter
;SolidInfill
SET_VELOCITY_LIMIT ACCEL=4000 ACCEL_TO_DECEL=4000 SQUARE_CORNER_VELOCITY=8

; Bridge infill
; custom gcode end: feature_gcode

;TYPE:Solid infill
;WIDTH:0.499944
G1 F4200
G1 X138.56 Y45.003 E0.0938
G1 X137.806 Y45.45 F48000
G1 F4200
G1 X141.508 Y45.45 E0.15799
G1 X142.026 Y45.896 F48000
G1 F4200
G1 X137.291 Y45.896 E0.20209
G1 X136.845 Y46.342 F48000
G1 F4200
G1 X142.473 Y46.342 E0.24019
G1 X142.919 Y46.789 F48000
G1 F4200
G1 X136.398 Y46.789 E0.27828
G1 X135.952 Y47.235 F48000
G1 F4200
G1 X143.365 Y47.235 E0.31638
G1 X143.812 Y47.681 F48000
G1 F4200
G1 X135.505 Y47.681 E0.35448
G1 X135.059 Y48.128 F48000
G1 F4200
G1 X144.258 Y48.128 E0.39257
G1 X144.704 Y48.574 F48000
G1 F4200
G1 X134.613 Y48.574 E0.43067
G1 X134.166 Y49.02 F48000
G1 F4200
G1 X145.151 Y49.02 E0.46877
G1 X145.597 Y49.467 F48000
G1 F4200
G1 X133.72 Y49.467 E0.50687
G1 X133.274 Y49.913 F48000
G1 F4200
G1 X146.043 Y49.913 E0.54496
G1 X146.49 Y50.359 F48000
G1 F4200
G1 X132.827 Y50.359 E0.58306
G1 X132.381 Y50.806 F48000
G1 F4200
G1 X146.936 Y50.806 E0.62116
G1 X147.382 Y51.252 F48000
G1 F4200
G1 X131.935 Y51.252 E0.65926
G1 X131.488 Y51.698 F48000
G1 F4200
G1 X147.829 Y51.698 E0.69735
G1 X148.275 Y52.145 F48000
G1 F4200
G1 X131.042 Y52.145 E0.73545
G1 X130.596 Y52.591 F48000
G1 F4200
G1 X148.721 Y52.591 E0.77355
G1 X149.168 Y53.038 F48000
G1 F4200
G1 X130.149 Y53.038 E0.81164
G1 X129.703 Y53.484 F48000
G1 F4200
G1 X149.614 Y53.484 E0.84974
G1 X150.061 Y53.93 F48000
G1 F4200
G1 X129.257 Y53.93 E0.88784
G1 X128.81 Y54.377 F48000
G1 F4200
G1 X150.507 Y54.377 E0.92594
G1 X150.953 Y54.823 F48000
G1 F4200
G1 X128.364 Y54.823 E0.96403
G1 X127.918 Y55.269 F48000
G1 F4200
G1 X151.4 Y55.269 E1.00213
G1 X151.846 Y55.716 F48000
G1 F4200
G1 X127.471 Y55.716 E1.04023
G1 X127.025 Y56.162 F48000
G1 F4200
G1 X152.292 Y56.162 E1.07832
G1 X152.739 Y56.608 F48000
G1 F4200
G1 X126.578 Y56.608 E1.11642
G1 X126.132 Y57.055 F48000
G1 F4200
G1 X153.185 Y57.055 E1.15452
G1 X153.631 Y57.501 F48000
G1 F4200
G1 X125.686 Y57.501 E1.19262
G1 X125.239 Y57.947 F48000
G1 F4200
G1 X154.078 Y57.947 E1.23071
G1 X154.524 Y58.394 F48000
G1 F4200
G1 X124.793 Y58.394 E1.26881
G1 X124.347 Y58.84 F48000
G1 F4200
G1 X154.97 Y58.84 E1.30691
G1 X155.417 Y59.286 F48000
G1 F4200
G1 X123.9 Y59.286 E1.345
G1 X123.454 Y59.733 F48000
G1 F4200
G1 X155.863 Y59.733 E1.3831
G1 X156.309 Y60.179 F48000
G1 F4200
G1 X123.008 Y60.179 E1.4212
G1 X122.561 Y60.625 F48000
G1 F4200
G1 X156.756 Y60.625 E1.4593
G1 X157.202 Y61.072 F48000
G1 F4200
G1 X122.115 Y61.072 E1.49739
G1 X121.669 Y61.518 F48000
G1 F4200
G1 X157.648 Y61.518 E1.53549
G1 X158.095 Y61.965 F48000
G1 F4200
G1 X121.222 Y61.965 E1.57359
G1 X120.776 Y62.411 F48000
G1 F4200
G1 X158.541 Y62.411 E1.61169
G1 X158.988 Y62.857 F48000
G1 F4200
G1 X120.33 Y62.857 E1.64978
G1 X119.883 Y63.304 F48000
G1 F4200
G1 X159.434 Y63.304 E1.68788
G1 X159.88 Y63.75 F48000
G1 F4200
G1 X119.437 Y63.75 E1.72598
G1 X118.991 Y64.196 F48000
G1 F4200
G1 X160.327 Y64.196 E1.76407
G1 X160.773 Y64.643 F48000
G1 F4200
G1 X118.544 Y64.643 E1.80217
G1 X118.098 Y65.089 F48000
G1 F4200
G1 X161.219 Y65.089 E1.84027
G1 X161.666 Y65.535 F48000
G1 F4200
G1 X117.652 Y65.535 E1.87837
G1 X117.205 Y65.982 F48000
G1 F4200
G1 X162.112 Y65.982 E1.91646
G1 X162.558 Y66.428 F48000
G1 F4200
G1 X116.759 Y66.428 E1.95456
G1 X116.312 Y66.874 F48000
G1 F4200
G1 X163.005 Y66.874 E1.99266
G1 X163.451 Y67.321 F48000
G1 F4200
G1 X115.866 Y67.321 E2.03075
G1 X115.42 Y67.767 F48000
G1 F4200
G1 X163.897 Y67.767 E2.06885
G1 X164.344 Y68.213 F48000
G1 F4200
G1 X114.973 Y68.213 E2.10695
G1 X114.527 Y68.66 F48000
G1 F4200
G1 X164.79 Y68.66 E2.14505
G1 X165.236 Y69.106 F48000
G1 F4200
G1 X114.081 Y69.106 E2.18314
G1 X113.634 Y69.552 F48000
G1 F4200
G1 X165.683 Y69.552 E2.22124
G1 X166.129 Y69.999 F48000
G1 F4200
G1 X113.188 Y69.999 E2.25934
G1 X112.742 Y70.445 F48000
G1 F4200
G1 X166.575 Y70.445 E2.29743
G1 X167.022 Y70.891 F48000
G1 F4200
G1 X112.295 Y70.891 E2.33553
G1 X111.849 Y71.338 F48000
G1 F4200
G1 X167.468 Y71.338 E2.37363
G1 X167.914 Y71.784 F48000
G1 F4200
G1 X111.403 Y71.784 E2.41173
M73 P1 R166
