; generated by SuperSlicer 2.4 on 2023-12-13 at 18:49:23 UTC


;
;

;
;
; 

; external perimeters extrusion width = 0.40mm
; perimeters extrusion width = 0.46mm
; infill extrusion width = 0.64mm
; solid infill extrusion width = 0.56mm
; top infill extrusion width = 0.40mm
; first layer extrusion width = 0.50mm

; object:{"name":"single-50","id":"single-50.stl id:0 copy 0","object_center":[150.000000,150.000000,0.000000],"boundingbox_center":[150.000000,150.000000,25.000000],"boundingbox_size":[185.142023,185.142023,50.000000]}
; plater:{"center":[150.000000,150.000000,0.000000],"boundingbox_center":[150.000000,150.000000,25.000000],"boundingbox_size":[185.142023,185.142023,50.000000]}

M73 P0 R129


; Pre-Processed for Cancel-Object support by preprocess_cancellation v0.2.0
; 1 known objects
EXCLUDE_OBJECT_DEFINE NAME=single_50_stl_id_0_copy_0 CENTER=149.909,149.740 POLYGON=[[57.63,57.63],[57.63,242.37],[242.37,242.37],[242.37,57.63]]
;TYPE:Custom
; custom gcode: start_gcode
M190 S0
M104 S0
PRINT_START EXTRUDER_TEMP=225 BED_TEMP=60 FILAMENT=PLA SIZE=55.7286_55.7286_244.271_244.271 ENCLOSURE_TEMP=0
; custom gcode end: start_gcode
M107
G21 ; set units to millimeters
G90 ; use absolute coordinates
M83 ; use relative distances for extrusion
;_TOOLCHANGE 0
;LAYER_CHANGE
;Z:0.25
;HEIGHT:0.25
G1 Z0.25 F48000
; custom gcode: layer_gcode
;DISPLAY_PROGRESS TOTAL_LAYERS=250 CURRENT_LAYER=0
; custom gcode end: layer_gcode

G92 E0
G1 E-1.6 F1800
G1 Z0.65 F48000
M204 S2000
G1 X87.551 Y87.551
G1 Z0.25
G1 E1.6 F1800
; custom gcode: feature_gcode
; External perimeter
;Skirt
SET_VELOCITY_LIMIT ACCEL=7000 ACCEL_TO_DECEL=7000 SQUARE_CORNER_VELOCITY=8

; Support material
; custom gcode end: feature_gcode

;TYPE:Skirt
;WIDTH:0.46
G1 F3600
G1 X58.669 Y116.433 E1.58709
G1 X57.817 Y117.441 E0.05129
G1 X57.38 Y118.096 E0.03059
G1 X56.644 Y119.635 E0.06631
G1 X56.377 Y120.517 E0.0358
G1 X56.133 Y122.206 E0.06631
G1 X56.133 Y122.993 E0.03059
G1 X56.377 Y124.682 E0.06631
G1 X56.644 Y125.564 E0.0358
G1 X57.38 Y127.104 E0.06631
G1 X57.817 Y127.758 E0.03059
G1 X58.669 Y128.766 E0.05129
G1 X171.234 Y241.331 E6.18554
G1 X172.242 Y242.183 E0.05129
G1 X172.896 Y242.62 E0.03059
G1 X174.436 Y243.356 E0.06631
G1 X175.318 Y243.623 E0.0358
G1 X177.007 Y243.867 E0.06631
G1 X177.794 Y243.867 E0.03059
G1 X179.483 Y243.623 E0.06631
G1 X180.365 Y243.356 E0.0358
G1 X181.904 Y242.62 E0.06631
G1 X182.559 Y242.183 E0.03059
G1 X183.567 Y241.331 E0.05129
G1 X241.331 Y183.567 E3.17418
G1 X242.183 Y182.559 E0.05129
G1 X242.62 Y181.904 E0.03059
G1 X243.356 Y180.365 E0.06631
G1 X243.623 Y179.483 E0.0358
G1 X243.867 Y177.794 E0.06631
G1 X243.867 Y177.007 E0.03059
G1 X243.623 Y175.318 E0.06631
G1 X243.356 Y174.436 E0.0358
G1 X242.62 Y172.896 E0.06631
G1 X242.183 Y172.242 E0.03059
G1 X241.331 Y171.234 E0.05129
G1 X128.766 Y58.669 E6.18554
G1 X127.758 Y57.817 E0.05129
G1 X126.291 Y56.946 E0.06631
G1 X124.682 Y56.377 E0.06631
G1 X123.452 Y56.178 E0.04843
G1 X122.206 Y56.133 E0.04843
G1 X121.289 Y56.223 E0.0358
G1 X119.635 Y56.644 E0.06631
G1 X118.096 Y57.38 E0.06631
G1 X117.441 Y57.817 E0.03059
G1 X116.433 Y58.669 E0.05129
G1 X87.594 Y87.509 E1.58476
G1 X87.881 Y87.796 F48000
G1 F3600
G1 X58.957 Y116.72 E1.58942
G1 X58.131 Y117.699 E0.04974
G1 X57.738 Y118.287 E0.02749
G1 X57.304 Y119.1 E0.0358
G1 X56.766 Y120.635 E0.06322
G1 X56.537 Y122.246 E0.06322
G1 X56.537 Y122.953 E0.0275
G1 X56.766 Y124.564 E0.06322
G1 X57.033 Y125.446 E0.0358
G1 X57.738 Y126.912 E0.06322
G1 X58.131 Y127.5 E0.02749
G1 X58.957 Y128.479 E0.04974
G1 X171.521 Y241.043 E6.18554
G1 X172.5 Y241.869 E0.04974
G1 X173.088 Y242.262 E0.02749
G1 X174.554 Y242.967 E0.06322
G1 X175.436 Y243.234 E0.0358
G1 X177.047 Y243.463 E0.06322
G1 X177.754 Y243.463 E0.0275
G1 X179.365 Y243.234 E0.06322
G1 X180.9 Y242.696 E0.06322
G1 X181.713 Y242.262 E0.0358
G1 X182.301 Y241.869 E0.02749
G1 X183.28 Y241.043 E0.04974
G1 X241.043 Y183.28 E3.17418
G1 X241.869 Y182.301 E0.04974
G1 X242.262 Y181.713 E0.02749
G1 X242.696 Y180.9 E0.0358
G1 X243.234 Y179.365 E0.06322
G1 X243.463 Y177.754 E0.06322
G1 X243.463 Y177.047 E0.0275
G1 X243.234 Y175.436 E0.06322
G1 X242.967 Y174.554 E0.0358
G1 X242.262 Y173.088 E0.06322
G1 X241.869 Y172.5 E0.02749
G1 X241.043 Y171.521 E0.04974
G1 X128.479 Y58.957 E6.18554
G1 X127.5 Y58.131 E0.04974
G1 X126.1 Y57.304 E0.06322
G1 X124.564 Y56.766 E0.06322
G1 X123.412 Y56.582 E0.04534
G1 X122.246 Y56.537 E0.04534
G1 X121.329 Y56.628 E0.0358
G1 X119.753 Y57.033 E0.06322
G1 X118.287 Y57.738 E0.06322
G1 X117.699 Y58.131 E0.02749
G1 X116.72 Y58.957 E0.04974
G1 X87.923 Y87.754 E1.58243
G1 X88.211 Y88.041 F48000
G1 F3600
G1 X59.244 Y117.008 E1.59175
G1 X58.445 Y117.957 E0.04819
G1 X58.097 Y118.479 E0.0244
G1 X57.662 Y119.291 E0.0358
G1 X57.155 Y120.753 E0.06013
G1 X56.942 Y122.286 E0.06013
G1 X56.942 Y122.914 E0.0244
G1 X57.155 Y124.446 E0.06012
G1 X57.422 Y125.328 E0.0358
G1 X58.097 Y126.721 E0.06013
G1 X58.445 Y127.243 E0.0244
G1 X59.244 Y128.191 E0.04819
G1 X171.809 Y240.756 E6.18554
G1 X172.757 Y241.555 E0.04819
G1 X173.279 Y241.903 E0.0244
G1 X174.672 Y242.578 E0.06013
G1 X175.554 Y242.845 E0.0358
G1 X177.086 Y243.058 E0.06012
G1 X177.714 Y243.058 E0.0244
G1 X179.247 Y242.845 E0.06013
G1 X180.709 Y242.338 E0.06013
G1 X181.521 Y241.903 E0.0358
G1 X182.043 Y241.555 E0.0244
G1 X182.992 Y240.756 E0.04819
G1 X240.756 Y182.992 E3.17418
G1 X241.555 Y182.043 E0.04819
G1 X241.903 Y181.521 E0.0244
G1 X242.338 Y180.709 E0.0358
G1 X242.845 Y179.247 E0.06013
G1 X243.058 Y177.714 E0.06013
G1 X243.058 Y177.086 E0.0244
G1 X242.845 Y175.554 E0.06012
G1 X242.578 Y174.672 E0.0358
G1 X241.903 Y173.279 E0.06013
G1 X241.555 Y172.757 E0.0244
G1 X240.756 Y171.809 E0.04819
G1 X128.191 Y59.244 E6.18554
G1 X127.243 Y58.445 E0.04819
G1 X125.908 Y57.662 E0.06013
G1 X124.446 Y57.155 E0.06013
G1 X123.372 Y56.987 E0.04225
G1 X122.286 Y56.942 E0.04225
G1 X121.369 Y57.032 E0.0358
G1 X119.871 Y57.422 E0.06013
G1 X118.479 Y58.097 E0.06013
G1 X117.957 Y58.445 E0.0244
G1 X117.008 Y59.244 E0.04819
G1 X88.253 Y87.999 E1.5801
M104 S225 ; set temperature
G1 E-1.6 F1800
M204 S10000
G1 Z0.65 F48000
; printing object single-50.stl id:0 copy 0
EXCLUDE_OBJECT_START NAME=single_50_stl_id_0_copy_0
; acceleration to travel
G1 X117.127 Y66.13
; decel to extrusion
M204 S2000
G1 X122.902 Y61.756
; end travel
G1 Z0.25
G1 E1.6 F1800
; custom gcode: feature_gcode
; External perimeter
;Perimeter
SET_VELOCITY_LIMIT ACCEL=2000 ACCEL_TO_DECEL=2000 SQUARE_CORNER_VELOCITY=8

; Overhang perimeter
; custom gcode end: feature_gcode

;TYPE:Internal perimeter
;WIDTH:0.5
G1 F3600
G1 X123.205 Y61.786 E0.01298
G1 X123.787 Y61.962 E0.02596
G1 X124.323 Y62.249 E0.02596
G1 X124.858 Y62.688 E0.02952
G1 X237.312 Y175.142 E6.78777
G1 X237.751 Y175.677 E0.02952
G1 X238.038 Y176.213 E0.02596
G1 X238.214 Y176.795 E0.02596
G1 X238.274 Y177.4 E0.02596
G1 X238.214 Y178.006 E0.02596
G1 X238.038 Y178.588 E0.02596
G1 X237.751 Y179.124 E0.02596
G1 X237.312 Y179.659 E0.02952
G1 X179.659 Y237.312 E3.47997
G1 X179.124 Y237.751 E0.02952
G1 X178.588 Y238.038 E0.02596
G1 X178.006 Y238.214 E0.02596
G1 X177.4 Y238.274 E0.02596
G1 X176.795 Y238.214 E0.02596
G1 X176.213 Y238.038 E0.02596
G1 X175.677 Y237.751 E0.02596
G1 X175.142 Y237.312 E0.02952
G1 X62.688 Y124.858 E6.78777
G1 X62.249 Y124.323 E0.02952
M73 P0 R128
G1 X61.962 Y123.787 E0.02596
G1 X61.786 Y123.205 E0.02596
G1 X61.726 Y122.6 E0.02596
G1 X61.786 Y121.994 E0.02596
G1 X61.962 Y121.412 E0.02596
G1 X62.249 Y120.876 E0.02596
G1 X62.688 Y120.341 E0.02952
G1 X120.341 Y62.688 E3.47997
G1 X120.876 Y62.249 E0.02952
G1 X121.412 Y61.962 E0.02596
G1 X121.994 Y61.786 E0.02596
G1 X122.6 Y61.726 E0.02596
G1 X122.843 Y61.75 E0.01042
G1 X122.946 Y61.312 F48000
G1 F3600
G1 X123.292 Y61.346 E0.01486
G1 X123.959 Y61.548 E0.02971
G1 X124.573 Y61.876 E0.02971
G1 X125.158 Y62.357 E0.03233
G1 X237.643 Y174.842 E6.78964
G1 X238.124 Y175.427 E0.03233
G1 X238.452 Y176.041 E0.02971
G1 X238.654 Y176.708 E0.02971
G1 X238.722 Y177.4 E0.02971
G1 X238.654 Y178.093 E0.02971
G1 X238.452 Y178.759 E0.02971
G1 X238.124 Y179.373 E0.02971
G1 X237.643 Y179.959 E0.03233
G1 X179.959 Y237.643 E3.48185
G1 X179.373 Y238.124 E0.03233
G1 X178.759 Y238.452 E0.02971
G1 X178.093 Y238.654 E0.02971
G1 X177.4 Y238.722 E0.02971
G1 X176.708 Y238.654 E0.02971
G1 X176.041 Y238.452 E0.02971
G1 X175.427 Y238.124 E0.02971
G1 X174.842 Y237.643 E0.03233
G1 X62.357 Y125.158 E6.78964
G1 X61.876 Y124.573 E0.03233
G1 X61.548 Y123.959 E0.02971
G1 X61.346 Y123.292 E0.02971
G1 X61.278 Y122.6 E0.02971
G1 X61.346 Y121.907 E0.02971
G1 X61.548 Y121.241 E0.02971
G1 X61.876 Y120.627 E0.02971
G1 X62.357 Y120.041 E0.03233
G1 X120.041 Y62.357 E3.48185
G1 X120.627 Y61.876 E0.03233
G1 X121.241 Y61.548 E0.02971
G1 X121.907 Y61.346 E0.02971
G1 X122.6 Y61.278 E0.02971
G1 X122.886 Y61.306 E0.0123
G1 X122.99 Y60.868 F48000
G1 F3600
G1 X123.38 Y60.906 E0.01673
G1 X124.13 Y61.134 E0.03347
G1 X124.822 Y61.503 E0.03347
G1 X125.458 Y62.026 E0.03514
G1 X237.974 Y174.542 E6.79151
G1 X238.497 Y175.178 E0.03514
G1 X238.866 Y175.87 E0.03347
G1 X239.094 Y176.62 E0.03347
G1 X239.171 Y177.4 E0.03347
G1 X239.094 Y178.181 E0.03347
G1 X238.866 Y178.931 E0.03347
G1 X238.497 Y179.623 E0.03347
G1 X237.974 Y180.259 E0.03514
G1 X180.259 Y237.974 E3.48372
G1 X179.623 Y238.497 E0.03514
G1 X178.931 Y238.866 E0.03347
G1 X178.181 Y239.094 E0.03347
G1 X177.4 Y239.171 E0.03347
G1 X176.62 Y239.094 E0.03347
G1 X175.87 Y238.866 E0.03347
G1 X175.178 Y238.497 E0.03347
G1 X174.542 Y237.974 E0.03514
G1 X62.026 Y125.458 E6.79151
G1 X61.503 Y124.822 E0.03514
G1 X61.134 Y124.13 E0.03347
G1 X60.906 Y123.38 E0.03347
G1 X60.829 Y122.6 E0.03347
G1 X60.906 Y121.819 E0.03347
G1 X61.134 Y121.069 E0.03347
G1 X61.503 Y120.377 E0.03347
G1 X62.026 Y119.741 E0.03514
G1 X119.741 Y62.026 E3.48372
G1 X120.377 Y61.503 E0.03514
G1 X121.069 Y61.134 E0.03347
G1 X121.819 Y60.906 E0.03347
G1 X122.6 Y60.829 E0.03347
G1 X122.93 Y60.862 E0.01417
; acceleration to travel
M204 S10000
G1 X168.322 Y209.826 F48000
; decel to extrusion
M204 S2000
G1 X177.4 Y239.619
; end travel
; custom gcode: feature_gcode
; External perimeter
;ExternalPerimeter
SET_VELOCITY_LIMIT ACCEL=1000 ACCEL_TO_DECEL=1000 SQUARE_CORNER_VELOCITY=8

; Perimeter
; custom gcode end: feature_gcode

;TYPE:External perimeter
G1 F3600
G1 X176.533 Y239.534 E0.03722
G1 X175.698 Y239.281 E0.03722
G1 X174.929 Y238.87 E0.03722
G1 X174.242 Y238.305 E0.03796
G1 X61.695 Y125.758 E6.79339
G1 X61.13 Y125.071 E0.03795
G1 X60.719 Y124.302 E0.03722
G1 X60.466 Y123.467 E0.03722
G1 X60.381 Y122.6 E0.03722
G1 X60.466 Y121.732 E0.03722
G1 X60.719 Y120.897 E0.03722
G1 X61.13 Y120.128 E0.03722
G1 X61.695 Y119.441 E0.03796
G1 X119.441 Y61.695 E3.48559
G1 X120.128 Y61.13 E0.03796
G1 X120.897 Y60.719 E0.03722
G1 X121.732 Y60.466 E0.03722
G1 X122.6 Y60.381 E0.03722
G1 X123.034 Y60.423 E0.01861
G1 X123.467 Y60.466 E0.01861
G1 X124.302 Y60.719 E0.03722
G1 X125.071 Y61.13 E0.03722
G1 X125.758 Y61.695 E0.03795
G1 X238.305 Y174.242 E6.79339
G1 X238.87 Y174.929 E0.03795
G1 X239.281 Y175.698 E0.03722
G1 X239.534 Y176.533 E0.03722
G1 X239.619 Y177.4 E0.03722
G1 X239.534 Y178.268 E0.03722
G1 X239.281 Y179.103 E0.03722
G1 X238.87 Y179.872 E0.03722
G1 X238.305 Y180.559 E0.03796
G1 X180.559 Y238.305 E3.48559
G1 X179.872 Y238.87 E0.03796
G1 X179.103 Y239.281 E0.03722
G1 X178.268 Y239.534 E0.03722
G1 X177.46 Y239.613 E0.03466
;WIPE_START
M204 S10000
G1 X177.212 Y239.267 F48000
;WIPE_END
; acceleration to travel
G1 X132.566 Y91.553
; decel to extrusion
M204 S2000
G1 X123.653 Y62.062
; end travel
; custom gcode: feature_gcode
; External perimeter
;SolidInfill
SET_VELOCITY_LIMIT ACCEL=4000 ACCEL_TO_DECEL=4000 SQUARE_CORNER_VELOCITY=8

; Bridge infill
; custom gcode end: feature_gcode

;TYPE:Solid infill
;WIDTH:0.500302
G1 F3000
G1 X121.547 Y62.062 E0.08994
G1 X120.772 Y62.508 F48000
G1 F3000
G1 X124.428 Y62.508 E0.15614
G1 X124.935 Y62.954 F48000
G1 F3000
G1 X120.264 Y62.954 E0.19948
G1 X119.818 Y63.401 F48000
G1 F3000
G1 X125.381 Y63.401 E0.23761
G1 X125.828 Y63.847 F48000
G1 F3000
G1 X119.371 Y63.847 E0.27573
G1 X118.925 Y64.293 F48000
G1 F3000
G1 X126.274 Y64.293 E0.31385
G1 X126.72 Y64.74 F48000
G1 F3000
G1 X118.479 Y64.74 E0.35198
G1 X118.032 Y65.186 F48000
G1 F3000
G1 X127.167 Y65.186 E0.3901
G1 X127.613 Y65.632 F48000
G1 F3000
G1 X117.586 Y65.632 E0.42823
G1 X117.14 Y66.079 F48000
G1 F3000
G1 X128.06 Y66.079 E0.46635
G1 X128.506 Y66.525 F48000
G1 F3000
G1 X116.693 Y66.525 E0.50448
G1 X116.247 Y66.971 F48000
G1 F3000
G1 X128.952 Y66.971 E0.5426
G1 X129.399 Y67.418 F48000
G1 F3000
G1 X115.801 Y67.418 E0.58073
G1 X115.354 Y67.864 F48000
G1 F3000
G1 X129.845 Y67.864 E0.61885
G1 X130.291 Y68.31 F48000
G1 F3000
G1 X114.908 Y68.31 E0.65697
G1 X114.462 Y68.757 F48000
G1 F3000
G1 X130.738 Y68.757 E0.6951
G1 X131.184 Y69.203 F48000
G1 F3000
G1 X114.015 Y69.203 E0.73322
M73 P1 R128
G1 X113.569 Y69.649 F48000
G1 F3000
G1 X131.63 Y69.649 E0.77135
G1 X132.077 Y70.096 F48000
G1 F3000
G1 X113.123 Y70.096 E0.80947
G1 X112.676 Y70.542 F48000
G1 F3000
G1 X132.523 Y70.542 E0.8476
G1 X132.969 Y70.989 F48000
G1 F3000
G1 X112.23 Y70.989 E0.88572
G1 X111.784 Y71.435 F48000
G1 F3000
G1 X133.416 Y71.435 E0.92385
G1 X133.862 Y71.881 F48000
G1 F3000
G1 X111.337 Y71.881 E0.96197
G1 X110.891 Y72.328 F48000
G1 F3000
G1 X134.308 Y72.328 E1.00009
G1 X134.755 Y72.774 F48000
G1 F3000
G1 X110.444 Y72.774 E1.03822
G1 X109.998 Y73.22 F48000
G1 F3000
G1 X135.201 Y73.22 E1.07634
G1 X135.647 Y73.667 F48000
G1 F3000
G1 X109.552 Y73.667 E1.11447
G1 X109.105 Y74.113 F48000
G1 F3000
G1 X136.094 Y74.113 E1.15259
G1 X136.54 Y74.559 F48000
G1 F3000
G1 X108.659 Y74.559 E1.19072
G1 X108.213 Y75.006 F48000
G1 F3000
G1 X136.986 Y75.006 E1.22884
G1 X137.433 Y75.452 F48000
G1 F3000
G1 X107.766 Y75.452 E1.26697
G1 X107.32 Y75.898 F48000
G1 F3000
G1 X137.879 Y75.898 E1.30509
G1 X138.326 Y76.345 F48000
G1 F3000
G1 X106.874 Y76.345 E1.34321
G1 X106.427 Y76.791 F48000
G1 F3000
G1 X138.772 Y76.791 E1.38134
G1 X139.218 Y77.237 F48000
G1 F3000
G1 X105.981 Y77.237 E1.41946
G1 X105.535 Y77.684 F48000
G1 F3000
G1 X139.665 Y77.684 E1.45759
G1 X140.111 Y78.13 F48000
G1 F3000
G1 X105.088 Y78.13 E1.49571
G1 X104.642 Y78.576 F48000
G1 F3000
G1 X140.557 Y78.576 E1.53384
G1 X141.004 Y79.023 F48000
G1 F3000
G1 X104.196 Y79.023 E1.57196
G1 X103.749 Y79.469 F48000
G1 F3000
G1 X141.45 Y79.469 E1.61009
G1 X141.896 Y79.916 F48000
G1 F3000
G1 X103.303 Y79.915 E1.64821
G1 X102.857 Y80.362 F48000
G1 F3000
G1 X142.343 Y80.362 E1.68633
G1 X142.789 Y80.808 F48000
G1 F3000
G1 X102.41 Y80.808 E1.72446
G1 X101.964 Y81.255 F48000
G1 F3000
G1 X143.235 Y81.255 E1.76258
G1 X143.682 Y81.701 F48000
G1 F3000
G1 X101.517 Y81.701 E1.80071
G1 X101.071 Y82.147 F48000
G1 F3000
G1 X144.128 Y82.147 E1.83883
G1 X144.574 Y82.594 F48000
G1 F3000
G1 X100.625 Y82.594 E1.87696
G1 X100.178 Y83.04 F48000
G1 F3000
G1 X145.021 Y83.04 E1.91508
G1 X145.467 Y83.486 F48000
G1 F3000
G1 X99.732 Y83.486 E1.9532
G1 X99.286 Y83.933 F48000
G1 F3000
G1 X145.913 Y83.933 E1.99133
G1 X146.36 Y84.379 F48000
G1 F3000
G1 X98.839 Y84.379 E2.02945
G1 X98.393 Y84.825 F48000
G1 F3000
G1 X146.806 Y84.825 E2.06758
G1 X147.253 Y85.272 F48000
G1 F3000
G1 X97.947 Y85.272 E2.1057
G1 X97.5 Y85.718 F48000
G1 F3000
G1 X147.699 Y85.718 E2.14383
G1 X148.145 Y86.164 F48000
G1 F3000
G1 X97.054 Y86.164 E2.18195
G1 X96.608 Y86.611 F48000
G1 F3000
G1 X148.592 Y86.611 E2.22008
G1 X149.038 Y87.057 F48000
G1 F3000
G1 X96.161 Y87.057 E2.2582
G1 X95.715 Y87.503 F48000
G1 F3000
G1 X149.484 Y87.503 E2.29632
G1 X149.931 Y87.95 F48000
G1 F3000
G1 X95.269 Y87.95 E2.33445
G1 X94.822 Y88.396 F48000
G1 F3000
G1 X150.377 Y88.396 E2.37257
G1 X150.823 Y88.842 F48000
G1 F3000
G1 X94.376 Y88.842 E2.4107
G1 X93.93 Y89.289 F48000
G1 F3000
G1 X151.27 Y89.289 E2.44882
G1 X151.716 Y89.735 F48000
G1 F3000
G1 X93.483 Y89.735 E2.48695
M73 P1 R127
G1 X93.037 Y90.182 F48000
G1 F3000
G1 X152.162 Y90.182 E2.52507
G1 X152.609 Y90.628 F48000
G1 F3000
G1 X92.591 Y90.628 E2.5632
G1 X92.144 Y91.074 F48000
G1 F3000
G1 X153.055 Y91.074 E2.60132
G1 X153.501 Y91.521 F48000
G1 F3000
G1 X91.698 Y91.521 E2.63944
