; generated by SuperSlicer 2.4 on 2023-12-18 at 17:02:01 UTC


;
;

;
;
; 

; external perimeters extrusion width = 0.40mm
; perimeters extrusion width = 0.46mm
; infill extrusion width = 0.64mm
; solid infill extrusion width = 0.56mm
; top infill extrusion width = 0.40mm
; first layer extrusion width = 0.50mm

; object:{"name":"single-1","id":"single-1.5-50.stl id:0 copy 0","object_center":[150.000000,150.000000,0.000000],"boundingbox_center":[150.000000,150.000000,25.000000],"boundingbox_size":[219.259920,219.259920,50.000000]}
; plater:{"center":[150.000000,150.000000,0.000000],"boundingbox_center":[150.000000,150.000000,25.000000],"boundingbox_size":[219.259920,219.259920,50.000000]}

M73 P0 R162


; Pre-Processed for Cancel-Object support by preprocess_cancellation v0.2.0
; 1 known objects
EXCLUDE_OBJECT_DEFINE NAME=single_1_5_50_stl_id_0_copy_0 CENTER=150.433,149.768 POLYGON=[[40.571,40.571],[40.571,259.423],[259.429,259.423],[259.429,40.571]]
;TYPE:Custom
; custom gcode: start_gcode
M190 S0
M104 S0
PRINT_START EXTRUDER_TEMP=225 BED_TEMP=60 FILAMENT=PLA SIZE=38.6773_38.6795_261.323_261.323 ENCLOSURE_TEMP=0
; custom gcode end: start_gcode
M107
G21 ; set units to millimeters
G90 ; use absolute coordinates
M83 ; use relative distances for extrusion
;_TOOLCHANGE 0
;LAYER_CHANGE
;Z:0.25
;HEIGHT:0.25
G1 Z0.25 F48000
; custom gcode: layer_gcode
;DISPLAY_PROGRESS TOTAL_LAYERS=250 CURRENT_LAYER=0
; custom gcode end: layer_gcode

G92 E0
G1 E-1.6 F1800
G1 Z0.65 F48000
M204 S2000
G1 X87.551 Y87.551
G1 Z0.25
G1 E1.6 F1800
; custom gcode: feature_gcode
; External perimeter
;Skirt
SET_VELOCITY_LIMIT ACCEL=7000 ACCEL_TO_DECEL=7000 SQUARE_CORNER_VELOCITY=8

; Support material
; custom gcode end: feature_gcode

;TYPE:Skirt
;WIDTH:0.46
G1 F4800
G1 X41.611 Y133.492 E2.52447
G1 X40.654 Y134.65 E0.0584
G1 X40.177 Y135.409 E0.03484
G1 X39.72 Y136.354 E0.04077
G1 X39.423 Y137.201 E0.03486
G1 X39.188 Y138.223 E0.04077
G1 X39.086 Y139.114 E0.03485
G1 X39.084 Y140.163 E0.04074
G1 X39.183 Y141.06 E0.03508
G1 X39.421 Y142.106 E0.04166
G1 X39.72 Y142.963 E0.03529
G1 X40.177 Y143.908 E0.04077
G1 X40.654 Y144.667 E0.03483
G1 X41.611 Y145.826 E0.0584
G1 X154.174 Y258.389 E6.18549
G1 X155.333 Y259.346 E0.0584
G1 X156.092 Y259.823 E0.03483
G1 X157.037 Y260.28 E0.04077
G1 X157.884 Y260.577 E0.03486
G1 X158.906 Y260.812 E0.04077
G1 X159.797 Y260.914 E0.03485
G1 X160.846 Y260.916 E0.04074
G1 X161.743 Y260.817 E0.03509
G1 X162.789 Y260.579 E0.04166
G1 X163.646 Y260.28 E0.03528
G1 X164.591 Y259.823 E0.04077
G1 X165.35 Y259.346 E0.03484
G1 X166.508 Y258.389 E0.0584
G1 X258.389 Y166.508 E5.04894
G1 X259.346 Y165.35 E0.0584
G1 X259.823 Y164.591 E0.03484
G1 X260.28 Y163.646 E0.04077
G1 X260.577 Y162.799 E0.03486
G1 X260.812 Y161.777 E0.04077
G1 X260.914 Y160.886 E0.03485
G1 X260.916 Y159.837 E0.04074
G1 X260.817 Y158.94 E0.03509
G1 X260.579 Y157.894 E0.04166
G1 X260.28 Y157.037 E0.03528
G1 X259.823 Y156.092 E0.04077
G1 X259.346 Y155.333 E0.03483
G1 X258.389 Y154.174 E0.0584
G1 X145.826 Y41.611 E6.18548
G1 X144.634 Y40.633 E0.05992
G1 X143.883 Y40.164 E0.03438
G1 X142.959 Y39.719 E0.03986
G1 X142.116 Y39.423 E0.03471
G1 X141.094 Y39.188 E0.04077
G1 X140.194 Y39.086 E0.03518
G1 X139.123 Y39.086 E0.04163
G1 X138.223 Y39.188 E0.03518
G1 X137.201 Y39.423 E0.04077
G1 X136.354 Y39.72 E0.03486
G1 X135.409 Y40.177 E0.04077
G1 X134.65 Y40.654 E0.03484
G1 X133.492 Y41.611 E0.0584
G1 X87.594 Y87.509 E2.52214
G1 X87.881 Y87.796 F48000
G1 F4800
G1 X41.898 Y133.779 E2.5268
G1 X40.972 Y134.904 E0.05663
G1 X40.542 Y135.586 E0.03131
G1 X40.086 Y136.531 E0.04077
G1 X39.819 Y137.292 E0.03134
G1 X39.584 Y138.314 E0.04077
G1 X39.492 Y139.115 E0.03132
G1 X39.49 Y140.164 E0.04074
G1 X39.58 Y140.97 E0.03153
G1 X39.817 Y142.016 E0.04166
G1 X40.086 Y142.786 E0.03172
G1 X40.543 Y143.731 E0.04077
G1 X40.972 Y144.413 E0.03131
G1 X41.898 Y145.538 E0.05664
G1 X154.462 Y258.102 E6.18549
G1 X155.587 Y259.028 E0.05664
G1 X156.269 Y259.458 E0.03131
G1 X157.214 Y259.914 E0.04077
G1 X157.975 Y260.181 E0.03134
G1 X158.997 Y260.416 E0.04077
G1 X159.798 Y260.508 E0.03132
G1 X160.847 Y260.51 E0.04074
G1 X161.653 Y260.42 E0.03154
G1 X162.699 Y260.183 E0.04166
G1 X163.469 Y259.914 E0.03171
G1 X164.414 Y259.458 E0.04077
G1 X165.096 Y259.028 E0.03131
G1 X166.221 Y258.102 E0.05663
G1 X258.102 Y166.221 E5.04894
G1 X259.028 Y165.096 E0.05663
G1 X259.458 Y164.414 E0.03131
G1 X259.914 Y163.469 E0.04077
G1 X260.181 Y162.708 E0.03134
G1 X260.416 Y161.686 E0.04077
G1 X260.508 Y160.885 E0.03132
G1 X260.51 Y159.836 E0.04074
G1 X260.42 Y159.03 E0.03154
G1 X260.183 Y157.984 E0.04166
G1 X259.914 Y157.214 E0.03171
G1 X259.458 Y156.269 E0.04077
G1 X259.028 Y155.587 E0.03131
G1 X258.102 Y154.462 E0.05664
G1 X145.538 Y41.898 E6.18548
G1 X144.381 Y40.952 E0.05809
G1 X143.707 Y40.53 E0.0309
G1 X142.783 Y40.085 E0.03986
G1 X142.025 Y39.819 E0.0312
G1 X141.003 Y39.584 E0.04077
G1 X140.194 Y39.492 E0.03162
G1 X139.123 Y39.492 E0.04163
G1 X138.314 Y39.584 E0.03162
G1 X137.292 Y39.819 E0.04077
G1 X136.531 Y40.086 E0.03134
G1 X135.586 Y40.542 E0.04077
G1 X134.904 Y40.972 E0.03131
G1 X133.779 Y41.898 E0.05663
G1 X87.923 Y87.754 E2.51981
G1 X88.211 Y88.041 F48000
G1 F4800
G1 X42.186 Y134.066 E2.52913
G1 X41.289 Y135.157 E0.05487
G1 X40.908 Y135.763 E0.02779
G1 X40.452 Y136.708 E0.04077
G1 X40.215 Y137.383 E0.02781
G1 X39.98 Y138.405 E0.04077
G1 X39.899 Y139.116 E0.0278
G1 X39.896 Y140.165 E0.04074
G1 X39.976 Y140.88 E0.02798
G1 X40.213 Y141.926 E0.04166
G1 X40.452 Y142.61 E0.02814
G1 X40.908 Y143.555 E0.04077
G1 X41.289 Y144.16 E0.02778
G1 X42.186 Y145.251 E0.05487
G1 X154.749 Y257.814 E6.18549
G1 X155.84 Y258.711 E0.05487
G1 X156.446 Y259.092 E0.02778
G1 X157.39 Y259.548 E0.04077
G1 X158.066 Y259.785 E0.02781
G1 X159.088 Y260.02 E0.04077
G1 X159.799 Y260.101 E0.02779
G1 X160.848 Y260.104 E0.04074
G1 X161.563 Y260.024 E0.02799
G1 X162.609 Y259.787 E0.04166
G1 X163.293 Y259.548 E0.02814
G1 X164.237 Y259.092 E0.04077
G1 X164.843 Y258.711 E0.02779
G1 X165.934 Y257.814 E0.05487
G1 X257.814 Y165.934 E5.04894
G1 X258.711 Y164.843 E0.05487
G1 X259.092 Y164.237 E0.02779
G1 X259.548 Y163.292 E0.04077
G1 X259.785 Y162.617 E0.02781
G1 X260.02 Y161.595 E0.04077
G1 X260.101 Y160.884 E0.0278
G1 X260.104 Y159.835 E0.04074
G1 X260.024 Y159.12 E0.02799
G1 X259.787 Y158.074 E0.04166
G1 X259.548 Y157.39 E0.02814
G1 X259.092 Y156.446 E0.04077
G1 X258.711 Y155.84 E0.02778
G1 X257.814 Y154.749 E0.05487
G1 X145.251 Y42.186 E6.18548
G1 X144.129 Y41.27 E0.05626
G1 X143.531 Y40.896 E0.02743
G1 X142.607 Y40.451 E0.03986
G1 X141.934 Y40.215 E0.02769
G1 X140.912 Y39.98 E0.04077
G1 X140.194 Y39.899 E0.02806
G1 X139.123 Y39.899 E0.04163
G1 X138.405 Y39.98 E0.02806
G1 X137.383 Y40.215 E0.04077
G1 X136.708 Y40.452 E0.02781
G1 X135.763 Y40.908 E0.04077
G1 X135.157 Y41.289 E0.02779
G1 X134.066 Y42.186 E0.05487
G1 X88.253 Y87.999 E2.51748
M104 S225 ; set temperature
G1 E-1.6 F1800
M204 S10000
G1 Z0.65 F48000
; printing object single-1.5-50.stl id:0 copy 0
EXCLUDE_OBJECT_START NAME=single_1_5_50_stl_id_0_copy_0
; acceleration to travel
G1 X131.522 Y51.94
; decel to extrusion
M204 S2000
G1 X140.175 Y44.728
; end travel
G1 Z0.25
G1 E1.6 F1800
; custom gcode: feature_gcode
; External perimeter
;Perimeter
SET_VELOCITY_LIMIT ACCEL=2000 ACCEL_TO_DECEL=2000 SQUARE_CORNER_VELOCITY=8

; Overhang perimeter
; custom gcode end: feature_gcode

;TYPE:Internal perimeter
;WIDTH:0.5
G1 F4800
G1 X140.688 Y44.846 E0.02243
G1 X141.293 Y45.137 E0.02867
G1 X141.928 Y45.639 E0.03455
G1 X254.363 Y158.075 E6.78664
G1 X254.854 Y158.69 E0.03358
G1 X255.154 Y159.311 E0.02945
G1 X255.311 Y160.005 E0.03037
G1 X255.31 Y160.695 E0.02946
G1 X255.155 Y161.37 E0.02954
G1 X254.854 Y161.993 E0.02955
G1 X254.363 Y162.608 E0.03358
G1 X162.608 Y254.363 E5.53835
M73 P0 R161
G1 X161.993 Y254.854 E0.03358
G1 X161.372 Y255.154 E0.02945
G1 X160.678 Y255.311 E0.03037
G1 X159.988 Y255.31 E0.02946
G1 X159.313 Y255.155 E0.02954
G1 X158.69 Y254.854 E0.02955
G1 X158.075 Y254.363 E0.03358
G1 X45.637 Y141.925 E6.78678
G1 X45.146 Y141.31 E0.03358
G1 X44.846 Y140.689 E0.02945
G1 X44.689 Y139.995 E0.03037
G1 X44.69 Y139.305 E0.02946
G1 X44.845 Y138.63 E0.02954
G1 X45.146 Y138.007 E0.02955
G1 X45.637 Y137.392 E0.03358
G1 X137.392 Y45.637 E5.53835
G1 X138.007 Y45.146 E0.03358
G1 X138.63 Y44.845 E0.02955
G1 X139.303 Y44.691 E0.02946
G1 X140.014 Y44.691 E0.03034
G1 X140.117 Y44.714 E0.00451
G1 X140.275 Y44.293 F48000
G1 F4800
G1 X140.836 Y44.422 E0.02456
G1 X141.531 Y44.756 E0.03291
G1 X142.225 Y45.306 E0.03777
G1 X254.696 Y157.777 E6.78881
G1 X255.234 Y158.451 E0.03679
G1 X255.578 Y159.163 E0.03375
G1 X255.758 Y159.955 E0.03469
G1 X255.756 Y160.746 E0.03375
G1 X255.578 Y161.519 E0.03382
G1 X255.234 Y162.232 E0.03383
G1 X254.696 Y162.906 E0.03679
G1 X162.906 Y254.696 E5.54049
G1 X162.232 Y255.234 E0.03679
G1 X161.52 Y255.578 E0.03375
G1 X160.727 Y255.758 E0.03469
G1 X159.937 Y255.756 E0.03375
G1 X159.164 Y255.578 E0.03382
G1 X158.451 Y255.234 E0.03383
G1 X157.777 Y254.696 E0.03679
G1 X45.304 Y142.223 E6.78891
G1 X44.766 Y141.549 E0.03679
G1 X44.422 Y140.837 E0.03375
G1 X44.242 Y140.045 E0.03469
G1 X44.244 Y139.254 E0.03375
G1 X44.422 Y138.481 E0.03382
G1 X44.766 Y137.768 E0.03383
G1 X45.304 Y137.094 E0.03679
G1 X137.094 Y45.304 E5.54049
G1 X137.768 Y44.766 E0.03679
G1 X138.481 Y44.422 E0.03383
G1 X139.252 Y44.244 E0.03377
G1 X140.065 Y44.244 E0.03467
G1 X140.217 Y44.279 E0.00667
G1 X140.375 Y43.858 F48000
G1 F4800
G1 X140.985 Y43.998 E0.02669
G1 X141.769 Y44.376 E0.03716
G1 X142.522 Y44.972 E0.04098
G1 X255.029 Y157.479 E6.79098
G1 X255.614 Y158.211 E0.04
G1 X256.002 Y159.014 E0.03806
G1 X256.204 Y159.906 E0.03901
G1 X256.202 Y160.797 E0.03805
G1 X256.002 Y161.667 E0.03811
G1 X255.614 Y162.472 E0.03811
G1 X255.029 Y163.204 E0.04
G1 X163.204 Y255.029 E5.54262
G1 X162.472 Y255.614 E0.04
G1 X161.668 Y256.002 E0.03806
G1 X160.777 Y256.204 E0.03901
G1 X159.886 Y256.202 E0.03805
G1 X159.015 Y256.002 E0.03811
G1 X158.211 Y255.614 E0.03811
G1 X157.479 Y255.029 E0.04
G1 X44.971 Y142.521 E6.79105
G1 X44.386 Y141.789 E0.04
G1 X43.998 Y140.986 E0.03806
G1 X43.796 Y140.094 E0.03901
G1 X43.798 Y139.203 E0.03805
G1 X43.998 Y138.333 E0.03811
G1 X44.386 Y137.528 E0.03811
G1 X44.971 Y136.796 E0.04
G1 X136.796 Y44.971 E5.54262
G1 X137.528 Y44.386 E0.04
G1 X138.333 Y43.998 E0.03811
G1 X139.202 Y43.798 E0.03807
G1 X140.115 Y43.798 E0.03899
G1 X140.317 Y43.844 E0.00883
; acceleration to travel
M204 S10000
G1 X156.582 Y221.181 F48000
; decel to extrusion
M204 S2000
G1 X159.834 Y256.648
; end travel
; custom gcode: feature_gcode
; External perimeter
;ExternalPerimeter
SET_VELOCITY_LIMIT ACCEL=1000 ACCEL_TO_DECEL=1000 SQUARE_CORNER_VELOCITY=8

; Perimeter
; custom gcode end: feature_gcode

;TYPE:External perimeter
G1 F4800
G1 X158.867 Y256.426 E0.04239
G1 X157.972 Y255.994 E0.04239
G1 X157.181 Y255.363 E0.0432
G1 X44.637 Y142.819 E6.79318
G1 X44.006 Y142.028 E0.0432
G1 X43.574 Y141.134 E0.04237
G1 X43.35 Y140.144 E0.04334
G1 X43.352 Y139.152 E0.04235
G1 X43.574 Y138.184 E0.04239
G1 X44.006 Y137.289 E0.04239
G1 X44.637 Y136.498 E0.0432
G1 X136.498 Y44.637 E5.54475
G1 X137.289 Y44.006 E0.0432
G1 X138.184 Y43.574 E0.04239
G1 X139.151 Y43.352 E0.04237
G1 X140.166 Y43.352 E0.04331
G1 X140.475 Y43.423 E0.01355
G1 X141.134 Y43.574 E0.02883
G1 X142.008 Y43.995 E0.0414
G1 X142.82 Y44.638 E0.0442
G1 X255.363 Y157.181 E6.79315
G1 X255.994 Y157.972 E0.0432
G1 X256.426 Y158.866 E0.04237
G1 X256.65 Y159.856 E0.04334
G1 X256.648 Y160.848 E0.04235
G1 X256.426 Y161.816 E0.04239
G1 X255.994 Y162.711 E0.04239
G1 X255.363 Y163.502 E0.0432
G1 X163.502 Y255.363 E5.54475
G1 X162.711 Y255.994 E0.0432
G1 X161.817 Y256.426 E0.04237
G1 X160.827 Y256.65 E0.04334
G1 X159.894 Y256.648 E0.03979
;WIPE_START
M204 S10000
G1 X159.689 Y256.276 F48000
;WIPE_END
; acceleration to travel
G1 X143.903 Y80.165
; decel to extrusion
M204 S2000
G1 X140.753 Y45.026
; end travel
; custom gcode: feature_gcode
; External perimeter
;SolidInfill
SET_VELOCITY_LIMIT ACCEL=4000 ACCEL_TO_DECEL=4000 SQUARE_CORNER_VELOCITY=8

; Bridge infill
; custom gcode end: feature_gcode

;TYPE:Solid infill
;WIDTH:0.500239
G1 F4200
G1 X138.565 Y45.026 E0.09342
G1 X137.814 Y45.472 F48000
G1 F4200
G1 X141.5 Y45.472 E0.15742
G1 X142.017 Y45.918 F48000
G1 F4200
G1 X137.3 Y45.918 E0.20142
G1 X136.854 Y46.365 F48000
G1 F4200
G1 X142.463 Y46.365 E0.23954
G1 X142.91 Y46.811 F48000
G1 F4200
G1 X136.407 Y46.811 E0.27766
G1 X135.961 Y47.257 F48000
G1 F4200
G1 X143.356 Y47.257 E0.31578
G1 X143.802 Y47.704 F48000
G1 F4200
G1 X135.515 Y47.704 E0.3539
G1 X135.068 Y48.15 F48000
G1 F4200
G1 X144.249 Y48.15 E0.39202
G1 X144.695 Y48.596 F48000
G1 F4200
G1 X134.622 Y48.596 E0.43014
G1 X134.176 Y49.043 F48000
G1 F4200
G1 X145.141 Y49.043 E0.46826
G1 X145.588 Y49.489 F48000
G1 F4200
G1 X133.729 Y49.489 E0.50638
G1 X133.283 Y49.935 F48000
G1 F4200
G1 X146.034 Y49.935 E0.5445
G1 X146.48 Y50.382 F48000
G1 F4200
G1 X132.837 Y50.382 E0.58262
G1 X132.39 Y50.828 F48000
G1 F4200
G1 X146.927 Y50.828 E0.62074
G1 X147.373 Y51.274 F48000
G1 F4200
G1 X131.944 Y51.274 E0.65886
G1 X131.498 Y51.721 F48000
G1 F4200
G1 X147.82 Y51.721 E0.69697
G1 X148.266 Y52.167 F48000
G1 F4200
G1 X131.051 Y52.167 E0.73509
G1 X130.605 Y52.614 F48000
G1 F4200
G1 X148.712 Y52.614 E0.77321
G1 X149.159 Y53.06 F48000
G1 F4200
G1 X130.159 Y53.06 E0.81133
G1 X129.712 Y53.506 F48000
G1 F4200
G1 X149.605 Y53.506 E0.84945
G1 X150.051 Y53.953 F48000
G1 F4200
G1 X129.266 Y53.953 E0.88757
G1 X128.819 Y54.399 F48000
G1 F4200
G1 X150.498 Y54.399 E0.92569
G1 X150.944 Y54.845 F48000
G1 F4200
G1 X128.373 Y54.845 E0.96381
G1 X127.927 Y55.292 F48000
G1 F4200
G1 X151.39 Y55.292 E1.00193
G1 X151.837 Y55.738 F48000
G1 F4200
G1 X127.48 Y55.738 E1.04005
G1 X127.034 Y56.184 F48000
G1 F4200
G1 X152.283 Y56.184 E1.07817
G1 X152.729 Y56.631 F48000
G1 F4200
G1 X126.588 Y56.631 E1.11629
G1 X126.141 Y57.077 F48000
G1 F4200
G1 X153.176 Y57.077 E1.15441
G1 X153.622 Y57.523 F48000
G1 F4200
G1 X125.695 Y57.523 E1.19253
G1 X125.249 Y57.97 F48000
G1 F4200
G1 X154.068 Y57.97 E1.23065
G1 X154.515 Y58.416 F48000
G1 F4200
G1 X124.802 Y58.416 E1.26877
G1 X124.356 Y58.862 F48000
G1 F4200
G1 X154.961 Y58.862 E1.30689
G1 X155.407 Y59.309 F48000
G1 F4200
G1 X123.91 Y59.309 E1.34501
G1 X123.463 Y59.755 F48000
G1 F4200
G1 X155.854 Y59.755 E1.38313
G1 X156.3 Y60.201 F48000
G1 F4200
G1 X123.017 Y60.201 E1.42125
G1 X122.571 Y60.648 F48000
G1 F4200
G1 X156.747 Y60.648 E1.45937
G1 X157.193 Y61.094 F48000
G1 F4200
G1 X122.124 Y61.094 E1.49749
G1 X121.678 Y61.54 F48000
G1 F4200
G1 X157.639 Y61.54 E1.53561
G1 X158.086 Y61.987 F48000
G1 F4200
G1 X121.232 Y61.987 E1.57373
G1 X120.785 Y62.433 F48000
G1 F4200
G1 X158.532 Y62.433 E1.61185
G1 X158.978 Y62.88 F48000
G1 F4200
G1 X120.339 Y62.88 E1.64997
G1 X119.893 Y63.326 F48000
G1 F4200
G1 X159.425 Y63.326 E1.68809
G1 X159.871 Y63.772 F48000
G1 F4200
G1 X119.446 Y63.772 E1.72621
G1 X119 Y64.219 F48000
G1 F4200
G1 X160.317 Y64.219 E1.76433
G1 X160.764 Y64.665 F48000
G1 F4200
G1 X118.553 Y64.665 E1.80245
G1 X118.107 Y65.111 F48000
G1 F4200
G1 X161.21 Y65.111 E1.84057
G1 X161.656 Y65.558 F48000
G1 F4200
G1 X117.661 Y65.558 E1.87869
G1 X117.214 Y66.004 F48000
G1 F4200
G1 X162.103 Y66.004 E1.9168
G1 X162.549 Y66.45 F48000
G1 F4200
G1 X116.768 Y66.45 E1.95492
G1 X116.322 Y66.897 F48000
G1 F4200
G1 X162.995 Y66.897 E1.99304
G1 X163.442 Y67.343 F48000
G1 F4200
G1 X115.875 Y67.343 E2.03116
G1 X115.429 Y67.789 F48000
G1 F4200
G1 X163.888 Y67.789 E2.06928
G1 X164.334 Y68.236 F48000
G1 F4200
G1 X114.983 Y68.236 E2.1074
G1 X114.536 Y68.682 F48000
G1 F4200
G1 X164.781 Y68.682 E2.14552
G1 X165.227 Y69.128 F48000
G1 F4200
G1 X114.09 Y69.128 E2.18364
G1 X113.644 Y69.575 F48000
G1 F4200
G1 X165.673 Y69.575 E2.22176
G1 X166.12 Y70.021 F48000
G1 F4200
G1 X113.197 Y70.021 E2.25988
G1 X112.751 Y70.467 F48000
G1 F4200
G1 X166.566 Y70.467 E2.298
G1 X167.013 Y70.914 F48000
G1 F4200
G1 X112.305 Y70.914 E2.33612
G1 X111.858 Y71.36 F48000
G1 F4200
G1 X167.459 Y71.36 E2.37424
G1 X167.905 Y71.807 F48000
G1 F4200
G1 X111.412 Y71.807 E2.41236
G1 X110.966 Y72.253 F48000
G1 F4200
